/* XPM */
static char * zdoom_xpm[] = {
"256 256 13057 3",
"   	c #000000",
".  	c #020202",
"+  	c #181818",
"@  	c #3A3A3A",
"#  	c #656565",
"$  	c #7C7C7C",
"%  	c #A1A1A1",
"&  	c #BBBBBB",
"*  	c #D2D2D2",
"=  	c #E7E7E7",
"-  	c #EFEFEF",
";  	c #F1F1F1",
">  	c #F5F5F5",
",  	c #F6F6F6",
"'  	c #F4F4F4",
")  	c #F8F8F8",
"!  	c #F7F7F7",
"~  	c #F3F3F3",
"{  	c #F0F0F0",
"]  	c #EBEBEB",
"^  	c #EEEEEE",
"/  	c #F9F9F9",
"(  	c #FCFCFC",
"_  	c #FDFDFD",
":  	c #CECECE",
"<  	c #B3B3B3",
"[  	c #939393",
"}  	c #6E6E6E",
"|  	c #484848",
"1  	c #212121",
"2  	c #0D0D0D",
"3  	c #16060B",
"4  	c #C13F7C",
"5  	c #FF52A3",
"6  	c #F1458A",
"7  	c #FF54A7",
"8  	c #8E2B56",
"9  	c #1D0911",
"0  	c #C74182",
"a  	c #80274C",
"b  	c #1C1C1C",
"c  	c #4B4B4B",
"d  	c #707070",
"e  	c #929292",
"f  	c #C1C1C1",
"g  	c #DADADA",
"h  	c #F2F2F2",
"i  	c #FFFFFF",
"j  	c #FAFAFA",
"k  	c #EAEAEA",
"l  	c #E9E9E9",
"m  	c #E6E6E6",
"n  	c #ECECEC",
"o  	c #E8E8E8",
"p  	c #E5E5E5",
"q  	c #E1E1E1",
"r  	c #DBDBDB",
"s  	c #E2E2E2",
"t  	c #FBFBFB",
"u  	c #EDEDED",
"v  	c #D9D9D9",
"w  	c #AFAFAF",
"x  	c #7E7E7E",
"y  	c #555555",
"z  	c #2C2C2C",
"A  	c #060606",
"B  	c #391020",
"C  	c #DB478D",
"D  	c #EC4385",
"E  	c #FC4C97",
"F  	c #EE4B93",
"G  	c #250B16",
"H  	c #070102",
"I  	c #6B2141",
"J  	c #F559B0",
"K  	c #D54B94",
"L  	c #11050A",
"M  	c #040404",
"N  	c #2E2E2E",
"O  	c #545454",
"P  	c #7F7F7F",
"Q  	c #ACACAC",
"R  	c #D3D3D3",
"S  	c #E4E4E4",
"T  	c #E3E3E3",
"U  	c #D8D8D8",
"V  	c #E0E0E0",
"W  	c #C5C5C5",
"X  	c #979797",
"Y  	c #5F5F5F",
"Z  	c #2F2F2F",
"`  	c #0E0E0E",
" . 	c #040103",
".. 	c #4B162D",
"+. 	c #ED4E9A",
"@. 	c #FF54A5",
"#. 	c #EC4588",
"$. 	c #ED4587",
"%. 	c #FF56AB",
"&. 	c #952E5C",
"*. 	c #3E1327",
"=. 	c #BE3C79",
"-. 	c #FF5CB6",
";. 	c #FF59B2",
">. 	c #300E1B",
",. 	c #131313",
"'. 	c #474747",
"). 	c #7D7D7D",
"!. 	c #DCDCDC",
"~. 	c #DDDDDD",
"{. 	c #DFDFDF",
"]. 	c #DEDEDE",
"^. 	c #D0D0D0",
"/. 	c #D6D6D6",
"(. 	c #D7D7D7",
"_. 	c #D5D5D5",
":. 	c #CFCFCF",
"<. 	c #6D6D6D",
"[. 	c #3F3F3F",
"}. 	c #111111",
"|. 	c #340F1E",
"1. 	c #060204",
"2. 	c #692041",
"3. 	c #FF53A5",
"4. 	c #FF509E",
"5. 	c #EB4386",
"6. 	c #EB4487",
"7. 	c #FF4D99",
"8. 	c #F64F9B",
"9. 	c #15060C",
"0. 	c #0B0205",
"a. 	c #953162",
"b. 	c #FE52A2",
"c. 	c #FF53A4",
"d. 	c #FF57AD",
"e. 	c #752244",
"f. 	c #070707",
"g. 	c #323232",
"h. 	c #595959",
"i. 	c #898989",
"j. 	c #B7B7B7",
"k. 	c #D1D1D1",
"l. 	c #CDCDCD",
"m. 	c #CACACA",
"n. 	c #C8C8C8",
"o. 	c #BEBEBE",
"p. 	c #BCBCBC",
"q. 	c #CCCCCC",
"r. 	c #1A1A1A",
"s. 	c #7F254A",
"t. 	c #2A0D18",
"u. 	c #77264C",
"v. 	c #FF56AC",
"w. 	c #FF4D9A",
"x. 	c #EB4486",
"y. 	c #ED458A",
"z. 	c #EE4489",
"A. 	c #FF56A9",
"B. 	c #832951",
"C. 	c #0D0509",
"D. 	c #D6468C",
"E. 	c #FF56AD",
"F. 	c #FB4990",
"G. 	c #BA3A74",
"H. 	c #030001",
"I. 	c #2A2A2A",
"J. 	c #797979",
"K. 	c #ABABAB",
"L. 	c #B9B9B9",
"M. 	c #B4B4B4",
"N. 	c #A6A6A6",
"O. 	c #A5A5A5",
"P. 	c #B0B0B0",
"Q. 	c #D4D4D4",
"R. 	c #C7C7C7",
"S. 	c #CBCBCB",
"T. 	c #B6B6B6",
"U. 	c #303030",
"V. 	c #0A0204",
"W. 	c #A73161",
"X. 	c #561A32",
"Y. 	c #852954",
"Z. 	c #F94A94",
"`. 	c #EA4486",
" + 	c #EE468B",
".+ 	c #EB4588",
"++ 	c #FD4C97",
"@+ 	c #EA4B93",
"#+ 	c #993060",
"$+ 	c #FF5AB5",
"%+ 	c #EB4284",
"&+ 	c #FE4E9A",
"*+ 	c #F24D9A",
"=+ 	c #270B17",
"-+ 	c #1E1E1E",
";+ 	c #646464",
">+ 	c #C6C6C6",
",+ 	c #C0C0C0",
"'+ 	c #9D9D9D",
")+ 	c #848484",
"!+ 	c #838383",
"~+ 	c #8F8F8F",
"{+ 	c #C4C4C4",
"]+ 	c #C2C2C2",
"^+ 	c #C9C9C9",
"/+ 	c #BDBDBD",
"(+ 	c #B1B1B1",
"_+ 	c #BABABA",
":+ 	c #B8B8B8",
"<+ 	c #252525",
"[+ 	c #020000",
"}+ 	c #C23B76",
"|+ 	c #902C56",
"1+ 	c #8D2D59",
"2+ 	c #FF58AE",
"3+ 	c #FA4A92",
"4+ 	c #F04589",
"5+ 	c #FF55AA",
"6+ 	c #772449",
"7+ 	c #1C080F",
"8+ 	c #FA519E",
"9+ 	c #F5488F",
"0+ 	c #F1488D",
"a+ 	c #5B1C38",
"b+ 	c #4C4C4C",
"c+ 	c #8D8D8D",
"d+ 	c #A7A7A7",
"e+ 	c #717171",
"f+ 	c #777777",
"g+ 	c #8A8A8A",
"h+ 	c #A0A0A0",
"i+ 	c #A2A2A2",
"j+ 	c #AAAAAA",
"k+ 	c #A3A3A3",
"l+ 	c #9E9E9E",
"m+ 	c #959595",
"n+ 	c #9C9C9C",
"o+ 	c #949494",
"p+ 	c #9B9B9B",
"q+ 	c #B2B2B2",
"r+ 	c #C3C3C3",
"s+ 	c #A8A8A8",
"t+ 	c #BFBFBF",
"u+ 	c #282828",
"v+ 	c #B13C78",
"w+ 	c #C34281",
"x+ 	c #010000",
"y+ 	c #842953",
"z+ 	c #F64A92",
"A+ 	c #EA4487",
"B+ 	c #EB4488",
"C+ 	c #FE4D97",
"D+ 	c #F24C97",
"E+ 	c #1A070F",
"F+ 	c #8D2D5A",
"G+ 	c #FF54A4",
"H+ 	c #EC4283",
"I+ 	c #FF58AD",
"J+ 	c #A73466",
"K+ 	c #0D0407",
"L+ 	c #15070D",
"M+ 	c #030303",
"N+ 	c #3C3C3C",
"O+ 	c #7A7A7A",
"P+ 	c #757575",
"Q+ 	c #808080",
"R+ 	c #989898",
"S+ 	c #AEAEAE",
"T+ 	c #969696",
"U+ 	c #8C8C8C",
"V+ 	c #888888",
"W+ 	c #8E8E8E",
"X+ 	c #818181",
"Y+ 	c #8B8B8B",
"Z+ 	c #909090",
"`+ 	c #B5B5B5",
" @ 	c #A9A9A9",
".@ 	c #A4A4A4",
"+@ 	c #9A9A9A",
"@@ 	c #9F9F9F",
"#@ 	c #919191",
"$@ 	c #B23E7C",
"%@ 	c #F856AA",
"&@ 	c #12060B",
"*@ 	c #832851",
"=@ 	c #F84A91",
"-@ 	c #EA4387",
";@ 	c #EC4487",
">@ 	c #FF55A9",
",@ 	c #862B55",
"'@ 	c #E74486",
")@ 	c #FF4F9D",
"!@ 	c #D54588",
"~@ 	c #0C0306",
"{@ 	c #0A0305",
"]@ 	c #320E1B",
"^@ 	c #591830",
"/@ 	c #943263",
"(@ 	c #D84588",
"_@ 	c #4E172C",
":@ 	c #0B0B0B",
"<@ 	c #868686",
"[@ 	c #878787",
"}@ 	c #999999",
"|@ 	c #7B7B7B",
"1@ 	c #737373",
"2@ 	c #858585",
"3@ 	c #ADADAD",
"4@ 	c #787878",
"5@ 	c #AC3972",
"6@ 	c #FF62C2",
"7@ 	c #411326",
"8@ 	c #641F3E",
"9@ 	c #FC4B95",
"0@ 	c #EC4589",
"a@ 	c #F94B94",
"b@ 	c #F64D9A",
"c@ 	c #16060C",
"d@ 	c #531C37",
"e@ 	c #FF5AB3",
"f@ 	c #D84890",
"g@ 	c #290D19",
"h@ 	c #200912",
"i@ 	c #581B36",
"j@ 	c #942C58",
"k@ 	c #C43C75",
"l@ 	c #E94891",
"m@ 	c #FF5EBA",
"n@ 	c #FE58B0",
"o@ 	c #75254A",
"p@ 	c #0A0205",
"q@ 	c #171717",
"r@ 	c #676767",
"s@ 	c #747474",
"t@ 	c #6C6C6C",
"u@ 	c #6F6F6F",
"v@ 	c #696969",
"w@ 	c #232323",
"x@ 	c #070000",
"y@ 	c #AD3872",
"z@ 	c #FF69D1",
"A@ 	c #722243",
"B@ 	c #591B36",
"C@ 	c #FF54A8",
"D@ 	c #FC4D98",
"E@ 	c #E94386",
"F@ 	c #ED4489",
"G@ 	c #8F2C57",
"H@ 	c #290B16",
"I@ 	c #FC59AE",
"J@ 	c #BB4284",
"K@ 	c #50162C",
"L@ 	c #2F0D1A",
"M@ 	c #702244",
"N@ 	c #B33971",
"O@ 	c #F04890",
"P@ 	c #FF52A2",
"Q@ 	c #FF51A1",
"R@ 	c #FF5DB9",
"S@ 	c #C74283",
"T@ 	c #2D0C19",
"U@ 	c #1D1D1D",
"V@ 	c #828282",
"W@ 	c #767676",
"X@ 	c #727272",
"Y@ 	c #4F4F4F",
"Z@ 	c #0D0204",
"`@ 	c #BA3A72",
" # 	c #A33467",
".# 	c #3F1224",
"+# 	c #F752A2",
"@# 	c #EA4385",
"## 	c #EC458A",
"$# 	c #FB4A92",
"%# 	c #FF509D",
"&# 	c #320F1D",
"*# 	c #421326",
"=# 	c #5C1C38",
"-# 	c #4D1830",
";# 	c #B4376E",
"># 	c #EA4A93",
",# 	c #F4458A",
"'# 	c #FF4E9A",
")# 	c #99305F",
"!# 	c #6B6B6B",
"~# 	c #686868",
"{# 	c #505050",
"]# 	c #14050A",
"^# 	c #BC3A75",
"/# 	c #FF65C9",
"(# 	c #C7417F",
"_# 	c #0A0101",
":# 	c #080206",
"<# 	c #3F1223",
"[# 	c #F14D99",
"}# 	c #FF51A0",
"|# 	c #EA4485",
"1# 	c #BF3C74",
"2# 	c #0A0102",
"3# 	c #75254B",
"4# 	c #DC4587",
"5# 	c #FB4C96",
"6# 	c #F1478C",
"7# 	c #EA4386",
"8# 	c #672140",
"9# 	c #353535",
"0# 	c #120509",
"a# 	c #CA3E7B",
"b# 	c #FF60BF",
"c# 	c #DB4891",
"d# 	c #380F1F",
"e# 	c #3D1223",
"f# 	c #F34F9C",
"g# 	c #FF51A2",
"h# 	c #EE468A",
"i# 	c #F3488E",
"j# 	c #4C162D",
"k# 	c #010001",
"l# 	c #822952",
"m# 	c #E64A92",
"n# 	c #F6488F",
"o# 	c #EA4488",
"p# 	c #EF468B",
"q# 	c #FF56AA",
"r# 	c #DA468D",
"s# 	c #3F1326",
"t# 	c #0C0C0C",
"u# 	c #5A5A5A",
"v# 	c #606060",
"w# 	c #626262",
"x# 	c #373737",
"y# 	c #0D0305",
"z# 	c #BC3870",
"A# 	c #FF5AB2",
"B# 	c #591B35",
"C# 	c #561830",
"D# 	c #240A14",
"E# 	c #381121",
"F# 	c #F64F9C",
"G# 	c #FF519F",
"H# 	c #D1407E",
"I# 	c #9B3264",
"J# 	c #EE4589",
"K# 	c #F6478D",
"L# 	c #C03F7C",
"M# 	c #1F0810",
"N# 	c #010101",
"O# 	c #666666",
"P# 	c #6A6A6A",
"Q# 	c #404040",
"R# 	c #100409",
"S# 	c #BC3971",
"T# 	c #FF53A7",
"U# 	c #8F2B56",
"V# 	c #4A152A",
"W# 	c #310D1A",
"X# 	c #3C1223",
"Y# 	c #F851A0",
"Z# 	c #ED458B",
"`# 	c #F3478B",
" $ 	c #FF54A6",
".$ 	c #230A13",
"+$ 	c #FF53A3",
"@$ 	c #FD4B95",
"#$ 	c #ED468A",
"$$ 	c #F74991",
"%$ 	c #FF57AB",
"&$ 	c #9D3364",
"*$ 	c #050101",
"=$ 	c #5B5B5B",
"-$ 	c #090909",
";$ 	c #050102",
">$ 	c #A63263",
",$ 	c #C63E7B",
"'$ 	c #411225",
")$ 	c #250A12",
"!$ 	c #F14F9E",
"~$ 	c #EB4485",
"{$ 	c #FF4D98",
"]$ 	c #ED488F",
"^$ 	c #8B2A54",
"/$ 	c #EE4588",
"($ 	c #ED468B",
"_$ 	c #FA4B93",
":$ 	c #892C59",
"<$ 	c #962C58",
"[$ 	c #FA4E9B",
"}$ 	c #4E172D",
"|$ 	c #441529",
"1$ 	c #F14F9D",
"2$ 	c #FF509F",
"3$ 	c #ED4589",
"4$ 	c #7E274E",
"5$ 	c #060000",
"6$ 	c #EA4A92",
"7$ 	c #EB4587",
"8$ 	c #F74A94",
"9$ 	c #7D264D",
"0$ 	c #3B3B3B",
"a$ 	c #0F0F0F",
"b$ 	c #393939",
"c$ 	c #722143",
"d$ 	c #942D5A",
"e$ 	c #33101F",
"f$ 	c #EE509E",
"g$ 	c #FA4A93",
"h$ 	c #FD51A0",
"i$ 	c #4B182F",
"j$ 	c #F3478C",
"k$ 	c #FA4B95",
"l$ 	c #77254A",
"m$ 	c #616161",
"n$ 	c #101010",
"o$ 	c #4E162D",
"p$ 	c #FF52A4",
"q$ 	c #FE4E9B",
"r$ 	c #DB4487",
"s$ 	c #3A1224",
"t$ 	c #F451A0",
"u$ 	c #FF50A0",
"v$ 	c #B83870",
"w$ 	c #C33B77",
"x$ 	c #EE468C",
"y$ 	c #E94487",
"z$ 	c #F44991",
"A$ 	c #82274F",
"B$ 	c #3D3D3D",
"C$ 	c #5C5C5C",
"D$ 	c #380F20",
"E$ 	c #F24D99",
"F$ 	c #F4468C",
"G$ 	c #200914",
"H$ 	c #F04F9E",
"I$ 	c #FF52A1",
"J$ 	c #EB4385",
"K$ 	c #F4468D",
"L$ 	c #47152B",
"M$ 	c #280C18",
"N$ 	c #FE50A0",
"O$ 	c #FA4991",
"P$ 	c #EC468A",
"Q$ 	c #FF58AF",
"R$ 	c #882B56",
"S$ 	c #0A0A0A",
"T$ 	c #333333",
"U$ 	c #17060B",
"V$ 	c #E0488F",
"W$ 	c #EA4384",
"X$ 	c #972E5C",
"Y$ 	c #110508",
"Z$ 	c #E14A92",
"`$ 	c #FF4E9D",
" % 	c #DD4285",
".% 	c #952D5A",
"+% 	c #FF55A8",
"@% 	c #EB4589",
"#% 	c #A8356A",
"$% 	c #292929",
"%% 	c #444444",
"&% 	c #636363",
"*% 	c #535353",
"=% 	c #060102",
"-% 	c #B53B75",
";% 	c #EB4387",
">% 	c #F84990",
",% 	c #E7468A",
"'% 	c #611D3A",
")% 	c #CA3F7B",
"!% 	c #F1468B",
"~% 	c #682040",
"{% 	c #080102",
"]% 	c #F14B94",
"^% 	c #EE4488",
"/% 	c #BA3B76",
"(% 	c #070103",
"_% 	c #161616",
":% 	c #050505",
"<% 	c #262626",
"[% 	c #222222",
"}% 	c #932E5A",
"|% 	c #FF57AC",
"1% 	c #EB458A",
"2% 	c #F54990",
"3% 	c #DA3F7D",
"4% 	c #DC4081",
"5% 	c #FF4E9B",
"6% 	c #ED4488",
"7% 	c #FD4D98",
"8% 	c #F74D98",
"9% 	c #110407",
"0% 	c #5D1D39",
"a% 	c #DD468C",
"b% 	c #1A070E",
"c% 	c #141414",
"d% 	c #272727",
"e% 	c #5E5E5E",
"f% 	c #343434",
"g% 	c #6F2243",
"h% 	c #F64991",
"i% 	c #EF468C",
"j% 	c #EB468A",
"k% 	c #F1478D",
"l% 	c #FD4A93",
"m% 	c #EC4488",
"n% 	c #9A305E",
"o% 	c #D64181",
"p% 	c #E74284",
"q% 	c #EB4D9A",
"r% 	c #2A0C18",
"s% 	c #242424",
"t% 	c #4A162C",
"u% 	c #FE4D99",
"v% 	c #E94486",
"w% 	c #F84890",
"x% 	c #2D0D1A",
"y% 	c #391122",
"z% 	c #FA4C94",
"A% 	c #541A33",
"B% 	c #080808",
"C% 	c #151515",
"D% 	c #464646",
"E% 	c #FEFEFE",
"F% 	c #515151",
"G% 	c #5D5D5D",
"H% 	c #575757",
"I% 	c #EB4D99",
"J% 	c #C13B76",
"K% 	c #A53263",
"L% 	c #F0468C",
"M% 	c #732347",
"N% 	c #565656",
"O% 	c #454545",
"P% 	c #4D4D4D",
"Q% 	c #0B0305",
"R% 	c #D34285",
"S% 	c #EC4486",
"T% 	c #F4478D",
"U% 	c #561B36",
"V% 	c #0F0406",
"W% 	c #F04A93",
"X% 	c #FD4B94",
"Y% 	c #AE356C",
"Z% 	c #313131",
"`% 	c #585858",
" & 	c #121212",
".& 	c #32323C",
"+& 	c #32333C",
"@& 	c #2D2D2D",
"#& 	c #1B1B1B",
"$& 	c #A93468",
"%& 	c #FF57AE",
"&& 	c #F14589",
"*& 	c #ED4689",
"=& 	c #FF4E99",
"-& 	c #E7488F",
";& 	c #090204",
">& 	c #61203D",
",& 	c #D44487",
"'& 	c #110409",
")& 	c #424242",
"!& 	c #A6A9BC",
"~& 	c #747684",
"{& 	c #383838",
"]& 	c #862A53",
"^& 	c #F3478D",
"/& 	c #8F2C58",
"(& 	c #C63B76",
"_& 	c #FF59AF",
":& 	c #F84F9D",
"<& 	c #310E1D",
"[& 	c #414141",
"}& 	c #2B2B2B",
"|& 	c #19191E",
"1& 	c #63656F",
"2& 	c #6B6B6D",
"3& 	c #B2B2B1",
"4& 	c #1F1F25",
"5& 	c #F0F0F6",
"6& 	c #707179",
"7& 	c #3E3E3E",
"8& 	c #4D182F",
"9& 	c #F94C95",
"0& 	c #F84991",
"a& 	c #220A13",
"b& 	c #FF5BB4",
"c& 	c #732246",
"d& 	c #111219",
"e& 	c #C6C7CD",
"f& 	c #D1D4DA",
"g& 	c #929395",
"h& 	c #4E4E4E",
"i& 	c #7E808C",
"j& 	c #676978",
"k& 	c #191919",
"l& 	c #202020",
"m& 	c #300E1C",
"n& 	c #F54E9B",
"o& 	c #FF4F9C",
"p& 	c #C93E7A",
"q& 	c #81274C",
"r& 	c #FF63C6",
"s& 	c #B2366B",
"t& 	c #18191F",
"u& 	c #C2C5CC",
"v& 	c #848590",
"w& 	c #5A5A57",
"x& 	c #19191D",
"y& 	c #D8DCEE",
"z& 	c #ECF2FF",
"A& 	c #66687A",
"B& 	c #D54386",
"C& 	c #ED4487",
"D& 	c #F1468A",
"E& 	c #E14A93",
"F& 	c #F756AA",
"G& 	c #1D080F",
"H& 	c #1B1B20",
"I& 	c #CACDDD",
"J& 	c #CCD2EB",
"K& 	c #4E4E53",
"L& 	c #494846",
"M& 	c #767A86",
"N& 	c #FAFFFF",
"O& 	c #CACFF1",
"P& 	c #7E8193",
"Q& 	c #AB366C",
"R& 	c #FE4C98",
"S& 	c #F34A95",
"T& 	c #15050A",
"U& 	c #FF5FBE",
"V& 	c #681F3F",
"W& 	c #9C9FAF",
"X& 	c #FBFFFF",
"Y& 	c #DEE4FF",
"Z& 	c #9FA2BA",
"`& 	c #6D6D6C",
" * 	c #0E0F11",
".* 	c #C3C7DB",
"+* 	c #F2F7FF",
"@* 	c #A1A5BB",
"#* 	c #7B7E91",
"$* 	c #18181B",
"%* 	c #7E264D",
"&* 	c #F4488E",
"** 	c #AB356C",
"=* 	c #BE4384",
"-* 	c #CF468D",
";* 	c #0B0307",
">* 	c #601C39",
",* 	c #7E254A",
"'* 	c #962E5A",
")* 	c #5A1A34",
"!* 	c #464951",
"~* 	c #F0F6FF",
"{* 	c #C8CDEF",
"]* 	c #DEE2FB",
"^* 	c #7B7E89",
"/* 	c #5A5A59",
"(* 	c #51535E",
"_* 	c #EAEEFF",
":* 	c #E1E7FF",
"<* 	c #767A8A",
"[* 	c #7B7D90",
"}* 	c #2F3035",
"|* 	c #4D172E",
"1* 	c #FF55A7",
"2* 	c #F84B94",
"3* 	c #4D162D",
"4* 	c #290E1C",
"5* 	c #F651A1",
"6* 	c #3E1428",
"7* 	c #030000",
"8* 	c #100408",
"9* 	c #631E3C",
"0* 	c #972C5A",
"a* 	c #D13F7F",
"b* 	c #F64D99",
"c* 	c #BE3A75",
"d* 	c #5A1B36",
"e* 	c #070808",
"f* 	c #BBBFD3",
"g* 	c #F1F6FF",
"h* 	c #A7ACCB",
"i* 	c #BBBFD7",
"j* 	c #717379",
"k* 	c #747372",
"l* 	c #989BA8",
"m* 	c #CFD5F8",
"n* 	c #5B5E6C",
"o* 	c #8C92A5",
"p* 	c #3C3E46",
"q* 	c #290B18",
"r* 	c #ED4D99",
"s* 	c #ED498F",
"t* 	c #1B0911",
"u* 	c #2D0E1B",
"v* 	c #481429",
"w* 	c #732244",
"x* 	c #9B2F60",
"y* 	c #BE3B75",
"z* 	c #DC4183",
"A* 	c #F34991",
"B* 	c #FF52A5",
"C* 	c #FD4C96",
"D* 	c #F64990",
"E* 	c #F2478C",
"F* 	c #FF4C96",
"G* 	c #CE4080",
"H* 	c #651F3D",
"I* 	c #17060C",
"J* 	c #545660",
"K* 	c #EFF4FF",
"L* 	c #D2D8F9",
"M* 	c #999EB7",
"N* 	c #A2A6C4",
"O* 	c #626369",
"P* 	c #6E6E6C",
"Q* 	c #111216",
"R* 	c #CDD0E8",
"S* 	c #EEF3FF",
"T* 	c #C5C9E8",
"U* 	c #42444E",
"V* 	c #A6AAC1",
"W* 	c #454752",
"X* 	c #090202",
"Y* 	c #CC4182",
"Z* 	c #EE4689",
"`* 	c #A13060",
" = 	c #270B16",
".= 	c #601C3A",
"+= 	c #922B56",
"@= 	c #BF3B74",
"#= 	c #E64990",
"$= 	c #FF4F9B",
"%= 	c #FB4B95",
"&= 	c #F4488F",
"*= 	c #D54385",
"== 	c #892A53",
"-= 	c #300F1C",
";= 	c #040001",
">= 	c #0C0D10",
",= 	c #B4B7CD",
"'= 	c #F7FCFF",
")= 	c #A0A5C0",
"!= 	c #A2A7B6",
"~= 	c #515054",
"{= 	c #777776",
"]= 	c #4D4D55",
"^= 	c #E8EBFF",
"/= 	c #E5EAFF",
"(= 	c #B8BCCE",
"_= 	c #32333A",
":= 	c #BFC3DE",
"<= 	c #494B55",
"[= 	c #481529",
"}= 	c #79274C",
"|= 	c #B0376E",
"1= 	c #CA3D7A",
"2= 	c #C83D7A",
"3= 	c #AA366B",
"4= 	c #79254A",
"5= 	c #4C162C",
"6= 	c #270C17",
"7= 	c #AA366A",
"8= 	c #FC4E9C",
"9= 	c #81274F",
"0= 	c #48152A",
"a= 	c #CC3E7C",
"b= 	c #F04A92",
"c= 	c #FC4A94",
"d= 	c #EF468A",
"e= 	c #F44D98",
"f= 	c #C93E79",
"g= 	c #802850",
"h= 	c #4B162C",
"i= 	c #14050B",
"j= 	c #121110",
"k= 	c #52545E",
"l= 	c #E8EDFF",
"m= 	c #656876",
"n= 	c #5D6065",
"o= 	c #9B9FA3",
"p= 	c #434343",
"q= 	c #818080",
"r= 	c #828290",
"s= 	c #EDF0FF",
"t= 	c #E3E8FF",
"u= 	c #A3A7B4",
"v= 	c #202125",
"w= 	c #CFD3F0",
"x= 	c #4E4F5A",
"y= 	c #2E0D1B",
"z= 	c #651E3D",
"A= 	c #992F5B",
"B= 	c #CD4283",
"C= 	c #E0488E",
"D= 	c #AB376C",
"E= 	c #752346",
"F= 	c #220A16",
"G= 	c #732448",
"H= 	c #F4478F",
"I= 	c #E94589",
"J= 	c #FE4C99",
"K= 	c #F3478E",
"L= 	c #FF4E9C",
"M= 	c #8C2B54",
"N= 	c #2E0E1B",
"O= 	c #151514",
"P= 	c #1F2022",
"Q= 	c #B9BED1",
"R= 	c #F0F5FF",
"S= 	c #D9E0FC",
"T= 	c #373942",
"U= 	c #81859B",
"V= 	c #797C8D",
"W= 	c #474543",
"X= 	c #AFB0C5",
"Y= 	c #E4E6FF",
"Z= 	c #E4E8FF",
"`= 	c #858697",
" - 	c #0F1012",
".- 	c #DADCFB",
"+- 	c #595966",
"@- 	c #3E1123",
"#- 	c #6E2245",
"$- 	c #A33365",
"%- 	c #D73F7F",
"&- 	c #F24B95",
"*- 	c #FA4A94",
"=- 	c #F2468C",
"-- 	c #ED4588",
";- 	c #F2468B",
">- 	c #FA4993",
",- 	c #ED4A94",
"'- 	c #B73971",
")- 	c #5B1D39",
"!- 	c #120409",
"~- 	c #591A34",
"{- 	c #FA4B94",
"]- 	c #F94A92",
"^- 	c #F94A93",
"/- 	c #EF458A",
"(- 	c #F94A91",
"_- 	c #F5488E",
":- 	c #F1468C",
"<- 	c #EA4588",
"[- 	c #EF4589",
"}- 	c #F74992",
"|- 	c #F24D98",
"1- 	c #B5376C",
"2- 	c #702241",
"3- 	c #320E1C",
"4- 	c #080205",
"5- 	c #535662",
"6- 	c #E7ECFF",
"7- 	c #B2B8CE",
"8- 	c #0E0E10",
"9- 	c #A4A9C4",
"0- 	c #5A5B69",
"a- 	c #4C4C48",
"b- 	c #2D2E32",
"c- 	c #D6DAEE",
"d- 	c #DDDEFA",
"e- 	c #6C6E7C",
"f- 	c #08080A",
"g- 	c #DCDFFD",
"h- 	c #6B6C7A",
"i- 	c #280D18",
"j- 	c #671F3D",
"k- 	c #A23263",
"l- 	c #CF4384",
"m- 	c #FF4F9E",
"n- 	c #F2488E",
"o- 	c #EF478C",
"p- 	c #CB4183",
"q- 	c #722346",
"r- 	c #220913",
"s- 	c #F34F9B",
"t- 	c #F0468D",
"u- 	c #EB448A",
"v- 	c #DB4080",
"w- 	c #D93F7E",
"x- 	c #E44485",
"y- 	c #F44990",
"z- 	c #FC4C96",
"A- 	c #FF4C97",
"B- 	c #FF4C98",
"C- 	c #F4478E",
"D- 	c #E14184",
"E- 	c #B13368",
"F- 	c #6E2040",
"G- 	c #310F1D",
"H- 	c #05060A",
"I- 	c #B9BDCC",
"J- 	c #F1F3FF",
"K- 	c #E6EEFF",
"L- 	c #6B6F7F",
"M- 	c #121316",
"N- 	c #9FA4BA",
"O- 	c #343539",
"P- 	c #4E4E4D",
"Q- 	c #595A64",
"R- 	c #EFF0FF",
"S- 	c #DEE0FB",
"T- 	c #E4EAFD",
"U- 	c #3D3F45",
"V- 	c #D4D6E7",
"W- 	c #878890",
"X- 	c #240A13",
"Y- 	c #6B2343",
"Z- 	c #B93870",
"`- 	c #F14C96",
" ; 	c #FB4B94",
".; 	c #E7478E",
"+; 	c #852B55",
"@; 	c #060202",
"#; 	c #BA3971",
"$; 	c #EC4386",
"%; 	c #F1468D",
"&; 	c #EC458B",
"*; 	c #D73F7E",
"=; 	c #CC3B77",
"-; 	c #C23871",
";; 	c #A93263",
">; 	c #952D58",
",; 	c #A12F5D",
"'; 	c #BF3870",
"); 	c #CE407F",
"!; 	c #E7488E",
"~; 	c #FB4A94",
"{; 	c #FB4991",
"]; 	c #E54386",
"^; 	c #AB3365",
"/; 	c #702143",
"(; 	c #240A16",
"_; 	c #464952",
":; 	c #FDFDFF",
"<; 	c #E7E9FF",
"[; 	c #CDD5F2",
"}; 	c #191A1B",
"|; 	c #41434D",
"1; 	c #8A8FA4",
"2; 	c #252524",
"3; 	c #5E5E5D",
"4; 	c #8A8C9A",
"5; 	c #F7F7FF",
"6; 	c #ECEEFF",
"7; 	c #BDC0D8",
"8; 	c #070607",
"9; 	c #CCC9D4",
"0; 	c #B6B5BC",
"a; 	c #10050A",
"b; 	c #561A34",
"c; 	c #A83569",
"d; 	c #EB4990",
"e; 	c #FF53A2",
"f; 	c #FF4B96",
"g; 	c #F0478C",
"h; 	c #E84990",
"i; 	c #962E5C",
"j; 	c #ED468C",
"k; 	c #F54890",
"l; 	c #BE3A73",
"m; 	c #A3315F",
"n; 	c #752245",
"o; 	c #511830",
"p; 	c #4C172D",
"q; 	c #5E1A36",
"r; 	c #742143",
"s; 	c #8C2C58",
"t; 	c #B73972",
"u; 	c #E64588",
"v; 	c #FC4A93",
"w; 	c #DF4487",
"x; 	c #AA3468",
"y; 	c #5A1A33",
"z; 	c #A1A3AC",
"A; 	c #EBF0FF",
"B; 	c #9BA1B5",
"C; 	c #535561",
"D; 	c #66697A",
"E; 	c #2D2D2C",
"F; 	c #6F6F6E",
"G; 	c #040406",
"H; 	c #C0C1D1",
"I; 	c #F6F5FF",
"J; 	c #F5F6FF",
"K; 	c #7F808D",
"L; 	c #000102",
"M; 	c #B7CACE",
"N; 	c #99B7B4",
"O; 	c #090103",
"P; 	c #3D1325",
"Q; 	c #902B57",
"R; 	c #DA4386",
"S; 	c #F24A93",
"T; 	c #C13C79",
"U; 	c #6C2244",
"V; 	c #D43F7F",
"W; 	c #EE458C",
"X; 	c #F0478D",
"Y; 	c #F84A95",
"Z; 	c #E0468B",
"`; 	c #C53B75",
" > 	c #982D59",
".> 	c #5C1C39",
"+> 	c #361020",
"@> 	c #2C0C16",
"#> 	c #2C0C17",
"$> 	c #5B1D3A",
"%> 	c #8E2B55",
"&> 	c #C03871",
"*> 	c #E0468A",
"=> 	c #FA4E99",
"-> 	c #FF56A8",
";> 	c #FF5CB7",
">> 	c #E4488E",
",> 	c #982F5F",
"'> 	c #0C0103",
")> 	c #292A2C",
"!> 	c #FBFDFF",
"~> 	c #F1F8FF",
"{> 	c #50535B",
"]> 	c #525460",
"^> 	c #515460",
"/> 	c #454543",
"(> 	c #29292E",
"_> 	c #E0E0F9",
":> 	c #FEF9FF",
"<> 	c #F8F6FF",
"[> 	c #313D41",
"}> 	c #000402",
"|> 	c #574E5A",
"1> 	c #723D55",
"2> 	c #83234C",
"3> 	c #D14081",
"4> 	c #FF53A6",
"5> 	c #F64890",
"6> 	c #EE458B",
"7> 	c #79264B",
"8> 	c #6C2142",
"9> 	c #EE458D",
"0> 	c #FE4B97",
"a> 	c #FC4C98",
"b> 	c #E24485",
"c> 	c #B1376D",
"d> 	c #842954",
"e> 	c #641D3A",
"f> 	c #49162A",
"g> 	c #2F0E1C",
"h> 	c #49152A",
"i> 	c #712141",
"j> 	c #8F2A53",
"k> 	c #A33264",
"l> 	c #C13B78",
"m> 	c #EE4A92",
"n> 	c #D94990",
"o> 	c #983060",
"p> 	c #571831",
"q> 	c #0E0409",
"r> 	c #040408",
"s> 	c #666760",
"t> 	c #545557",
"u> 	c #4D4F5C",
"v> 	c #171722",
"w> 	c #0B0A0F",
"x> 	c #30323D",
"y> 	c #33353D",
"z> 	c #262624",
"A> 	c #4C4C4B",
"B> 	c #5F6068",
"C> 	c #99BDB8",
"D> 	c #040D0E",
"E> 	c #4D102A",
"F> 	c #AD356A",
"G> 	c #CC2A70",
"H> 	c #F13686",
"I> 	c #EF4588",
"J> 	c #B1356B",
"K> 	c #CF3E7D",
"L> 	c #EB458B",
"M> 	c #F54790",
"N> 	c #C13C78",
"O> 	c #A73264",
"P> 	c #87284F",
"Q> 	c #5A1B37",
"R> 	c #5E1B37",
"S> 	c #6D1F3D",
"T> 	c #7B2245",
"U> 	c #8A2B57",
"V> 	c #A8386E",
"W> 	c #D54181",
"X> 	c #DB3F7F",
"Y> 	c #B43569",
"Z> 	c #86274D",
"`> 	c #050103",
" , 	c #16171F",
"., 	c #3C3F5A",
"+, 	c #373866",
"@, 	c #21215C",
"#, 	c #272864",
"$, 	c #090924",
"%, 	c #05060D",
"&, 	c #14151D",
"*, 	c #010103",
"=, 	c #0D0E17",
"-, 	c #1D1F2D",
";, 	c #2B2B2C",
">, 	c #797978",
",, 	c #998F9C",
"', 	c #ECFAF3",
"), 	c #6C8781",
"!, 	c #BE306F",
"~, 	c #F94B93",
"{, 	c #F0458A",
"], 	c #9F2E5B",
"^, 	c #DE4180",
"/, 	c #EE458E",
"(, 	c #EE458A",
"_, 	c #F84D9A",
":, 	c #F04992",
"<, 	c #E24283",
"[, 	c #C93B75",
"}, 	c #B03568",
"|, 	c #A73163",
"1, 	c #AA3365",
"2, 	c #AE3465",
"3, 	c #BF386F",
"4, 	c #D63F7C",
"5, 	c #C53A72",
"6, 	c #8B2850",
"7, 	c #070104",
"8, 	c #07080B",
"9, 	c #3A3E52",
"0, 	c #41455A",
"a, 	c #4E5081",
"b, 	c #6465B1",
"c, 	c #57598C",
"d, 	c #343749",
"e, 	c #070708",
"f, 	c #0D0E14",
"g, 	c #33364C",
"h, 	c #37373B",
"i, 	c #636362",
"j, 	c #525252",
"k, 	c #36584C",
"l, 	c #496864",
"m, 	c #810940",
"n, 	c #F33388",
"o, 	c #F54A91",
"p, 	c #DD4181",
"q, 	c #9C2E5B",
"r, 	c #FE4B95",
"s, 	c #E64486",
"t, 	c #EB478B",
"u, 	c #F54992",
"v, 	c #EA4489",
"w, 	c #B9376E",
"x, 	c #7D254B",
"y, 	c #45152A",
"z, 	c #1F0912",
"A, 	c #1B1C26",
"B, 	c #40445C",
"C, 	c #303442",
"D, 	c #3E4061",
"E, 	c #494978",
"F, 	c #343743",
"G, 	c #2A2C38",
"H, 	c #07070B",
"I, 	c #0C0C10",
"J, 	c #2B2E3F",
"K, 	c #323135",
"L, 	c #565655",
"M, 	c #002B15",
"N, 	c #335352",
"O, 	c #C53F83",
"P, 	c #FF469E",
"Q, 	c #F94D96",
"R, 	c #FE4C96",
"S, 	c #D33F7E",
"T, 	c #9F2F5E",
"U, 	c #F44993",
"V, 	c #EE458F",
"W, 	c #F74990",
"X, 	c #F94992",
"Y, 	c #FF4A94",
"Z, 	c #FD4F9C",
"`, 	c #EF478E",
" ' 	c #D13F7E",
".' 	c #A9356A",
"+' 	c #882954",
"@' 	c #661D3C",
"#' 	c #12050A",
"$' 	c #070204",
"%' 	c #090306",
"&' 	c #2B2E3E",
"*' 	c #3F425A",
"=' 	c #42456B",
"-' 	c #43466C",
";' 	c #373B4A",
">' 	c #262837",
",' 	c #040506",
"'' 	c #232432",
")' 	c #313549",
"!' 	c #323233",
"~' 	c #5E5D5D",
"{' 	c #000700",
"]' 	c #00815A",
"^' 	c #7C96A2",
"/' 	c #FB4FA3",
"(' 	c #FF4195",
"_' 	c #EE488B",
":' 	c #EA4589",
"<' 	c #C43C76",
"[' 	c #9D2E5D",
"}' 	c #FB4A96",
"|' 	c #F2478D",
"1' 	c #EE448F",
"2' 	c #EE4490",
"3' 	c #FF51A3",
"4' 	c #EB4890",
"5' 	c #DA4488",
"6' 	c #CC3F7E",
"7' 	c #BC3970",
"8' 	c #B3366B",
"9' 	c #B1366C",
"0' 	c #B5366C",
"a' 	c #A53060",
"b' 	c #7C2449",
"c' 	c #2B0C19",
"d' 	c #050606",
"e' 	c #363A4E",
"f' 	c #3B3F56",
"g' 	c #323546",
"h' 	c #373A51",
"i' 	c #373B51",
"j' 	c #383C50",
"k' 	c #323448",
"l' 	c #08090B",
"m' 	c #1B1D28",
"n' 	c #2C2E3F",
"o' 	c #605F5F",
"p' 	c #00271A",
"q' 	c #00C9A4",
"r' 	c #96BAD0",
"s' 	c #FF3B9A",
"t' 	c #F93785",
"u' 	c #EA4889",
"v' 	c #ED478B",
"w' 	c #FF4B95",
"x' 	c #A5315F",
"y' 	c #AB3162",
"z' 	c #FF5DB7",
"A' 	c #DA458A",
"B' 	c #A63162",
"C' 	c #681F3C",
"D' 	c #111117",
"E' 	c #333647",
"F' 	c #30323F",
"G' 	c #3C3E5E",
"H' 	c #363A4F",
"I' 	c #343747",
"J' 	c #17161F",
"K' 	c #0C0D13",
"L' 	c #252733",
"M' 	c #60605F",
"N' 	c #005C4B",
"O' 	c #08F0DF",
"P' 	c #A2A3CE",
"Q' 	c #FF2482",
"R' 	c #F93681",
"S' 	c #EB4B8C",
"T' 	c #F44890",
"U' 	c #8E2A52",
"V' 	c #CB3D79",
"W' 	c #FE4C95",
"X' 	c #EE448E",
"Y' 	c #EE4491",
"Z' 	c #D03F7E",
"`' 	c #952F5C",
" ) 	c #5C1B35",
".) 	c #1E1F2B",
"+) 	c #3E4359",
"@) 	c #363A48",
"#) 	c #4D4F7A",
"$) 	c #5D5E9F",
"%) 	c #43475C",
"&) 	c #252735",
"*) 	c #1A1C27",
"=) 	c #2B2D3B",
"-) 	c #434241",
";) 	c #5C5C5B",
">) 	c #009989",
",) 	c #09FFFD",
"') 	c #B37EB6",
")) 	c #FF1874",
"!) 	c #F24087",
"~) 	c #EA4B8D",
"{) 	c #E9478D",
"]) 	c #8E2A53",
"^) 	c #DD4386",
"/) 	c #FB4A93",
"() 	c #EE4391",
"_) 	c #EE4392",
":) 	c #F0468B",
"<) 	c #DF4488",
"[) 	c #AD3466",
"}) 	c #732446",
"|) 	c #371021",
"1) 	c #303344",
"2) 	c #464A65",
"3) 	c #383A5F",
"4) 	c #3D3E75",
"5) 	c #3C3B73",
"6) 	c #2D2D5A",
"7) 	c #333656",
"8) 	c #292B3A",
"9) 	c #0B0B0E",
"0) 	c #0A0A0D",
"a) 	c #101117",
"b) 	c #2B2F43",
"c) 	c #262832",
"d) 	c #464644",
"e) 	c #00271E",
"f) 	c #00D7C2",
"g) 	c #2CFFFF",
"h) 	c #CC609E",
"i) 	c #FF1871",
"j) 	c #F24489",
"k) 	c #EC4A8D",
"l) 	c #FC4992",
"m) 	c #DE4283",
"n) 	c #982B58",
"o) 	c #EE4393",
"p) 	c #FB4B96",
"q) 	c #CB3D7A",
"r) 	c #7B2549",
"s) 	c #431327",
"t) 	c #1B1D26",
"u) 	c #0E0F1B",
"v) 	c #00000A",
"w) 	c #05050B",
"x) 	c #181824",
"y) 	c #0E0F14",
"z) 	c #050607",
"A) 	c #08090C",
"B) 	c #0B0B0F",
"C) 	c #191B23",
"D) 	c #1A1D24",
"E) 	c #3B3C3B",
"F) 	c #6E6E6D",
"G) 	c #1F1F1F",
"H) 	c #004E3D",
"I) 	c #00FBE6",
"J) 	c #43ECF1",
"K) 	c #E54186",
"L) 	c #FF1F76",
"M) 	c #EE498D",
"N) 	c #EB498C",
"O) 	c #AC3364",
"P) 	c #982D5A",
"Q) 	c #FE4C97",
"R) 	c #EE4394",
"S) 	c #ED458C",
"T) 	c #ED448B",
"U) 	c #F74891",
"V) 	c #FC4F9C",
"W) 	c #D14282",
"X) 	c #A73060",
"Y) 	c #5E1D3B",
"Z) 	c #2B0E1A",
"`) 	c #2D0C18",
" ! 	c #1E1D1E",
".! 	c #A5A4A2",
"+! 	c #BCBBC0",
"@! 	c #C2C3C6",
"#! 	c #DFDFE7",
"$! 	c #4D4E54",
"%! 	c #555553",
"&! 	c #000100",
"*! 	c #00927B",
"=! 	c #00FFFF",
"-! 	c #7CAECF",
";! 	c #FF2376",
">! 	c #FF287C",
",! 	c #EC4C8E",
"'! 	c #EC488C",
")! 	c #5E1E3A",
"!! 	c #932F5D",
"~! 	c #EE4294",
"{! 	c #EE4295",
"]! 	c #EC458D",
"^! 	c #EB438A",
"/! 	c #EC4389",
"(! 	c #F64893",
"_! 	c #FF4B9A",
":! 	c #FF50A1",
"<! 	c #FD4D9B",
"[! 	c #E9468D",
"}! 	c #AA376E",
"|! 	c #6A1E3F",
"1! 	c #370E1C",
"2! 	c #0E0408",
"3! 	c #260B16",
"4! 	c #571932",
"5! 	c #8A2B56",
"6! 	c #DA468C",
"7! 	c #A9366C",
"8! 	c #2E0D1A",
"9! 	c #9C9B9F",
"0! 	c #FAF8FF",
"a! 	c #F8F8FF",
"b! 	c #43444B",
"c! 	c #222221",
"d! 	c #002D16",
"e! 	c #0BBA9B",
"f! 	c #55E2F0",
"g! 	c #B478AF",
"h! 	c #FF1E73",
"i! 	c #FF3383",
"j! 	c #EB4E8E",
"k! 	c #E34588",
"l! 	c #340F1D",
"m! 	c #BB3A72",
"n! 	c #FF4F9F",
"o! 	c #EE4492",
"p! 	c #ED4295",
"q! 	c #ED4296",
"r! 	c #ED448F",
"s! 	c #EC438E",
"t! 	c #ED438E",
"u! 	c #EF438F",
"v! 	c #F0448F",
"w! 	c #F0458F",
"x! 	c #F34690",
"y! 	c #FB4996",
"z! 	c #FF4D9F",
"A! 	c #FF50A5",
"B! 	c #FF50A4",
"C! 	c #F54C99",
"D! 	c #CD4084",
"E! 	c #AD3368",
"F! 	c #6A2243",
"G! 	c #2F0F1C",
"H! 	c #0A0103",
"I! 	c #561B38",
"J! 	c #963061",
"K! 	c #B63870",
"L! 	c #E94993",
"M! 	c #ED4C97",
"N! 	c #882B55",
"O! 	c #15060B",
"P! 	c #C8C5CC",
"Q! 	c #EDEBFB",
"R! 	c #DFDBEE",
"S! 	c #F9F5FF",
"T! 	c #CECDE6",
"U! 	c #29292D",
"V! 	c #001B07",
"W! 	c #006C51",
"X! 	c #5DADA9",
"Y! 	c #CC8CC3",
"Z! 	c #FF2A83",
"`! 	c #FF2277",
" ~ 	c #F3458A",
".~ 	c #AE376F",
"+~ 	c #1D070E",
"@~ 	c #DC4384",
"#~ 	c #EE4293",
"$~ 	c #ED4196",
"%~ 	c #EB428E",
"&~ 	c #F54695",
"*~ 	c #FF4DA4",
"=~ 	c #FF4EA6",
"-~ 	c #FF4EA5",
";~ 	c #FF4FA8",
">~ 	c #FF50A8",
",~ 	c #FF50A7",
"'~ 	c #FE4C9E",
")~ 	c #D14084",
"!~ 	c #8E2E5D",
"~~ 	c #611C3A",
"{~ 	c #381020",
"]~ 	c #300E1A",
"^~ 	c #70254C",
"/~ 	c #581A35",
"(~ 	c #220810",
"_~ 	c #71264C",
":~ 	c #FF5BB7",
"<~ 	c #FF5CB8",
"[~ 	c #EF458C",
"}~ 	c #DE478C",
"|~ 	c #67203F",
"1~ 	c #131214",
"2~ 	c #D1CCDA",
"3~ 	c #E9E6F7",
"4~ 	c #E8E4F4",
"5~ 	c #FEFAFF",
"6~ 	c #C8C5D6",
"7~ 	c #1D1D20",
"8~ 	c #000F00",
"9~ 	c #007551",
"0~ 	c #45ACA1",
"a~ 	c #C18BB8",
"b~ 	c #FF479D",
"c~ 	c #FF267D",
"d~ 	c #F63B83",
"e~ 	c #952F5D",
"f~ 	c #CF4182",
"g~ 	c #EC4489",
"h~ 	c #EE4296",
"i~ 	c #ED4297",
"j~ 	c #ED4197",
"k~ 	c #ED4198",
"l~ 	c #ED4392",
"m~ 	c #F24494",
"n~ 	c #EA4390",
"o~ 	c #CA3A7E",
"p~ 	c #C83A7C",
"q~ 	c #BE3877",
"r~ 	c #A03066",
"s~ 	c #882957",
"t~ 	c #712248",
"u~ 	c #4D1630",
"v~ 	c #290B17",
"w~ 	c #290C1A",
"x~ 	c #5F1D3C",
"y~ 	c #9A2D5F",
"z~ 	c #C03D7F",
"A~ 	c #EA4893",
"B~ 	c #FF4FA0",
"C~ 	c #FF54AA",
"D~ 	c #FF4FA3",
"E~ 	c #AB3267",
"F~ 	c #1E0811",
"G~ 	c #210912",
"H~ 	c #BD3C78",
"I~ 	c #E94385",
"J~ 	c #BA3C76",
"K~ 	c #351122",
"L~ 	c #2C2A2D",
"M~ 	c #E3DCEE",
"N~ 	c #E5DEF2",
"O~ 	c #ECE6F7",
"P~ 	c #FBF6FF",
"Q~ 	c #BAB9C7",
"R~ 	c #111214",
"S~ 	c #004121",
"T~ 	c #2AAE94",
"U~ 	c #A6A4C5",
"V~ 	c #FF50A3",
"W~ 	c #FF2C85",
"X~ 	c #F43C84",
"Y~ 	c #ED488C",
"Z~ 	c #B13972",
"`~ 	c #ED4199",
" { 	c #FF4FAC",
".{ 	c #9B2C61",
"+{ 	c #020101",
"@{ 	c #0D0307",
"#{ 	c #310D1C",
"${ 	c #340E1E",
"%{ 	c #6F2249",
"&{ 	c #CE3C80",
"*{ 	c #F24A9C",
"={ 	c #FF52A9",
"-{ 	c #FF4D9E",
";{ 	c #F94A98",
">{ 	c #F0458E",
",{ 	c #ED4389",
"'{ 	c #FF51A5",
"){ 	c #EF4893",
"!{ 	c #4F1730",
"~{ 	c #7C2851",
"{{ 	c #FC4B96",
"]{ 	c #F94F9E",
"^{ 	c #0E0204",
"/{ 	c #5D5B5F",
"({ 	c #F5EEFC",
"_{ 	c #DBD6E7",
":{ 	c #ECE6FA",
"<{ 	c #F8F3FF",
"[{ 	c #B5B3BF",
"}{ 	c #09090A",
"|{ 	c #09533F",
"1{ 	c #7FAAB5",
"2{ 	c #EC6DB5",
"3{ 	c #FF2A86",
"4{ 	c #FA3582",
"5{ 	c #EB488A",
"6{ 	c #EC498C",
"7{ 	c #581A34",
"8{ 	c #862851",
"9{ 	c #EE448B",
"0{ 	c #ED458D",
"a{ 	c #ED4099",
"b{ 	c #ED409A",
"c{ 	c #ED409B",
"d{ 	c #F7479E",
"e{ 	c #DC408B",
"f{ 	c #5C1C3E",
"g{ 	c #3C1023",
"h{ 	c #CA3E85",
"i{ 	c #FF58BD",
"j{ 	c #FF5BC1",
"k{ 	c #FF50A9",
"l{ 	c #FA4694",
"m{ 	c #EE438E",
"n{ 	c #EC448D",
"o{ 	c #EC448C",
"p{ 	c #EC448B",
"q{ 	c #FF51A6",
"r{ 	c #A73268",
"s{ 	c #351020",
"t{ 	c #C5407F",
"u{ 	c #F54A93",
"v{ 	c #F44992",
"w{ 	c #FA4D9A",
"x{ 	c #FF55AB",
"y{ 	c #FF5EBD",
"z{ 	c #E54C97",
"A{ 	c #632041",
"B{ 	c #938F93",
"C{ 	c #F9F3FF",
"D{ 	c #C1BDC3",
"E{ 	c #000600",
"F{ 	c #444B51",
"G{ 	c #C67DB2",
"H{ 	c #FF439C",
"I{ 	c #FF2D7E",
"J{ 	c #EC488A",
"K{ 	c #EC498D",
"L{ 	c #EF478D",
"M{ 	c #5D1B37",
"N{ 	c #F34791",
"O{ 	c #ED448C",
"P{ 	c #EC409A",
"Q{ 	c #EC409B",
"R{ 	c #ED409C",
"S{ 	c #ED3F9C",
"T{ 	c #EA4090",
"U{ 	c #FF48A0",
"V{ 	c #FF50B0",
"W{ 	c #C43C83",
"X{ 	c #5A1A3A",
"Y{ 	c #13060F",
"Z{ 	c #692046",
"`{ 	c #C63B7E",
" ] 	c #FF51AA",
".] 	c #FB4898",
"+] 	c #EC438D",
"@] 	c #ED458E",
"#] 	c #F44790",
"$] 	c #FF53A9",
"%] 	c #E94994",
"&] 	c #050000",
"*] 	c #18070D",
"=] 	c #340F1F",
"-] 	c #4A162D",
";] 	c #5D1C3A",
">] 	c #722246",
",] 	c #852850",
"'] 	c #A0305E",
")] 	c #BE376F",
"!] 	c #D44081",
"~] 	c #FE54A7",
"{] 	c #FF5AB4",
"]] 	c #BE3B76",
"^] 	c #461429",
"/] 	c #0C0B0C",
"(] 	c #D6CFD5",
"_] 	c #F3F0EF",
":] 	c #B6AFB3",
"<] 	c #92908A",
"[] 	c #73706B",
"}] 	c #373537",
"|] 	c #040509",
"1] 	c #0A0A0E",
"2] 	c #09090B",
"3] 	c #090A0E",
"4] 	c #010102",
"5] 	c #191417",
"6] 	c #994C77",
"7] 	c #FF5EAE",
"8] 	c #FF3C92",
"9] 	c #F13D83",
"0] 	c #EC498B",
"a] 	c #EE478C",
"b] 	c #F2478F",
"c] 	c #6A203F",
"d] 	c #2D0D1C",
"e] 	c #EE4A98",
"f] 	c #FC4A97",
"g] 	c #EC4199",
"h] 	c #EC4099",
"i] 	c #EB3F99",
"j] 	c #EC3F9A",
"k] 	c #EE409B",
"l] 	c #F0419C",
"m] 	c #F0409C",
"n] 	c #EF409C",
"o] 	c #EB3E9C",
"p] 	c #EC3E9D",
"q] 	c #ED3F9D",
"r] 	c #ED3F9E",
"s] 	c #EB4193",
"t] 	c #F44497",
"u] 	c #FF4DAB",
"v] 	c #FF51B1",
"w] 	c #C63C83",
"x] 	c #571A39",
"y] 	c #4E1731",
"z] 	c #AB346F",
"A] 	c #FD4CA1",
"B] 	c #FF52AD",
"C] 	c #FF4A9D",
"D] 	c #EB438B",
"E] 	c #EC448A",
"F] 	c #FF4D9C",
"G] 	c #FF54AC",
"H] 	c #B83A75",
"I] 	c #2C0C1A",
"J] 	c #0D0306",
"K] 	c #200810",
"L] 	c #401224",
"M] 	c #872B56",
"N] 	c #200A13",
"O] 	c #0D0B0A",
"P] 	c #504C48",
"Q] 	c #272429",
"R] 	c #0D0C1B",
"S] 	c #100F24",
"T] 	c #040519",
"U] 	c #000005",
"V] 	c #101219",
"W] 	c #121319",
"X] 	c #0C0C11",
"Y] 	c #0B0C11",
"Z] 	c #2F3143",
"`] 	c #232532",
" ^ 	c #000A04",
".^ 	c #60324B",
"+^ 	c #D84C90",
"@^ 	c #FF52A8",
"#^ 	c #F9418C",
"$^ 	c #EC4587",
"%^ 	c #541830",
"&^ 	c #020001",
"*^ 	c #C73C7B",
"=^ 	c #FF4FA2",
"-^ 	c #EB448C",
";^ 	c #EC4296",
">^ 	c #EC4196",
",^ 	c #EC4097",
"'^ 	c #EC4098",
")^ 	c #EC4198",
"!^ 	c #EE4199",
"~^ 	c #F04299",
"{^ 	c #F4439B",
"]^ 	c #FB459B",
"^^ 	c #FF499D",
"/^ 	c #FF4A9E",
"(^ 	c #FF499F",
"_^ 	c #FF479E",
":^ 	c #FF479F",
"<^ 	c #FF49A1",
"[^ 	c #FF48A1",
"}^ 	c #FF47A1",
"|^ 	c #FE45A0",
"1^ 	c #F7429F",
"2^ 	c #F2409F",
"3^ 	c #EF3F9F",
"4^ 	c #ED3E9F",
"5^ 	c #EC3E9F",
"6^ 	c #EC3E9E",
"7^ 	c #EC3D9E",
"8^ 	c #EC4295",
"9^ 	c #EB4091",
"0^ 	c #F34498",
"a^ 	c #FF4EAE",
"b^ 	c #FF4FAE",
"c^ 	c #BF3B80",
"d^ 	c #501834",
"e^ 	c #3A1225",
"f^ 	c #9C2F64",
"g^ 	c #ED4A9B",
"h^ 	c #FF51AD",
"i^ 	c #FF4DA3",
"j^ 	c #F64692",
"k^ 	c #EB4389",
"l^ 	c #F1468E",
"m^ 	c #F94E9E",
"n^ 	c #0A0306",
"o^ 	c #090305",
"p^ 	c #020203",
"q^ 	c #15161E",
"r^ 	c #0D101E",
"s^ 	c #1E2143",
"t^ 	c #444786",
"u^ 	c #585AA3",
"v^ 	c #4D507B",
"w^ 	c #232530",
"x^ 	c #010100",
"y^ 	c #262735",
"z^ 	c #3D4157",
"A^ 	c #030404",
"B^ 	c #002613",
"C^ 	c #5D9396",
"D^ 	c #FF56B2",
"E^ 	c #FF4497",
"F^ 	c #F04488",
"G^ 	c #EC4689",
"H^ 	c #FF51A4",
"I^ 	c #972E5F",
"J^ 	c #77244A",
"K^ 	c #F3458F",
"L^ 	c #EA4196",
"M^ 	c #EA4096",
"N^ 	c #F7469A",
"O^ 	c #FD489A",
"P^ 	c #FF4A9C",
"Q^ 	c #FF4B9D",
"R^ 	c #FC459D",
"S^ 	c #DB399A",
"T^ 	c #C73299",
"U^ 	c #B72B97",
"V^ 	c #A92596",
"W^ 	c #9E2095",
"X^ 	c #941C95",
"Y^ 	c #911B95",
"Z^ 	c #951D96",
"`^ 	c #9A1E96",
" / 	c #A72398",
"./ 	c #B6299A",
"+/ 	c #C4309C",
"@/ 	c #D4359E",
"#/ 	c #E53BA0",
"$/ 	c #F640A1",
"%/ 	c #FF44A2",
"&/ 	c #FF47A3",
"*/ 	c #FF47A2",
"=/ 	c #FF46A2",
"-/ 	c #FC44A2",
";/ 	c #F742A1",
">/ 	c #F240A1",
",/ 	c #ED3EA0",
"'/ 	c #EA3DA0",
")/ 	c #EC3EA0",
"!/ 	c #ED3E9E",
"~/ 	c #EC4194",
"{/ 	c #EA4092",
"]/ 	c #F64499",
"^/ 	c #FF4FAD",
"// 	c #FF50B1",
"(/ 	c #C83C84",
"_/ 	c #5F1B3D",
":/ 	c #230914",
"</ 	c #7B254F",
"[/ 	c #D13F86",
"}/ 	c #FF4FA6",
"|/ 	c #FB4A99",
"1/ 	c #FC4B99",
"2/ 	c #FF57B0",
"3/ 	c #D14286",
"4/ 	c #47152A",
"5/ 	c #060508",
"6/ 	c #313447",
"7/ 	c #41455E",
"8/ 	c #3F435E",
"9/ 	c #3B4053",
"0/ 	c #434564",
"a/ 	c #4A4C78",
"b/ 	c #363A4C",
"c/ 	c #373B4E",
"d/ 	c #1F202C",
"e/ 	c #14141C",
"f/ 	c #3A3F54",
"g/ 	c #0C0D12",
"h/ 	c #06AA83",
"i/ 	c #C7A1CF",
"j/ 	c #FF2985",
"k/ 	c #EA4888",
"l/ 	c #EB4489",
"m/ 	c #FF4C9C",
"n/ 	c #E7468F",
"o/ 	c #1F0911",
"p/ 	c #F04895",
"q/ 	c #FF4B9B",
"r/ 	c #EC438C",
"s/ 	c #EC4195",
"t/ 	c #EF4296",
"u/ 	c #F84597",
"v/ 	c #FF4A99",
"w/ 	c #FF499B",
"x/ 	c #F1439A",
"y/ 	c #E23C99",
"z/ 	c #C83196",
"A/ 	c #AC2794",
"B/ 	c #931F92",
"C/ 	c #7B1490",
"D/ 	c #670B8E",
"E/ 	c #52048C",
"F/ 	c #45008C",
"G/ 	c #3E008B",
"H/ 	c #3C008C",
"I/ 	c #3C008D",
"J/ 	c #3B008D",
"K/ 	c #3D008E",
"L/ 	c #43008F",
"M/ 	c #4D0390",
"N/ 	c #5B0792",
"O/ 	c #6F0F94",
"P/ 	c #821797",
"Q/ 	c #9A209A",
"R/ 	c #B2279B",
"S/ 	c #CF319F",
"T/ 	c #E63AA1",
"U/ 	c #F441A2",
"V/ 	c #FF45A4",
"W/ 	c #FF47A4",
"X/ 	c #FF45A3",
"Y/ 	c #F942A2",
"Z/ 	c #F03FA0",
"`/ 	c #EB3DA0",
" ( 	c #ED3E9D",
".( 	c #EB4194",
"+( 	c #F7459A",
"@( 	c #FF4EAD",
"#( 	c #FF4EAC",
"$( 	c #CE3E89",
"%( 	c #6D2147",
"&( 	c #1C0710",
"*( 	c #551B37",
"=( 	c #B1346F",
"-( 	c #EF499B",
";( 	c #FF51A9",
">( 	c #F84894",
",( 	c #EE448D",
"'( 	c #EC458C",
")( 	c #E94287",
"!( 	c #F94F9F",
"~( 	c #80284F",
"{( 	c #1D1F2A",
"]( 	c #454864",
"^( 	c #383B51",
"/( 	c #303444",
"(( 	c #42446C",
"_( 	c #535491",
":( 	c #404266",
"<( 	c #393E52",
"[( 	c #333649",
"}( 	c #0C0E12",
"|( 	c #0E1014",
"1( 	c #3D4057",
"2( 	c #171620",
"3( 	c #00391E",
"4( 	c #45DBCB",
"5( 	c #FF4899",
"6( 	c #F93882",
"7( 	c #ED498C",
"8( 	c #F5458E",
"9( 	c #5F1D3B",
"0( 	c #9E3166",
"a( 	c #EC428B",
"b( 	c #ED4393",
"c( 	c #F34496",
"d( 	c #FB4897",
"e( 	c #FA4598",
"f( 	c #DF3D96",
"g( 	c #C53295",
"h( 	c #A52491",
"i( 	c #7F168E",
"j( 	c #610C8C",
"k( 	c #51048A",
"l( 	c #44008A",
"m( 	c #3C008A",
"n( 	c #39008A",
"o( 	c #3C008B",
"p( 	c #44008C",
"q( 	c #49008D",
"r( 	c #4E008F",
"s( 	c #50018F",
"t( 	c #52028F",
"u( 	c #530291",
"v( 	c #540291",
"w( 	c #540292",
"x( 	c #530292",
"y( 	c #520292",
"z( 	c #500192",
"A( 	c #4D0092",
"B( 	c #4A0092",
"C( 	c #450091",
"D( 	c #3D0091",
"E( 	c #380091",
"F( 	c #3C0090",
"G( 	c #450092",
"H( 	c #520592",
"I( 	c #640D95",
"J( 	c #841698",
"K( 	c #A5229B",
"L( 	c #C6309E",
"M( 	c #E139A1",
"N( 	c #FA41A4",
"O( 	c #FF48A5",
"P( 	c #F642A2",
"Q( 	c #EF3FA1",
"R( 	c #EB3DA1",
"S( 	c #EA3D9F",
"T( 	c #EC3DA0",
"U( 	c #EB4191",
"V( 	c #F54498",
"W( 	c #FF4DA9",
"X( 	c #FF50AF",
"Y( 	c #E84597",
"Z( 	c #8D2A5D",
"`( 	c #381022",
" _ 	c #2D0C1A",
"._ 	c #D44188",
"+_ 	c #FF52AA",
"@_ 	c #FF4E9E",
"#_ 	c #F54690",
"$_ 	c #FF4C9B",
"%_ 	c #FF56AE",
"&_ 	c #BE3C7A",
"*_ 	c #020102",
"=_ 	c #2D2F3F",
"-_ 	c #34364A",
";_ 	c #343748",
">_ 	c #34374A",
",_ 	c #464875",
"'_ 	c #4D4F84",
")_ 	c #3B3E58",
"!_ 	c #222430",
"~_ 	c #09090C",
"{_ 	c #232531",
"]_ 	c #3B3F55",
"^_ 	c #009168",
"/_ 	c #9DB5CC",
"(_ 	c #FF237E",
"__ 	c #DD4282",
":_ 	c #CF3C78",
"<_ 	c #F74890",
"[_ 	c #EC438A",
"}_ 	c #BA3973",
"|_ 	c #46142A",
"1_ 	c #F64795",
"2_ 	c #EC438F",
"3_ 	c #ED4391",
"4_ 	c #EC4292",
"5_ 	c #EC4293",
"6_ 	c #F74794",
"7_ 	c #FF4E98",
"8_ 	c #EA4197",
"9_ 	c #C23192",
"0_ 	c #96218F",
"a_ 	c #700F8B",
"b_ 	c #500588",
"c_ 	c #400087",
"d_ 	c #3D0087",
"e_ 	c #3E0088",
"f_ 	c #400089",
"g_ 	c #45008A",
"h_ 	c #4C008C",
"i_ 	c #52028D",
"j_ 	c #56028E",
"k_ 	c #58038F",
"l_ 	c #57038F",
"m_ 	c #570390",
"n_ 	c #570391",
"o_ 	c #560391",
"p_ 	c #560392",
"q_ 	c #560393",
"r_ 	c #550393",
"s_ 	c #550394",
"t_ 	c #560394",
"u_ 	c #560395",
"v_ 	c #540295",
"w_ 	c #4F0195",
"x_ 	c #490094",
"y_ 	c #430093",
"z_ 	c #3F0093",
"A_ 	c #3D0092",
"B_ 	c #3B0092",
"C_ 	c #410092",
"D_ 	c #510594",
"E_ 	c #700F97",
"F_ 	c #901C9A",
"G_ 	c #B4299E",
"H_ 	c #DA36A1",
"I_ 	c #F141A3",
"J_ 	c #FA43A3",
"K_ 	c #FD43A3",
"L_ 	c #FF46A3",
"M_ 	c #F23FA2",
"N_ 	c #EA3CA0",
"O_ 	c #EC4193",
"P_ 	c #EB4090",
"Q_ 	c #FF4BA4",
"R_ 	c #F44AA2",
"S_ 	c #BC3879",
"T_ 	c #5F1D3E",
"U_ 	c #18060E",
"V_ 	c #050001",
"W_ 	c #4B1730",
"X_ 	c #9B3062",
"Y_ 	c #BE3874",
"Z_ 	c #CE3D7D",
"`_ 	c #DE438A",
" : 	c #EB4895",
".: 	c #FA4D9D",
"+: 	c #FF4D9D",
"@: 	c #FF5EBE",
"#: 	c #792950",
"$: 	c #080203",
"%: 	c #08080C",
"&: 	c #35394B",
"*: 	c #3B3F54",
"=: 	c #34374B",
"-: 	c #35384D",
";: 	c #323545",
">: 	c #383B52",
",: 	c #414368",
"': 	c #35384A",
"): 	c #232634",
"!: 	c #000101",
"~: 	c #121218",
"{: 	c #363A4D",
"]: 	c #313345",
"^: 	c #001506",
"/: 	c #0FD8B1",
"(: 	c #DF6EAF",
"_: 	c #FF2A7D",
":: 	c #F54A92",
"<: 	c #952C57",
"[: 	c #CD3E7B",
"}: 	c #FE4B94",
"|: 	c #F94896",
"1: 	c #F94FA2",
"2: 	c #3A1122",
"3: 	c #060203",
"4: 	c #D43F84",
"5: 	c #EB438F",
"6: 	c #EB4291",
"7: 	c #F64794",
"8: 	c #FF4D96",
"9: 	c #FF4F98",
"0: 	c #FF4A96",
"a: 	c #E13F95",
"b: 	c #B62C90",
"c: 	c #7E188A",
"d: 	c #590887",
"e: 	c #420085",
"f: 	c #380085",
"g: 	c #4B0089",
"h: 	c #510189",
"i: 	c #55028B",
"j: 	c #58038B",
"k: 	c #5A038C",
"l: 	c #59038D",
"m: 	c #58038E",
"n: 	c #56038E",
"o: 	c #55038F",
"p: 	c #550390",
"q: 	c #550391",
"r: 	c #550392",
"s: 	c #540393",
"t: 	c #540394",
"u: 	c #540395",
"v: 	c #540396",
"w: 	c #520396",
"x: 	c #520296",
"y: 	c #530396",
"z: 	c #540296",
"A: 	c #540297",
"B: 	c #530297",
"C: 	c #4F0196",
"D: 	c #490096",
"E: 	c #3F0094",
"F: 	c #340093",
"G: 	c #230090",
"H: 	c #18008F",
"I: 	c #1E008F",
"J: 	c #330091",
"K: 	c #5B0995",
"L: 	c #A01F9C",
"M: 	c #C02C9D",
"N: 	c #C32E9F",
"O: 	c #E53AA1",
"P: 	c #ED3EA1",
"Q: 	c #ED3F9F",
"R: 	c #EA4190",
"S: 	c #ED4290",
"T: 	c #F9479C",
"U: 	c #FF4EAA",
"V: 	c #E14491",
"W: 	c #962E62",
"X: 	c #571935",
"Y: 	c #080305",
"Z: 	c #020100",
"`: 	c #1E0812",
" < 	c #330F1E",
".< 	c #4B172D",
"+< 	c #671E3D",
"@< 	c #85264F",
"#< 	c #A32F61",
"$< 	c #C84387",
"%< 	c #F251A2",
"&< 	c #B7376E",
"*< 	c #383C51",
"=< 	c #35384E",
"-< 	c #36394F",
";< 	c #464972",
">< 	c #303343",
",< 	c #1C1E27",
"'< 	c #0D0D13",
")< 	c #3D3F56",
"!< 	c #050507",
"~< 	c #00694D",
"{< 	c #53E4E1",
"]< 	c #FF3489",
"^< 	c #F53D86",
"/< 	c #ED478C",
"(< 	c #CD3F7E",
"_< 	c #7E2549",
":< 	c #F34A92",
"<< 	c #FF53AB",
"[< 	c #AE366F",
"}< 	c #842753",
"|< 	c #FF50AD",
"1< 	c #F14491",
"2< 	c #FD4A94",
"3< 	c #FF4F96",
"4< 	c #D93B93",
"5< 	c #A4268C",
"6< 	c #751188",
"7< 	c #4C0484",
"8< 	c #3E0083",
"9< 	c #3E0084",
"0< 	c #440085",
"a< 	c #500088",
"b< 	c #58028A",
"c< 	c #59038A",
"d< 	c #59038B",
"e< 	c #57038C",
"f< 	c #56038D",
"g< 	c #530397",
"h< 	c #530398",
"i< 	c #540398",
"j< 	c #4E0097",
"k< 	c #430096",
"l< 	c #3A0096",
"m< 	c #380096",
"n< 	c #380095",
"o< 	c #390095",
"p< 	c #3C0096",
"q< 	c #450296",
"r< 	c #540597",
"s< 	c #640A99",
"t< 	c #79129B",
"u< 	c #8C1A9D",
"v< 	c #991F9E",
"w< 	c #A0239E",
"x< 	c #AD259F",
"y< 	c #C12AA1",
"z< 	c #B9299F",
"A< 	c #921C9B",
"B< 	c #CC309F",
"C< 	c #FB42A4",
"D< 	c #ED3DA2",
"E< 	c #ED3DA1",
"F< 	c #EE3F9F",
"G< 	c #EC3E9C",
"H< 	c #EB3E9B",
"I< 	c #ED4291",
"J< 	c #EC4190",
"K< 	c #F64496",
"L< 	c #FF4CA2",
"M< 	c #FF4FA9",
"N< 	c #DB438D",
"O< 	c #A73167",
"P< 	c #581B3A",
"Q< 	c #1D0811",
"R< 	c #220912",
"S< 	c #702245",
"T< 	c #46152A",
"U< 	c #100F16",
"V< 	c #393C52",
"W< 	c #35374B",
"X< 	c #323441",
"Y< 	c #434767",
"Z< 	c #55578E",
"`< 	c #3A3E55",
" [ 	c #15171E",
".[ 	c #000001",
"+[ 	c #171A28",
"@[ 	c #070609",
"#[ 	c #00D0AE",
"$[ 	c #92A7CE",
"%[ 	c #FF2379",
"&[ 	c #8F2B54",
"*[ 	c #992F5D",
"=[ 	c #FB4998",
"-[ 	c #FC4EA6",
";[ 	c #3C1226",
">[ 	c #360F24",
",[ 	c #FD4E9C",
"'[ 	c #FF559E",
")[ 	c #F24693",
"![ 	c #B02A8C",
"~[ 	c #731487",
"{[ 	c #4F0283",
"][ 	c #3B0081",
"^[ 	c #3F0083",
"/[ 	c #4D0085",
"([ 	c #550286",
"_[ 	c #5B0389",
":[ 	c #580389",
"<[ 	c #56038A",
"[[ 	c #56038B",
"}[ 	c #56038C",
"|[ 	c #500299",
"1[ 	c #540399",
"2[ 	c #750F9D",
"3[ 	c #931BA1",
"4[ 	c #A521A3",
"5[ 	c #AA23A3",
"6[ 	c #A722A2",
"7[ 	c #A922A2",
"8[ 	c #B024A3",
"9[ 	c #BA29A4",
"0[ 	c #C82FA5",
"a[ 	c #DC35A7",
"b[ 	c #ED39A9",
"c[ 	c #FA3EA9",
"d[ 	c #FF42AA",
"e[ 	c #FF45AB",
"f[ 	c #FF45AA",
"g[ 	c #FF44AA",
"h[ 	c #FF42A8",
"i[ 	c #FC41A8",
"j[ 	c #F841A7",
"k[ 	c #ED3CA4",
"l[ 	c #EC3BA4",
"m[ 	c #ED3DA3",
"n[ 	c #ED3DA0",
"o[ 	c #E93D9E",
"p[ 	c #EF3EA2",
"q[ 	c #FF44AF",
"r[ 	c #FA42A6",
"s[ 	c #EC3E9B",
"t[ 	c #EB3E9A",
"u[ 	c #EB418F",
"v[ 	c #ED428F",
"w[ 	c #F34695",
"x[ 	c #FF4BA0",
"y[ 	c #FF50AA",
"z[ 	c #FF4EA4",
"A[ 	c #EA4490",
"B[ 	c #B33773",
"C[ 	c #782449",
"D[ 	c #13050B",
"E[ 	c #111119",
"F[ 	c #393D53",
"G[ 	c #36384D",
"H[ 	c #383B4E",
"I[ 	c #3B4050",
"J[ 	c #353955",
"K[ 	c #44478D",
"L[ 	c #3D3F88",
"M[ 	c #151B3F",
"N[ 	c #100D0F",
"O[ 	c #0A0A0B",
"P[ 	c #585552",
"Q[ 	c #282522",
"R[ 	c #050608",
"S[ 	c #00503D",
"T[ 	c #13FAEF",
"U[ 	c #D55998",
"V[ 	c #FF2A7B",
"W[ 	c #E94B8B",
"X[ 	c #BF3A73",
"Y[ 	c #FF51AC",
"Z[ 	c #C53C7F",
"`[ 	c #CB3C79",
" } 	c #BC30A2",
".} 	c #520780",
"+} 	c #39007F",
"@} 	c #3E0082",
"#} 	c #4D0084",
"$} 	c #590285",
"%} 	c #5A0386",
"&} 	c #590387",
"*} 	c #580388",
"=} 	c #570389",
"-} 	c #57038A",
";} 	c #57038B",
">} 	c #530399",
",} 	c #53039A",
"'} 	c #52029A",
")} 	c #52029B",
"!} 	c #50019B",
"~} 	c #51019B",
"{} 	c #670A9D",
"]} 	c #8917A1",
"^} 	c #B127A5",
"/} 	c #D533A9",
"(} 	c #FA3EAD",
"_} 	c #FF49AF",
":} 	c #FF4CB0",
"<} 	c #FF4BB0",
"[} 	c #FF48AF",
"}} 	c #FF42AC",
"|} 	c #F83EAB",
"1} 	c #F23CAA",
"2} 	c #F03BAA",
"3} 	c #EF3BA9",
"4} 	c #ED3AA9",
"5} 	c #EC3AA9",
"6} 	c #ED3BA8",
"7} 	c #F13CA7",
"8} 	c #EF3CA7",
"9} 	c #ED3BA6",
"0} 	c #ED3CA5",
"a} 	c #ED3CA3",
"b} 	c #EE3DA2",
"c} 	c #F33EA6",
"d} 	c #D23790",
"e} 	c #AF2F79",
"f} 	c #F242AA",
"g} 	c #FF49BB",
"h} 	c #F140A0",
"i} 	c #EA3D98",
"j} 	c #EC3F9C",
"k} 	c #ED438F",
"l} 	c #F54592",
"m} 	c #FF50A6",
"n} 	c #E04A9B",
"o} 	c #4B152D",
"p} 	c #0F1016",
"q} 	c #454861",
"r} 	c #32364A",
"s} 	c #15193A",
"t} 	c #181942",
"u} 	c #20213A",
"v} 	c #403D49",
"w} 	c #60595D",
"x} 	c #7E7775",
"y} 	c #9F9C99",
"z} 	c #C6C2C0",
"A} 	c #413C3C",
"B} 	c #ECE6E3",
"C} 	c #C6BEBC",
"D} 	c #00B9A1",
"E} 	c #44F2F6",
"F} 	c #FF378A",
"G} 	c #FF4296",
"H} 	c #F54C96",
"I} 	c #D64186",
"J} 	c #B9306F",
"K} 	c #6B1B3D",
"L} 	c #5D1E3A",
"M} 	c #F74B95",
"N} 	c #F7488F",
"O} 	c #F44693",
"P} 	c #6F2241",
"Q} 	c #0A0013",
"R} 	c #5B087B",
"S} 	c #41007F",
"T} 	c #570284",
"U} 	c #5C0386",
"V} 	c #580386",
"W} 	c #580387",
"X} 	c #570388",
"Y} 	c #56038F",
"Z} 	c #52029C",
"`} 	c #53029C",
" | 	c #4A009B",
".| 	c #40009B",
"+| 	c #3A009A",
"@| 	c #40009C",
"#| 	c #56069D",
"$| 	c #7112A0",
"%| 	c #9A1DA4",
"&| 	c #CE2EA9",
"*| 	c #EF3CAD",
"=| 	c #FF41AE",
"-| 	c #FF42AE",
";| 	c #EE3BAB",
">| 	c #EA39AA",
",| 	c #EC3AAA",
"'| 	c #ED3BA9",
")| 	c #ED3BA7",
"!| 	c #EB3CA3",
"~| 	c #F840AA",
"{| 	c #EE3EA5",
"]| 	c #6A1C4E",
"^| 	c #380F28",
"/| 	c #9D2B6F",
"(| 	c #FF49BD",
"_| 	c #FF48B7",
":| 	c #F0409E",
"<| 	c #EA3E9A",
"[| 	c #EC3F9B",
"}| 	c #ED4490",
"|| 	c #EB438D",
"1| 	c #EF448F",
"2| 	c #F94A99",
"3| 	c #FF5AB9",
"4| 	c #A12F62",
"5| 	c #1D1E28",
"6| 	c #2A2C3D",
"7| 	c #070811",
"8| 	c #4B4849",
"9| 	c #B1ABA4",
"0| 	c #D9D3C4",
"a| 	c #F6F4EB",
"b| 	c #FFFDF6",
"c| 	c #FFFFF9",
"d| 	c #FFFFFE",
"e| 	c #E0DCDB",
"f| 	c #88817F",
"g| 	c #322D2D",
"h| 	c #000C06",
"i| 	c #00E2D0",
"j| 	c #81C0D9",
"k| 	c #F92579",
"l| 	c #D63D7E",
"m| 	c #BD3873",
"n| 	c #9E3163",
"o| 	c #7B234A",
"p| 	c #460B23",
"q| 	c #160005",
"r| 	c #000200",
"s| 	c #A03262",
"t| 	c #EC4390",
"u| 	c #F8498F",
"v| 	c #8C168F",
"w| 	c #520186",
"x| 	c #4B0087",
"y| 	c #540180",
"z| 	c #5C0385",
"A| 	c #590385",
"B| 	c #52029D",
"C| 	c #52029E",
"D| 	c #51029E",
"E| 	c #52019E",
"F| 	c #50019F",
"G| 	c #4C009E",
"H| 	c #41009C",
"I| 	c #36009C",
"J| 	c #34009B",
"K| 	c #3B009C",
"L| 	c #57089F",
"M| 	c #8D19A4",
"N| 	c #C02CA9",
"O| 	c #F33BAF",
"P| 	c #FF44B0",
"Q| 	c #F33CAD",
"R| 	c #EB39AC",
"S| 	c #E939AB",
"T| 	c #EC39AB",
"U| 	c #ED3CA6",
"V| 	c #EB3CA2",
"W| 	c #F83FAB",
"X| 	c #F940AD",
"Y| 	c #9F2B74",
"Z| 	c #340E26",
"`| 	c #431230",
" 1 	c #C5378F",
".1 	c #FF4CC3",
"+1 	c #FF46B2",
"@1 	c #ED3E9B",
"#1 	c #EA3E99",
"$1 	c #EA438B",
"%1 	c #FE4A9B",
"&1 	c #EE4995",
"*1 	c #1B080F",
"=1 	c #6A6660",
"-1 	c #FFFEF7",
";1 	c #FFFFFC",
">1 	c #FFF3EC",
",1 	c #FFFDFF",
"'1 	c #FEF3F9",
")1 	c #EEDBD4",
"!1 	c #EDD9D4",
"~1 	c #EFDBD6",
"{1 	c #807B7A",
"]1 	c #191413",
"^1 	c #FDFFFF",
"/1 	c #D0C9C7",
"(1 	c #140F0E",
"_1 	c #00413B",
":1 	c #1C1927",
"<1 	c #200000",
"[1 	c #06130B",
"}1 	c #2E352B",
"|1 	c #646B62",
"11 	c #9CB4A0",
"21 	c #5B4E49",
"31 	c #D72C78",
"41 	c #FF4F9A",
"51 	c #FF4F94",
"61 	c #CB378B",
"71 	c #58008D",
"81 	c #5C0382",
"91 	c #580384",
"01 	c #580385",
"a1 	c #570387",
"b1 	c #51029F",
"c1 	c #5102A0",
"d1 	c #5202A1",
"e1 	c #5302A1",
"f1 	c #5402A1",
"g1 	c #4F02A0",
"h1 	c #46009F",
"i1 	c #3D009D",
"j1 	c #32009C",
"k1 	c #39009D",
"l1 	c #5D0AA1",
"m1 	c #911BA5",
"n1 	c #CF30AB",
"o1 	c #FC3FAF",
"p1 	c #FF43AF",
"q1 	c #EE3AAD",
"r1 	c #EA38AB",
"s1 	c #EC3AAB",
"t1 	c #ED3AAB",
"u1 	c #ED3AA7",
"v1 	c #E93BA3",
"w1 	c #F83FA9",
"x1 	c #FF48C1",
"y1 	c #F345B9",
"z1 	c #6C1E51",
"A1 	c #591841",
"B1 	c #D53C9D",
"C1 	c #FF4BBE",
"D1 	c #FF47B2",
"E1 	c #F2409E",
"F1 	c #EB3E98",
"G1 	c #F0438E",
"H1 	c #FF53AD",
"I1 	c #7D254D",
"J1 	c #A59D97",
"K1 	c #F3DCD5",
"L1 	c #EDD7CE",
"M1 	c #F7EAEF",
"N1 	c #F8EDF9",
"O1 	c #EFDBD4",
"P1 	c #F1DED7",
"Q1 	c #EFDAD5",
"R1 	c #FDEFE9",
"S1 	c #F4F0EC",
"T1 	c #3B3837",
"U1 	c #B4ACA9",
"V1 	c #D1CDC6",
"W1 	c #7C7874",
"X1 	c #231E1D",
"Y1 	c #050201",
"Z1 	c #040000",
"`1 	c #040101",
" 2 	c #050202",
".2 	c #090605",
"+2 	c #130E0D",
"@2 	c #1C1414",
"#2 	c #280D0C",
"$2 	c #2B251E",
"%2 	c #334137",
"&2 	c #54564E",
"*2 	c #6F6C63",
"=2 	c #8F897D",
"-2 	c #AEAFA1",
";2 	c #D7D8D0",
">2 	c #FFF7E9",
",2 	c #CCE2CE",
"'2 	c #6C243E",
")2 	c #F1388D",
"!2 	c #F64C91",
"~2 	c #FF5094",
"{2 	c #A6288A",
"]2 	c #3A007E",
"^2 	c #560281",
"/2 	c #5102A1",
"(2 	c #5002A2",
"_2 	c #5102A2",
":2 	c #5202A3",
"<2 	c #5302A2",
"[2 	c #4C00A0",
"}2 	c #3B009E",
"|2 	c #32009D",
"12 	c #6A0FA2",
"22 	c #AD24A7",
"32 	c #F039AF",
"42 	c #FF43B1",
"52 	c #FF41AF",
"62 	c #F03BAD",
"72 	c #E938AC",
"82 	c #ED3AA8",
"92 	c #EB3BA5",
"02 	c #EB3BA1",
"a2 	c #F840AC",
"b2 	c #FF4CC9",
"c2 	c #BC3691",
"d2 	c #11040C",
"e2 	c #711F54",
"f2 	c #E13D9F",
"g2 	c #FF4CBD",
"h2 	c #FF48B2",
"i2 	c #F241A0",
"j2 	c #EB3E96",
"k2 	c #EB3F98",
"l2 	c #EA428D",
"m2 	c #E3438B",
"n2 	c #100509",
"o2 	c #827471",
"p2 	c #FFFFFA",
"q2 	c #F7E3DB",
"r2 	c #F1DBD0",
"s2 	c #F7E6EA",
"t2 	c #FBF0FE",
"u2 	c #F3DED6",
"v2 	c #F2DED5",
"w2 	c #F3DED9",
"x2 	c #F2DAD2",
"y2 	c #FFFBF5",
"z2 	c #C1B6B4",
"A2 	c #A0918C",
"B2 	c #FEF2EA",
"C2 	c #FFFFF4",
"D2 	c #FFFFFD",
"E2 	c #EAE2DA",
"F2 	c #CCC1B6",
"G2 	c #C5BCB1",
"H2 	c #C6BEB3",
"I2 	c #CAC1B5",
"J2 	c #D3C8BC",
"K2 	c #E0D5C8",
"L2 	c #E7DCCE",
"M2 	c #ECE3D4",
"N2 	c #F2F0E1",
"O2 	c #F8F6EB",
"P2 	c #FFFDF4",
"Q2 	c #FFFFF8",
"R2 	c #FFFDEE",
"S2 	c #FFF5E6",
"T2 	c #6F7565",
"U2 	c #940E4E",
"V2 	c #EC4391",
"W2 	c #F74892",
"X2 	c #FF4C93",
"Y2 	c #7D1486",
"Z2 	c #410080",
"`2 	c #5A0384",
" 3 	c #560396",
".3 	c #550397",
"+3 	c #520299",
"@3 	c #510299",
"#3 	c #51029C",
"$3 	c #52029F",
"%3 	c #5002A3",
"&3 	c #5002A4",
"*3 	c #5102A3",
"=3 	c #5402A3",
"-3 	c #4500A0",
";3 	c #36009F",
">3 	c #31009D",
",3 	c #5308A0",
"'3 	c #911BA6",
")3 	c #D733AD",
"!3 	c #FF41B0",
"~3 	c #EC39AC",
"{3 	c #E837AC",
"]3 	c #EA3AA1",
"^3 	c #EF3CA3",
"/3 	c #FF49C3",
"(3 	c #F245B8",
"_3 	c #621B4A",
":3 	c #060104",
"<3 	c #6C1E4D",
"[3 	c #CB3B94",
"}3 	c #FF4AB7",
"|3 	c #FF4AB8",
"13 	c #FA45A5",
"23 	c #EB3F96",
"33 	c #EB4096",
"43 	c #F44491",
"53 	c #FF52AB",
"63 	c #6B2042",
"73 	c #7A6F6A",
"83 	c #FAE4DC",
"93 	c #F4DBD1",
"03 	c #F6E3E2",
"a3 	c #FAEDF6",
"b3 	c #F4DED6",
"c3 	c #F4DED5",
"d3 	c #F4DFD8",
"e3 	c #F6DED6",
"f3 	c #FFE9E0",
"g3 	c #F0DBD1",
"h3 	c #F7DED3",
"i3 	c #F8DCD1",
"j3 	c #FAE2D5",
"k3 	c #FFF5E8",
"l3 	c #FFFFF5",
"m3 	c #FFFFF2",
"n3 	c #FFFCED",
"o3 	c #FFF9E9",
"p3 	c #FFF7E6",
"q3 	c #FFF2E2",
"r3 	c #FFEFDF",
"s3 	c #FFEBDB",
"t3 	c #FFE8D8",
"u3 	c #FFE4D4",
"v3 	c #FFE0D0",
"w3 	c #FFDFCE",
"x3 	c #FFF2E0",
"y3 	c #E6F3DA",
"z3 	c #57323E",
"A3 	c #DB2979",
"B3 	c #FE5099",
"C3 	c #FF4C94",
"D3 	c #E94393",
"E3 	c #550781",
"F3 	c #4B0081",
"G3 	c #5B0384",
"H3 	c #550395",
"I3 	c #530296",
"J3 	c #480096",
"K3 	c #4B0197",
"L3 	c #4E0198",
"M3 	c #5602A0",
"N3 	c #5802A8",
"O3 	c #5802A7",
"P3 	c #50029B",
"Q3 	c #50029D",
"R3 	c #5002A5",
"S3 	c #5302A3",
"T3 	c #5402A2",
"U3 	c #4F01A2",
"V3 	c #3D009F",
"W3 	c #30009E",
"X3 	c #40019F",
"Y3 	c #7B16A5",
"Z3 	c #E235AE",
"`3 	c #FF45B2",
" 4 	c #F43CAD",
".4 	c #E737AC",
"+4 	c #EB39AB",
"@4 	c #EC3AAC",
"#4 	c #ED3CA7",
"$4 	c #EC3BA3",
"%4 	c #EA399E",
"&4 	c #FC43B2",
"*4 	c #FF4BC9",
"=4 	c #AD3183",
"-4 	c #12050D",
";4 	c #090205",
">4 	c #5D1942",
",4 	c #B93485",
"'4 	c #FB48B1",
")4 	c #FF4DBB",
"!4 	c #FF48AE",
"~4 	c #F745A1",
"{4 	c #EF4299",
"]4 	c #EB4094",
"^4 	c #CD3D80",
"/4 	c #756C67",
"(4 	c #FCE6DB",
"_4 	c #F6DFD5",
":4 	c #F6E0D6",
"<4 	c #F6DFD7",
"[4 	c #F6E0D7",
"}4 	c #F7DFD7",
"|4 	c #F5DDD4",
"14 	c #FBE4D9",
"24 	c #FFE9DD",
"34 	c #F7DFD4",
"44 	c #F8E2D6",
"54 	c #F9E1D5",
"64 	c #F8E0D3",
"74 	c #F9DFD2",
"84 	c #FBDFD2",
"94 	c #FBE0D2",
"04 	c #FDE0D2",
"a4 	c #FDE0D1",
"b4 	c #FEE0D2",
"c4 	c #FEE1D2",
"d4 	c #FEE2D2",
"e4 	c #FFE2D2",
"f4 	c #FFE3D2",
"g4 	c #FFE3D3",
"h4 	c #94AB93",
"i4 	c #740F3B",
"j4 	c #F1488B",
"k4 	c #EC4291",
"l4 	c #FF4E94",
"m4 	c #C2318F",
"n4 	c #400080",
"o4 	c #530183",
"p4 	c #510296",
"q4 	c #580498",
"r4 	c #550699",
"s4 	c #3E0096",
"t4 	c #3A0097",
"u4 	c #4F00A8",
"v4 	c #5502A5",
"w4 	c #5B02B0",
"x4 	c #5E02B8",
"y4 	c #5F02BA",
"z4 	c #5D02B9",
"A4 	c #5902B2",
"B4 	c #5502A8",
"C4 	c #4F02A1",
"D4 	c #4F02A5",
"E4 	c #4F02A6",
"F4 	c #5101A2",
"G4 	c #4300A1",
"H4 	c #2C009D",
"I4 	c #3B029F",
"J4 	c #AA25A8",
"K4 	c #FF43B2",
"L4 	c #FF40B0",
"M4 	c #E936AC",
"N4 	c #EA38AC",
"O4 	c #F53DA7",
"P4 	c #FF49C5",
"Q4 	c #EA42AF",
"R4 	c #631A48",
"S4 	c #0D0208",
"T4 	c #2F0D21",
"U4 	c #87255E",
"V4 	c #CD3B90",
"W4 	c #FD48AE",
"X4 	c #FF4CB4",
"Y4 	c #FF4BAF",
"Z4 	c #FD47A4",
"`4 	c #F24399",
" 5 	c #EC4192",
".5 	c #EC448E",
"+5 	c #FF4FA7",
"@5 	c #541934",
"#5 	c #766D68",
"$5 	c #F7E0D5",
"%5 	c #F7E0D4",
"&5 	c #F6DFD3",
"*5 	c #F7E1D6",
"=5 	c #F7E0D6",
"-5 	c #F8E1D6",
";5 	c #F9E2D7",
">5 	c #F9E2D6",
",5 	c #FCE3D5",
"'5 	c #FDE3D5",
")5 	c #FEE3D4",
"!5 	c #FEE4D4",
"~5 	c #FFE6D7",
"{5 	c #FCFFEC",
"]5 	c #615D58",
"^5 	c #B1155C",
"/5 	c #F04492",
"(5 	c #921E89",
"_5 	c #3D0081",
":5 	c #550398",
"<5 	c #4B0097",
"[5 	c #470298",
"}5 	c #B428A4",
"|5 	c #C02FA9",
"15 	c #B023AE",
"25 	c #48096A",
"35 	c #13003D",
"45 	c #15002B",
"55 	c #190131",
"65 	c #27014E",
"75 	c #3B0175",
"85 	c #480292",
"95 	c #5302A7",
"05 	c #5902B6",
"a5 	c #5E02C2",
"b5 	c #5E02C1",
"c5 	c #5302AD",
"d5 	c #5002A6",
"e5 	c #4E02A2",
"f5 	c #4E02A3",
"g5 	c #4F02A7",
"h5 	c #5402A4",
"i5 	c #5502A2",
"j5 	c #3E009F",
"k5 	c #2D009E",
"l5 	c #7F16A6",
"m5 	c #F53EB2",
"n5 	c #ED38AE",
"o5 	c #E937AD",
"p5 	c #EB3BA2",
"q5 	c #EA3A9F",
"r5 	c #FF45B8",
"s5 	c #FF4AC3",
"t5 	c #9D2B73",
"u5 	c #1E0714",
"v5 	c #250B1B",
"w5 	c #380F27",
"x5 	c #060103",
"y5 	c #44122D",
"z5 	c #87265B",
"A5 	c #C63A89",
"B5 	c #F746A4",
"C5 	c #FF4CB1",
"D5 	c #FF4EB1",
"E5 	c #FF49A5",
"F5 	c #FA469C",
"G5 	c #F04495",
"H5 	c #EC4290",
"I5 	c #EB428C",
"J5 	c #B43570",
"K5 	c #786F69",
"L5 	c #FDE7DB",
"M5 	c #F8E0D5",
"N5 	c #F9E2D5",
"O5 	c #FCE2D5",
"P5 	c #FFE1CF",
"Q5 	c #FFFAED",
"R5 	c #C2D7C0",
"S5 	c #50172C",
"T5 	c #EF388D",
"U5 	c #F94C92",
"V5 	c #CD3C78",
"W5 	c #C83C77",
"X5 	c #F94793",
"Y5 	c #620C85",
"Z5 	c #410082",
"`5 	c #5D0385",
" 6 	c #530395",
".6 	c #550299",
"+6 	c #340097",
"@6 	c #7E169F",
"#6 	c #FF4DB4",
"$6 	c #FF4CC5",
"%6 	c #902764",
"&6 	c #010003",
"*6 	c #090113",
"=6 	c #17012F",
"-6 	c #2B0157",
";6 	c #3C027B",
">6 	c #4C029E",
",6 	c #5902BD",
"'6 	c #5D02C5",
")6 	c #5B02C0",
"!6 	c #5502B3",
"~6 	c #4E02A5",
"{6 	c #4E02A7",
"]6 	c #4F02A8",
"^6 	c #4B00A2",
"/6 	c #2A009F",
"(6 	c #5109A2",
"_6 	c #CE31AE",
":6 	c #FF45B3",
"<6 	c #E836AD",
"[6 	c #EC39AD",
"}6 	c #F43EA7",
"|6 	c #FF4AC5",
"16 	c #E840A8",
"26 	c #661D4A",
"36 	c #461230",
"46 	c #721E4E",
"56 	c #56173B",
"66 	c #280B1A",
"76 	c #641D45",
"86 	c #A32E6B",
"96 	c #D83E8D",
"06 	c #FF4BAA",
"a6 	c #FF4DAA",
"b6 	c #FA489D",
"c6 	c #F04292",
"d6 	c #EC428E",
"e6 	c #FC499A",
"f6 	c #FC4C9E",
"g6 	c #6E655F",
"h6 	c #FFFFF7",
"i6 	c #FFEADC",
"j6 	c #FBE2D5",
"k6 	c #838F7C",
"l6 	c #7E0A3F",
"m6 	c #4A162B",
"n6 	c #300E1D",
"o6 	c #FF4D95",
"p6 	c #D53991",
"q6 	c #470083",
"r6 	c #4D0083",
"s6 	c #56039A",
"t6 	c #49009A",
"u6 	c #360099",
"v6 	c #CF30A9",
"w6 	c #FF44B4",
"x6 	c #FA37B7",
"y6 	c #B938A5",
"z6 	c #3D1C42",
"A6 	c #080012",
"B6 	c #180134",
"C6 	c #280157",
"D6 	c #440291",
"E6 	c #5502B5",
"F6 	c #5C02C6",
"G6 	c #5602B9",
"H6 	c #5102AF",
"I6 	c #4E02A8",
"J6 	c #4D02A6",
"K6 	c #4E02A9",
"L6 	c #4F02AA",
"M6 	c #4F02A9",
"N6 	c #5302A4",
"O6 	c #3200A0",
"P6 	c #3801A0",
"Q6 	c #AE26AA",
"R6 	c #FF43B3",
"S6 	c #FE3EB1",
"T6 	c #ED3AAA",
"U6 	c #EC3CA0",
"V6 	c #FF45B6",
"W6 	c #FF46B7",
"X6 	c #9D2C73",
"Y6 	c #461432",
"Z6 	c #6A1C47",
"`6 	c #9C2B6C",
" 7 	c #5E1A42",
".7 	c #15060E",
"+7 	c #45142C",
"@7 	c #852555",
"#7 	c #C33A82",
"$7 	c #F9489F",
"%7 	c #FF4DA7",
"&7 	c #FC4899",
"*7 	c #EE4590",
"=7 	c #ED428C",
"-7 	c #FF51AB",
";7 	c #922B5B",
">7 	c #5D5552",
",7 	c #FFFEF5",
"'7 	c #FFECDF",
")7 	c #FAE1D3",
"!7 	c #FFE2D3",
"~7 	c #FFEFDE",
"{7 	c #F4FBE8",
"]7 	c #4A3D3C",
"^7 	c #C2216B",
"/7 	c #FF519E",
"(7 	c #D44283",
"_7 	c #A93467",
":7 	c #FF5097",
"<7 	c #A2268C",
"[7 	c #370081",
"}7 	c #580286",
"|7 	c #55038E",
"17 	c #56029C",
"27 	c #30009A",
"37 	c #8016A4",
"47 	c #FF40AF",
"57 	c #F434A9",
"67 	c #FF51F6",
"77 	c #D457D8",
"87 	c #000303",
"97 	c #040008",
"07 	c #0A0017",
"a7 	c #080011",
"b7 	c #05000C",
"c7 	c #04000A",
"d7 	c #1F0044",
"e7 	c #3B0181",
"f7 	c #4E02AA",
"g7 	c #5C02C8",
"h7 	c #5B02C8",
"i7 	c #5402BA",
"j7 	c #4E02AB",
"k7 	c #4D02A7",
"l7 	c #5602A4",
"m7 	c #4100A1",
"n7 	c #28009D",
"o7 	c #7B16A6",
"p7 	c #FC3EB2",
"q7 	c #EB38AE",
"r7 	c #EA38AD",
"s7 	c #EC3CA4",
"t7 	c #E93B9F",
"u7 	c #F43EA5",
"v7 	c #FF4AC0",
"w7 	c #E340A3",
"x7 	c #671D4A",
"y7 	c #41112C",
"z7 	c #972A6A",
"A7 	c #C43789",
"B7 	c #6A1F49",
"C7 	c #310D1E",
"D7 	c #77234E",
"E7 	c #C6387E",
"F7 	c #FC4BA2",
"G7 	c #FC499B",
"H7 	c #FF4B9E",
"I7 	c #E3438D",
"J7 	c #1D0710",
"K7 	c #484340",
"L7 	c #FCF4EC",
"M7 	c #FFF0E2",
"N7 	c #FBE2D3",
"O7 	c #FFE0D1",
"P7 	c #FFFDF0",
"Q7 	c #B7CBAE",
"R7 	c #571730",
"S7 	c #F93D90",
"T7 	c #F94C93",
"U7 	c #F5478D",
"V7 	c #621C3C",
"W7 	c #030500",
"X7 	c #010200",
"Y7 	c #210812",
"Z7 	c #F44E99",
"`7 	c #FA4C95",
" 8 	c #F94895",
".8 	c #721087",
"+8 	c #400083",
"@8 	c #520298",
"#8 	c #54029E",
"$8 	c #41009D",
"%8 	c #43029E",
"&8 	c #DF35B0",
"*8 	c #FB3DAF",
"=8 	c #F937B9",
"-8 	c #FD62F1",
";8 	c #311B3B",
">8 	c #020004",
",8 	c #0F001F",
"'8 	c #24014E",
")8 	c #33016F",
"!8 	c #290158",
"~8 	c #13002A",
"{8 	c #020003",
"]8 	c #190037",
"^8 	c #37017A",
"/8 	c #5101B5",
"(8 	c #5B02C7",
"_8 	c #5A02C6",
":8 	c #5102B3",
"<8 	c #4C02A8",
"[8 	c #4D02A8",
"}8 	c #4E02AC",
"|8 	c #4F02A4",
"18 	c #5602A5",
"28 	c #4A00A3",
"38 	c #27009F",
"48 	c #5B0BA3",
"58 	c #D932AF",
"68 	c #FF44B3",
"78 	c #F33AAF",
"88 	c #EB3CA0",
"98 	c #EB3C9E",
"08 	c #FF4ABE",
"a8 	c #B43382",
"b8 	c #421430",
"c8 	c #511537",
"d8 	c #BC3685",
"e8 	c #CD3E97",
"f8 	c #6A204C",
"g8 	c #17060D",
"h8 	c #240A17",
"i8 	c #030002",
"j8 	c #3C1126",
"k8 	c #982D60",
"l8 	c #E54593",
"m8 	c #FF59BC",
"n8 	c #722248",
"o8 	c #3C3835",
"p8 	c #F6EFE7",
"q8 	c #FFF3E4",
"r8 	c #FDE1D3",
"s8 	c #FDE3D4",
"t8 	c #6A7F6E",
"u8 	c #790B3C",
"v8 	c #DE4589",
"w8 	c #0B0004",
"x8 	c #6E5F52",
"y8 	c #6F5850",
"z8 	c #A33063",
"A8 	c #EB458C",
"B8 	c #FF4F8E",
"C8 	c #EB4192",
"D8 	c #D73B93",
"E8 	c #470283",
"F8 	c #4F0085",
"G8 	c #5B0387",
"H8 	c #4F019F",
"I8 	c #2F009E",
"J8 	c #9F1FAA",
"K8 	c #FF43B6",
"L8 	c #EC2DA7",
"M8 	c #FF67FC",
"N8 	c #82448D",
"O8 	c #100028",
"P8 	c #2E006E",
"Q8 	c #4F00B2",
"R8 	c #270158",
"S8 	c #040009",
"T8 	c #200046",
"U8 	c #420294",
"V8 	c #5C02CD",
"W8 	c #5C02CC",
"X8 	c #4D02AB",
"Y8 	c #5202A6",
"Z8 	c #5301A4",
"`8 	c #2F00A0",
" 9 	c #3B02A1",
".9 	c #B528AC",
"+9 	c #F93DB1",
"@9 	c #E737AD",
"#9 	c #E93C9D",
"$9 	c #EE3DA0",
"%9 	c #FF48BA",
"&9 	c #FE48B5",
"*9 	c #882762",
"=9 	c #220916",
"-9 	c #5C1C43",
";9 	c #DE46A6",
">9 	c #DA45A2",
",9 	c #81275A",
"'9 	c #4B132C",
")9 	c #240A15",
"!9 	c #7D254E",
"~9 	c #ED50AB",
"{9 	c #F74FA5",
"]9 	c #1E0810",
"^9 	c #2A2724",
"/9 	c #EEE8DB",
"(9 	c #FFF7E7",
"_9 	c #FFE1D1",
":9 	c #F2FAE3",
"<9 	c #493B37",
"[9 	c #C01E66",
"}9 	c #972C5D",
"|9 	c #BEAA9D",
"19 	c #E0B8AC",
"29 	c #410F26",
"39 	c #F8488E",
"49 	c #FA4B8E",
"59 	c #B12886",
"69 	c #D43A8B",
"79 	c #F94B8F",
"89 	c #ED448D",
"99 	c #EE4493",
"09 	c #9D228C",
"a9 	c #3A0082",
"b9 	c #570286",
"c9 	c #540392",
"d9 	c #5502A1",
"e9 	c #39009F",
"f9 	c #5C0AA4",
"g9 	c #F93BB6",
"h9 	c #F82DA6",
"i9 	c #FF58E6",
"j9 	c #CC71C7",
"k9 	c #0F080B",
"l9 	c #181E10",
"m9 	c #151B0D",
"n9 	c #010011",
"o9 	c #6002D7",
"p9 	c #3F028C",
"q9 	c #160132",
"r9 	c #120027",
"s9 	c #360179",
"t9 	c #5201B9",
"u9 	c #5B02CE",
"v9 	c #5802C7",
"w9 	c #5002B4",
"x9 	c #4C02AA",
"y9 	c #3B00A2",
"z9 	c #2B009E",
"A9 	c #8719A7",
"B9 	c #EC37AD",
"C9 	c #E937AC",
"D9 	c #EB3C9F",
"E9 	c #E93C9C",
"F9 	c #FA41A7",
"G9 	c #FF4CBF",
"H9 	c #E242A4",
"I9 	c #651C46",
"J9 	c #1A0610",
"K9 	c #712352",
"L9 	c #E84CB1",
"M9 	c #ED50B9",
"N9 	c #511837",
"O9 	c #1F0813",
"P9 	c #AD336E",
"Q9 	c #611C3B",
"R9 	c #080807",
"S9 	c #D4C7B9",
"T9 	c #FFFFF0",
"U9 	c #FDE0D3",
"V9 	c #FFE0CF",
"W9 	c #ABC5AF",
"X9 	c #41071E",
"Y9 	c #F73F92",
"Z9 	c #F74A90",
"`9 	c #F1478E",
" 0 	c #5F1636",
".0 	c #040400",
"+0 	c #E9B5A8",
"@0 	c #FFDBCD",
"#0 	c #2B211C",
"$0 	c #DD4486",
"%0 	c #FF509C",
"&0 	c #FF508E",
"*0 	c #DF428A",
"=0 	c #360078",
"-0 	c #BB3188",
";0 	c #FF5090",
">0 	c #ED4292",
",0 	c #FA4894",
"'0 	c #FA4996",
")0 	c #610B86",
"!0 	c #5C0387",
"~0 	c #5202A2",
"{0 	c #4A00A2",
"]0 	c #3A00A1",
"^0 	c #CB2DB3",
"/0 	c #FF3DAB",
"(0 	c #9C17C6",
"_0 	c #D24AF2",
":0 	c #4A2738",
"<0 	c #393839",
"[0 	c #888988",
"}0 	c #474C40",
"|0 	c #000500",
"10 	c #02000F",
"20 	c #3C028B",
"30 	c #6803EB",
"40 	c #6602E5",
"50 	c #4B02AA",
"60 	c #320171",
"70 	c #12002A",
"80 	c #06000F",
"90 	c #250153",
"00 	c #4901A4",
"a0 	c #5A02CB",
"b0 	c #5C02CE",
"c0 	c #5402BE",
"d0 	c #4E02AF",
"e0 	c #4C02A9",
"f0 	c #4900A3",
"g0 	c #28009E",
"h0 	c #5D0DA2",
"i0 	c #E136AF",
"j0 	c #F43BAE",
"k0 	c #E737AB",
"l0 	c #EA3D9E",
"m0 	c #EB3C9A",
"n0 	c #FD45AC",
"o0 	c #FF4DBF",
"p0 	c #C13889",
"q0 	c #401029",
"r0 	c #1A0710",
"s0 	c #A1377D",
"t0 	c #982D69",
"u0 	c #18070F",
"v0 	c #A19890",
"w0 	c #FFFFFB",
"x0 	c #FEE0D1",
"y0 	c #FDE2D4",
"z0 	c #FFE7D7",
"A0 	c #556854",
"B0 	c #860B44",
"C0 	c #F74D9A",
"D0 	c #220112",
"E0 	c #2D2B21",
"F0 	c #FFC5B7",
"G0 	c #FFDDCE",
"H0 	c #926E65",
"I0 	c #79254B",
"J0 	c #F04689",
"K0 	c #FF5590",
"L0 	c #972283",
"M0 	c #1D0075",
"N0 	c #B52B86",
"O0 	c #EF468E",
"P0 	c #EC4392",
"Q0 	c #FF4E97",
"R0 	c #C93391",
"S0 	c #3D0082",
"T0 	c #500186",
"U0 	c #5A0388",
"V0 	c #2F00A2",
"W0 	c #8F1CAE",
"X0 	c #F240B0",
"Y0 	c #4C00B2",
"Z0 	c #9805FF",
"`0 	c #5F1961",
" a 	c #737471",
".a 	c #1B2014",
"+a 	c #110029",
"@a 	c #5002B7",
"#a 	c #6802EE",
"$a 	c #5D02D3",
"%a 	c #4C02AC",
"&a 	c #30016B",
"*a 	c #040109",
"=a 	c #120028",
"-a 	c #4F02B5",
";a 	c #5C02D0",
">a 	c #5102B8",
",a 	c #4C02AB",
"'a 	c #4D02AA",
")a 	c #5001A3",
"!a 	c #30009F",
"~a 	c #3B02A0",
"{a 	c #AA24A9",
"]a 	c #EA3E9B",
"^a 	c #F03F9C",
"/a 	c #FF4AB2",
"(a 	c #FF4DB8",
"_a 	c #BA357F",
":a 	c #581839",
"<a 	c #2B0B1B",
"[a 	c #6E6B66",
"}a 	c #FFE5D4",
"|a 	c #FEE2D3",
"1a 	c #FFDFD0",
"2a 	c #FFF9EA",
"3a 	c #D4E5CF",
"4a 	c #2B1B1B",
"5a 	c #DC337E",
"6a 	c #DE4285",
"7a 	c #66584C",
"8a 	c #FFD0C1",
"9a 	c #FFCABD",
"0a 	c #E1AEA2",
"aa 	c #030301",
"ba 	c #17040C",
"ca 	c #FA4F9C",
"da 	c #FC4D8E",
"ea 	c #F34A8D",
"fa 	c #5E097D",
"ga 	c #2F0077",
"ha 	c #981F83",
"ia 	c #FF5190",
"ja 	c #F44691",
"ka 	c #F24493",
"la 	c #881A8B",
"ma 	c #380082",
"na 	c #5B0288",
"oa 	c #5202A4",
"pa 	c #3800A4",
"qa 	c #650BAA",
"ra 	c #DF33B2",
"sa 	c #520CA5",
"ta 	c #8A00FB",
"ua 	c #64018A",
"va 	c #090116",
"wa 	c #3C028A",
"xa 	c #5E02D7",
"ya 	c #5702C9",
"za 	c #5502C2",
"Aa 	c #6002D8",
"Ba 	c #4F02B3",
"Ca 	c #270159",
"Da 	c #1F0146",
"Ea 	c #400291",
"Fa 	c #5502C1",
"Ga 	c #5702C5",
"Ha 	c #4D02A9",
"Ia 	c #5202A5",
"Ja 	c #5502A4",
"Ka 	c #3E00A1",
"La 	c #7E17A5",
"Ma 	c #EF3BB0",
"Na 	c #FF45B0",
"Oa 	c #F23CAD",
"Pa 	c #E838AB",
"Qa 	c #EC39A9",
"Ra 	c #EE3E9F",
"Sa 	c #EA3D97",
"Ta 	c #F1429E",
"Ua 	c #C73C8B",
"Va 	c #832658",
"Wa 	c #250B17",
"Xa 	c #3C332F",
"Ya 	c #FFFAE8",
"Za 	c #FFE2D1",
"`a 	c #68866E",
" b 	c #530427",
".b 	c #FF4FA4",
"+b 	c #F2488C",
"@b 	c #BB356D",
"#b 	c #9C776D",
"$b 	c #FFCFC1",
"%b 	c #FFB6AA",
"&b 	c #FFD4C6",
"*b 	c #514039",
"=b 	c #AE366B",
"-b 	c #FF5490",
";b 	c #B12D85",
">b 	c #420079",
",b 	c #731380",
"'b 	c #FC4D90",
")b 	c #F84A8F",
"!b 	c #F54891",
"~b 	c #E84290",
"{b 	c #CC358E",
"]b 	c #F04593",
"^b 	c #E13E94",
"/b 	c #4C0384",
"(b 	c #4A0086",
"_b 	c #5B0388",
":b 	c #4600A6",
"<b 	c #4703A7",
"[b 	c #AB21B0",
"}b 	c #4D0C9E",
"|b 	c #8601EF",
"1b 	c #8503BF",
"2b 	c #240053",
"3b 	c #5502C7",
"4b 	c #5902D0",
"5b 	c #4A02AA",
"6b 	c #5102BC",
"7b 	c #5C02D2",
"8b 	c #5502C4",
"9b 	c #430297",
"0b 	c #28015A",
"ab 	c #0B001A",
"bb 	c #07000F",
"cb 	c #2B0161",
"db 	c #46019F",
"eb 	c #5B02CC",
"fb 	c #5502BE",
"gb 	c #4D02AC",
"hb 	c #4C00A2",
"ib 	c #4A059F",
"jb 	c #B929AA",
"kb 	c #FF45B1",
"lb 	c #F93FAE",
"mb 	c #E937AB",
"nb 	c #EB39AA",
"ob 	c #ED3F9B",
"pb 	c #EA3E96",
"qb 	c #F1419B",
"rb 	c #FF4AAB",
"sb 	c #FF4FB7",
"tb 	c #EF47A2",
"ub 	c #9D2E69",
"vb 	c #42122A",
"wb 	c #120B09",
"xb 	c #E2DAD1",
"yb 	c #FFFEF1",
"zb 	c #FEDFCE",
"Ab 	c #FEE4D5",
"Bb 	c #FFF1E0",
"Cb 	c #FCFEED",
"Db 	c #30312A",
"Eb 	c #9E1756",
"Fb 	c #FF55A4",
"Gb 	c #94295A",
"Hb 	c #BD9488",
"Ib 	c #FFC9BC",
"Jb 	c #FBAB9F",
"Kb 	c #FFD2C4",
"Lb 	c #B68B83",
"Mb 	c #4D132E",
"Nb 	c #F7478E",
"Ob 	c #F74B8E",
"Pb 	c #FE508F",
"Qb 	c #700F7E",
"Rb 	c #440079",
"Sb 	c #4C007A",
"Tb 	c #5D087D",
"Ub 	c #FD4B90",
"Vb 	c #EC448F",
"Wb 	c #EB428F",
"Xb 	c #FF4E93",
"Yb 	c #C5348D",
"Zb 	c #680883",
"`b 	c #EF4593",
" c 	c #FB4894",
".c 	c #FF5197",
"+c 	c #99208D",
"@c 	c #370082",
"#c 	c #580287",
"$c 	c #4D01A7",
"%c 	c #4A00A8",
"&c 	c #690BAD",
"*c 	c #46059C",
"=c 	c #7903E1",
"-c 	c #9806E8",
";c 	c #07000E",
">c 	c #100128",
",c 	c #4402A1",
"'c 	c #5E02DB",
")c 	c #4F02B8",
"!c 	c #4902AC",
"~c 	c #5002BB",
"{c 	c #5802CC",
"]c 	c #5A02D0",
"^c 	c #420196",
"/c 	c #090013",
"(c 	c #150130",
"_c 	c #330173",
":c 	c #4E02B1",
"<c 	c #5602C0",
"[c 	c #5102B5",
"}c 	c #4C02A7",
"|c 	c #37009E",
"1c 	c #2E009D",
"2c 	c #8D1BA5",
"3c 	c #F83FAF",
"4c 	c #FF45AF",
"5c 	c #F23CAC",
"6c 	c #EA39A8",
"7c 	c #EB3F94",
"8c 	c #FF47A5",
"9c 	c #FF4FB1",
"0c 	c #FF4AA8",
"ac 	c #B63677",
"bc 	c #5C1B3A",
"cc 	c #1A0711",
"dc 	c #908983",
"ec 	c #AAC5AE",
"fc 	c #23080F",
"gc 	c #F23E8C",
"hc 	c #6C1A42",
"ic 	c #0C1208",
"jc 	c #DAB3A5",
"kc 	c #FFC2B5",
"lc 	c #F8ABA0",
"mc 	c #FFBDB0",
"nc 	c #F9BEB1",
"oc 	c #1E1D17",
"pc 	c #D94284",
"qc 	c #FF5290",
"rc 	c #D53D8A",
"sc 	c #54007B",
"tc 	c #52007C",
"uc 	c #4D007C",
"vc 	c #D0378B",
"wc 	c #FF4F91",
"xc 	c #A42789",
"yc 	c #42007F",
"zc 	c #E43C91",
"Ac 	c #FF5597",
"Bc 	c #EF4595",
"Cc 	c #510584",
"Dc 	c #450084",
"Ec 	c #560389",
"Fc 	c #5002A9",
"Gc 	c #4800AB",
"Hc 	c #41019F",
"Ic 	c #6603C9",
"Jc 	c #A606F9",
"Kc 	c #220133",
"Lc 	c #320175",
"Mc 	c #5C02D8",
"Nc 	c #5402C7",
"Oc 	c #4A02AB",
"Pc 	c #4A02AD",
"Qc 	c #4B02AF",
"Rc 	c #5002B9",
"Sc 	c #5802CA",
"Tc 	c #5C02D4",
"Uc 	c #5202BB",
"Vc 	c #3A0285",
"Wc 	c #15002E",
"Xc 	c #4A02A3",
"Yc 	c #5A03C6",
"Zc 	c #5C03CC",
"`c 	c #5802C2",
" d 	c #4E02A6",
".d 	c #4F02A3",
"+d 	c #5602A3",
"@d 	c #4A01A0",
"#d 	c #26009C",
"$d 	c #590A9F",
"%d 	c #D131AA",
"&d 	c #FE41AC",
"*d 	c #E939A8",
"=d 	c #EC3BA6",
"-d 	c #F5459C",
";d 	c #FF4DAC",
">d 	c #E94395",
",d 	c #822756",
"'d 	c #241E1B",
")d 	c #EFEAE1",
"!d 	c #FFF9EB",
"~d 	c #FFE1D0",
"{d 	c #FFE1D2",
"]d 	c #FFE5D5",
"^d 	c #FFE8D9",
"/d 	c #647763",
"(d 	c #4F0024",
"_d 	c #F1478B",
":d 	c #450A27",
"<d 	c #2F2C21",
"[d 	c #F8C4B6",
"}d 	c #FFBDB1",
"|d 	c #F9ADA1",
"1d 	c #FEB0A4",
"2d 	c #FFD7C8",
"3d 	c #81635A",
"4d 	c #832751",
"5d 	c #FF528F",
"6d 	c #8F1E82",
"7d 	c #3B0079",
"8d 	c #5D037C",
"9d 	c #59027C",
"0d 	c #41007A",
"ad 	c #AC2B86",
"bd 	c #FF5292",
"cd 	c #F14591",
"dd 	c #7E1A85",
"ed 	c #25007B",
"fd 	c #CA3890",
"gd 	c #FF629D",
"hd 	c #9F238C",
"id 	c #350082",
"jd 	c #590287",
"kd 	c #540397",
"ld 	c #4D02AD",
"md 	c #4401A4",
"nd 	c #5202B4",
"od 	c #AC05FE",
"pd 	c #420361",
"qd 	c #1E0046",
"rd 	c #5401C5",
"sd 	c #5C02D5",
"td 	c #4A02B0",
"ud 	c #4A02AE",
"vd 	c #4B02B0",
"wd 	c #4C02B1",
"xd 	c #5202BF",
"yd 	c #5B02D0",
"zd 	c #5A02CD",
"Ad 	c #4902A7",
"Bd 	c #250154",
"Cd 	c #0B0014",
"Dd 	c #050024",
"Ed 	c #2E016A",
"Fd 	c #48029E",
"Gd 	c #5402B9",
"Hd 	c #5B03C6",
"Id 	c #5901C5",
"Jd 	c #5501BF",
"Kd 	c #5902C0",
"Ld 	c #5A02BA",
"Md 	c #5602AE",
"Nd 	c #4D019F",
"Od 	c #5B06A2",
"Pd 	c #3E009E",
"Qd 	c #32009B",
"Rd 	c #6E12A0",
"Sd 	c #DA33A9",
"Td 	c #EC3BA7",
"Ud 	c #ED4192",
"Vd 	c #F54597",
"Wd 	c #FF55B8",
"Xd 	c #BC3778",
"Yd 	c #190710",
"Zd 	c #89827B",
"`d 	c #FFE3D0",
" e 	c #FFE4D3",
".e 	c #FFE7D6",
"+e 	c #FFFBEC",
"@e 	c #FFFFF6",
"#e 	c #FAFFF5",
"$e 	c #1E2D1E",
"%e 	c #AB1F5D",
"&e 	c #FC4993",
"*e 	c #250012",
"=e 	c #4F4237",
"-e 	c #FFCABC",
";e 	c #FFB8AB",
">e 	c #F9B0A4",
",e 	c #FAB0A4",
"'e 	c #FFCFC0",
")e 	c #D2A197",
"!e 	c #230713",
"~e 	c #FD4B97",
"{e 	c #FE4F8E",
"]e 	c #E9458C",
"^e 	c #54067B",
"/e 	c #4B007A",
"(e 	c #5E037C",
"_e 	c #5C037D",
":e 	c #3D0079",
"<e 	c #901F84",
"[e 	c #FF4F92",
"}e 	c #EE438F",
"|e 	c #FB4891",
"1e 	c #FB4892",
"2e 	c #640A82",
"3e 	c #2B007D",
"4e 	c #A8288C",
"5e 	c #BA3190",
"6e 	c #490183",
"7e 	c #4D0185",
"8e 	c #5A0387",
"9e 	c #4F02AD",
"0e 	c #4802A8",
"ae 	c #4702A9",
"be 	c #A105FF",
"ce 	c #5C038E",
"de 	c #110028",
"ee 	c #4801A8",
"fe 	c #5E02DE",
"ge 	c #4D02B6",
"he 	c #4C02B2",
"ie 	c #4D02B4",
"je 	c #5602C7",
"ke 	c #5E02D4",
"le 	c #4500BB",
"me 	c #630F8D",
"ne 	c #6F1C48",
"oe 	c #130503",
"pe 	c #070021",
"qe 	c #210052",
"re 	c #390373",
"se 	c #46058A",
"te 	c #380083",
"ue 	c #390094",
"ve 	c #4F00B7",
"we 	c #5C01C2",
"xe 	c #5B02BD",
"ye 	c #5702B5",
"ze 	c #5E06AA",
"Ae 	c #6B0BA1",
"Be 	c #6F0FA1",
"Ce 	c #3F039C",
"De 	c #8719A1",
"Ee 	c #FF41AC",
"Fe 	c #F13CAA",
"Ge 	c #EC3BA8",
"He 	c #F54696",
"Ie 	c #FF57BB",
"Je 	c #682044",
"Ke 	c #100B09",
"Le 	c #E3DFD8",
"Me 	c #FFEDDE",
"Ne 	c #FFF4E4",
"Oe 	c #FFF8E7",
"Pe 	c #FFFBE9",
"Qe 	c #FFFFEF",
"Re 	c #FFFFF3",
"Se 	c #FFFFF1",
"Te 	c #FFFCE9",
"Ue 	c #FFF0E0",
"Ve 	c #F0E7D8",
"We 	c #DBD5CC",
"Xe 	c #C8C5BF",
"Ye 	c #B3B3AB",
"Ze 	c #9FA294",
"`e 	c #8A887B",
" f 	c #717164",
".f 	c #68705F",
"+f 	c #4B5B4A",
"@f 	c #ED4491",
"#f 	c #FC4D97",
"$f 	c #E8458A",
"%f 	c #0D0004",
"&f 	c #6C5C4E",
"*f 	c #FFD0C2",
"=f 	c #FDB2A6",
"-f 	c #FEB6AA",
";f 	c #F0ABA0",
">f 	c #ECAC9F",
",f 	c #FFD3C4",
"'f 	c #3E2D27",
")f 	c #B3386F",
"!f 	c #A42784",
"~f 	c #3C0077",
"{f 	c #5B017C",
"]f 	c #5A037C",
"^f 	c #43007B",
"/f 	c #700D81",
"(f 	c #FF4D92",
"_f 	c #FF5294",
":f 	c #FF5C97",
"<f 	c #D03B8E",
"[f 	c #43007E",
"}f 	c #530182",
"|f 	c #5B0483",
"1f 	c #450081",
"2f 	c #4C0084",
"3f 	c #5D0387",
"4f 	c #4E02AD",
"5f 	c #4002A3",
"6f 	c #8C04F4",
"7f 	c #7D04BA",
"8f 	c #020005",
"9f 	c #3A0188",
"0f 	c #5E02DF",
"af 	c #5102BF",
"bf 	c #4C02B3",
"cf 	c #4E02B2",
"df 	c #4300BC",
"ef 	c #5605CE",
"ff 	c #F135DE",
"gf 	c #F13DC7",
"hf 	c #9A2487",
"if 	c #5F1649",
"jf 	c #1E0912",
"kf 	c #080500",
"lf 	c #2D0D1B",
"mf 	c #290C1F",
"nf 	c #13022E",
"of 	c #280156",
"pf 	c #410187",
"qf 	c #4F01A1",
"rf 	c #5100AF",
"sf 	c #5300BA",
"tf 	c #6A08B6",
"uf 	c #7D11AD",
"vf 	c #C82DAD",
"wf 	c #FF40B3",
"xf 	c #EE3AAA",
"yf 	c #EA39A4",
"zf 	c #EA3AA5",
"Af 	c #EC3BA5",
"Bf 	c #F04393",
"Cf 	c #FF50AE",
"Df 	c #4D4540",
"Ef 	c #E3E2E3",
"Ff 	c #FAF6F0",
"Gf 	c #F2EEDF",
"Hf 	c #EAE7D7",
"If 	c #E5DDCD",
"Jf 	c #D9C8BB",
"Kf 	c #C4B9AB",
"Lf 	c #B2B0A2",
"Mf 	c #9D9D94",
"Nf 	c #918E89",
"Of 	c #7D7C77",
"Pf 	c #6A6762",
"Qf 	c #4B4D43",
"Rf 	c #34382E",
"Sf 	c #21271E",
"Tf 	c #10180F",
"Uf 	c #000B02",
"Vf 	c #2D0014",
"Wf 	c #631B3A",
"Xf 	c #D13F81",
"Yf 	c #090000",
"Zf 	c #8A7A6A",
"`f 	c #FFD1C4",
" g 	c #FCB0A4",
".g 	c #FFB9AB",
"+g 	c #EFAEA2",
"@g 	c #D3978C",
"#g 	c #FFDCCD",
"$g 	c #8F726A",
"%g 	c #581833",
"&g 	c #EC468B",
"*g 	c #FA4D8E",
"=g 	c #630B7C",
"-g 	c #430079",
";g 	c #59037C",
">g 	c #5B037D",
",g 	c #4C007C",
"'g 	c #55037D",
")g 	c #E44590",
"!g 	c #E64690",
"~g 	c #AF318B",
"{g 	c #6F1284",
"]g 	c #47007F",
"^g 	c #5C0383",
"/g 	c #4F0082",
"(g 	c #520084",
"_g 	c #5B0386",
":g 	c #3C02A0",
"<g 	c #7804DC",
"[g 	c #9D05DE",
"}g 	c #12011D",
"|g 	c #040304",
"1g 	c #2C0168",
"2g 	c #5C02D9",
"3g 	c #5602C8",
"4g 	c #4C02B0",
"5g 	c #4F02AE",
"6g 	c #2800A9",
"7g 	c #7611B7",
"8g 	c #FF40D7",
"9g 	c #FF3EDF",
"0g 	c #FF3BDB",
"ag 	c #E134C2",
"bg 	c #B02791",
"cg 	c #681958",
"dg 	c #2C0B23",
"eg 	c #3C0F30",
"fg 	c #6D1A4E",
"gg 	c #761F50",
"hg 	c #3A0E39",
"ig 	c #00000B",
"jg 	c #080013",
"kg 	c #1E0237",
"lg 	c #2F016D",
"mg 	c #14007E",
"ng 	c #22009A",
"og 	c #C42CB9",
"pg 	c #FF4AC8",
"qg 	c #FF43C8",
"rg 	c #FF42C2",
"sg 	c #FE3FB6",
"tg 	c #F43CA9",
"ug 	c #ED3BA2",
"vg 	c #FF4FAA",
"wg 	c #992C5E",
"xg 	c #181514",
"yg 	c #3A3633",
"zg 	c #2E2B28",
"Ag 	c #221F1D",
"Bg 	c #161211",
"Cg 	c #0A0000",
"Dg 	c #190007",
"Eg 	c #2B0214",
"Fg 	c #400A21",
"Gg 	c #56112E",
"Hg 	c #741D42",
"Ig 	c #932959",
"Jg 	c #B4346F",
"Kg 	c #E74790",
"Lg 	c #FE52A7",
"Mg 	c #260917",
"Ng 	c #7F284F",
"Og 	c #B33471",
"Pg 	c #B19788",
"Qg 	c #FBB0A4",
"Rg 	c #F8B1A6",
"Sg 	c #D5948B",
"Tg 	c #FFCCBF",
"Ug 	c #E2B0A3",
"Vg 	c #080703",
"Wg 	c #D84384",
"Xg 	c #EB438C",
"Yg 	c #FF5390",
"Zg 	c #BF3387",
"`g 	c #3B0078",
" h 	c #58027B",
".h 	c #5B037C",
"+h 	c #5A037D",
"@h 	c #5A027D",
"#h 	c #55027D",
"$h 	c #640B81",
"%h 	c #52047F",
"&h 	c #37007D",
"*h 	c #5E0382",
"=h 	c #590383",
"-h 	c #590384",
";h 	c #590386",
">h 	c #4D02AE",
",h 	c #4E02B0",
"'h 	c #3E02A2",
")h 	c #AB06FA",
"!h 	c #2B0243",
"~h 	c #452F41",
"{h 	c #624361",
"]h 	c #030205",
"^h 	c #1F0047",
"/h 	c #5802CE",
"(h 	c #5802D1",
"_h 	c #4902AD",
":h 	c #4B02B1",
"<h 	c #4F02B2",
"[h 	c #4500B0",
"}h 	c #2F00AD",
"|h 	c #C426B8",
"1h 	c #FF3BBE",
"2h 	c #EF32C2",
"3h 	c #FF37CE",
"4h 	c #FF3CDB",
"5h 	c #FF3CDF",
"6h 	c #F537CA",
"7h 	c #C32CA2",
"8h 	c #AE2899",
"9h 	c #AB2881",
"0h 	c #2F074E",
"ah 	c #190046",
"bh 	c #6B1E48",
"ch 	c #6F1F53",
"dh 	c #190531",
"eh 	c #2A0641",
"fh 	c #41112A",
"gh 	c #7C1E5C",
"hh 	c #B83091",
"ih 	c #F13EB3",
"jh 	c #FF44C2",
"kh 	c #FF46C4",
"lh 	c #FF44B9",
"mh 	c #EF3DA2",
"nh 	c #EB3D9D",
"oh 	c #EA3D9B",
"ph 	c #EB3F9C",
"qh 	c #BB3674",
"rh 	c #003C2A",
"sh 	c #69556E",
"th 	c #A21C5A",
"uh 	c #8F2857",
"vh 	c #160009",
"wh 	c #0F503E",
"xh 	c #AD6C9C",
"yh 	c #E5388B",
"zh 	c #EF4E97",
"Ah 	c #B23972",
"Bh 	c #150408",
"Ch 	c #CF4181",
"Dh 	c #96265B",
"Eh 	c #D3AB9D",
"Fh 	c #FBB1A5",
"Gh 	c #FDB6AA",
"Hh 	c #FFB7AB",
"Ih 	c #D69A8F",
"Jh 	c #F5B0A4",
"Kh 	c #FFD5C7",
"Lh 	c #4C3F39",
"Mh 	c #882953",
"Nh 	c #74137D",
"Oh 	c #3E0078",
"Ph 	c #5F037C",
"Qh 	c #5C037E",
"Rh 	c #5B037E",
"Sh 	c #47007C",
"Th 	c #4C007E",
"Uh 	c #570280",
"Vh 	c #5A0382",
"Wh 	c #4202A6",
"Xh 	c #5903C0",
"Yh 	c #A406FF",
"Zh 	c #350251",
"`h 	c #120B13",
" i 	c #7F677E",
".i 	c #FED2F6",
"+i 	c #724C68",
"@i 	c #180138",
"#i 	c #5302C6",
"$i 	c #5A02D8",
"%i 	c #5102B1",
"&i 	c #2D00AE",
"*i 	c #660CB3",
"=i 	c #FF39C1",
"-i 	c #F334BD",
";i 	c #E830B9",
">i 	c #EB32BA",
",i 	c #F034BE",
"'i 	c #FD37C8",
")i 	c #FF3AD2",
"!i 	c #FF3BD2",
"~i 	c #FD3DD3",
"{i 	c #541641",
"]i 	c #1E005E",
"^i 	c #220336",
"/i 	c #441133",
"(i 	c #FA43C9",
"_i 	c #DA3FB3",
":i 	c #902267",
"<i 	c #47113A",
"[i 	c #12050F",
"}i 	c #1D0714",
"|i 	c #5F1849",
"1i 	c #A02978",
"2i 	c #D03695",
"3i 	c #F542B5",
"4i 	c #FF48C0",
"5i 	c #FF47BB",
"6i 	c #F542A4",
"7i 	c #FF4BA1",
"8i 	c #DA418C",
"9i 	c #210913",
"0i 	c #088767",
"ai 	c #D994CB",
"bi 	c #FF46B3",
"ci 	c #CD4383",
"di 	c #0E0104",
"ei 	c #198D74",
"fi 	c #E68DC8",
"gi 	c #FF3691",
"hi 	c #FA4F97",
"ii 	c #F84992",
"ji 	c #EA4285",
"ki 	c #120407",
"li 	c #CF4282",
"mi 	c #6F163D",
"ni 	c #0D1008",
"oi 	c #F1BCAD",
"pi 	c #FAB4A8",
"qi 	c #FDB6A9",
"ri 	c #FFC4B6",
"si 	c #C19288",
"ti 	c #CC958A",
"ui 	c #AD877F",
"vi 	c #2B0A18",
"wi 	c #FC4D9A",
"xi 	c #FC4D8C",
"yi 	c #FF538F",
"zi 	c #FF5891",
"Ai 	c #B23085",
"Bi 	c #410078",
"Ci 	c #5A037E",
"Di 	c #5A037F",
"Ei 	c #5D037F",
"Fi 	c #5A0380",
"Gi 	c #590381",
"Hi 	c #590382",
"Ii 	c #4D02AF",
"Ji 	c #4602A8",
"Ki 	c #360252",
"Li 	c #614A63",
"Mi 	c #D5A9D5",
"Ni 	c #FFF3FF",
"Oi 	c #DCACD5",
"Pi 	c #0C011B",
"Qi 	c #4903A8",
"Ri 	c #5D02DD",
"Si 	c #4C02B4",
"Ti 	c #4D02B2",
"Ui 	c #4400B0",
"Vi 	c #2B00AD",
"Wi 	c #C527BC",
"Xi 	c #FF3BC1",
"Yi 	c #E831BD",
"Zi 	c #EC32BD",
"`i 	c #EC33BC",
" j 	c #EA33BA",
".j 	c #E932B8",
"+j 	c #E832B0",
"@j 	c #FF3CD8",
"#j 	c #D4349C",
"$j 	c #1E0441",
"%j 	c #2D017D",
"&j 	c #55154C",
"*j 	c #FF47E7",
"=j 	c #FF44D2",
"-j 	c #FF40CA",
";j 	c #EC3AB1",
">j 	c #B22F8C",
",j 	c #601B50",
"'j 	c #23091A",
")j 	c #711E50",
"!j 	c #AB2E7D",
"~j 	c #EA41A9",
"{j 	c #FF4BB9",
"]j 	c #FF46AD",
"^j 	c #F4429E",
"/j 	c #EB4095",
"(j 	c #EB4195",
"_j 	c #FD489D",
":j 	c #F6499F",
"<j 	c #45132A",
"[j 	c #18755F",
"}j 	c #DB6CAA",
"|j 	c #FF3E9D",
"1j 	c #7E274B",
"2j 	c #168A73",
"3j 	c #D47DB2",
"4j 	c #FF3081",
"5j 	c #EA498A",
"6j 	c #350E20",
"7j 	c #5A1835",
"8j 	c #F3488F",
"9j 	c #4A0B28",
"0j 	c #1E2619",
"aj 	c #FFCDBD",
"bj 	c #FFC4B7",
"cj 	c #FAB6AA",
"dj 	c #FFCEC0",
"ej 	c #AA847B",
"fj 	c #A17D74",
"gj 	c #F0C4B6",
"hj 	c #18130E",
"ij 	c #C03C78",
"jj 	c #EB448B",
"kj 	c #FF518E",
"lj 	c #BC3387",
"mj 	c #78157F",
"nj 	c #480079",
"oj 	c #55017B",
"pj 	c #5E047C",
"qj 	c #590380",
"rj 	c #580383",
"sj 	c #4D02B0",
"tj 	c #4D02B1",
"uj 	c #4702AB",
"vj 	c #4B02B9",
"wj 	c #8E04F8",
"xj 	c #36024F",
"yj 	c #372A3A",
"zj 	c #B28CB3",
"Aj 	c #FFD0FF",
"Bj 	c #FFCBF9",
"Cj 	c #684764",
"Dj 	c #07020D",
"Ej 	c #40038E",
"Fj 	c #5E02E1",
"Gj 	c #4D02B7",
"Hj 	c #4A02AF",
"Ij 	c #5002B2",
"Jj 	c #660DB4",
"Kj 	c #FC39C1",
"Lj 	c #F535BE",
"Mj 	c #EA31BD",
"Nj 	c #EC33BB",
"Oj 	c #EB34BA",
"Pj 	c #F235BC",
"Qj 	c #FF3ED6",
"Rj 	c #621A49",
"Sj 	c #180076",
"Tj 	c #2A025B",
"Uj 	c #902273",
"Vj 	c #FF44D9",
"Wj 	c #F438B0",
"Xj 	c #FE3DBB",
"Yj 	c #FF47D2",
"Zj 	c #FF48D6",
"`j 	c #360C26",
" k 	c #4E1741",
".k 	c #A12D80",
"+k 	c #471333",
"@k 	c #070206",
"#k 	c #14050D",
"$k 	c #55173C",
"%k 	c #9F2C71",
"&k 	c #DE3E99",
"*k 	c #FF49B3",
"=k 	c #FF4CB6",
"-k 	c #FF48AA",
";k 	c #F4449D",
">k 	c #FE489E",
",k 	c #EE479B",
"'k 	c #3A1025",
")k 	c #227060",
"!k 	c #EF6AAE",
"~k 	c #FF3F9B",
"{k 	c #15826A",
"]k 	c #D27EB4",
"^k 	c #FF3185",
"/k 	c #EC4A8C",
"(k 	c #3A1022",
"_k 	c #F2478E",
":k 	c #F84A92",
"<k 	c #FE4E9D",
"[k 	c #35041B",
"}k 	c #45483A",
"|k 	c #FFDACB",
"1k 	c #FFBEB1",
"2k 	c #FBB8AC",
"3k 	c #FCB8AB",
"4k 	c #BB8F84",
"5k 	c #9B766F",
"6k 	c #6E5750",
"7k 	c #722144",
"8k 	c #F0478B",
"9k 	c #FF548F",
"0k 	c #DA3F89",
"ak 	c #962481",
"bk 	c #5D097C",
"ck 	c #3E0077",
"dk 	c #55017A",
"ek 	c #59037F",
"fk 	c #51029D",
"gk 	c #50029F",
"hk 	c #4802AC",
"ik 	c #4A02B7",
"jk 	c #8504F0",
"kk 	c #35024D",
"lk 	c #1C121D",
"mk 	c #8E7393",
"nk 	c #F9C6F6",
"ok 	c #FFD2FF",
"pk 	c #FFADD6",
"qk 	c #FFC2EF",
"rk 	c #DDA5D2",
"sk 	c #0F090F",
"tk 	c #3D038C",
"uk 	c #5F02E3",
"vk 	c #4E02B9",
"wk 	c #4600B1",
"xk 	c #2E00AF",
"yk 	c #BC25BC",
"zk 	c #FF3CC2",
"Ak 	c #E932BD",
"Bk 	c #EC33BD",
"Ck 	c #E932B5",
"Dk 	c #FF3BD5",
"Ek 	c #CE329C",
"Fk 	c #13022A",
"Gk 	c #1E005C",
"Hk 	c #280929",
"Ik 	c #0B020A",
"Jk 	c #E239B7",
"Kk 	c #E435A5",
"Lk 	c #FD3CB5",
"Mk 	c #FC3DB7",
"Nk 	c #24081A",
"Ok 	c #822465",
"Pk 	c #FF51E4",
"Qk 	c #FF45BE",
"Rk 	c #E33AA0",
"Sk 	c #A93081",
"Tk 	c #3F122F",
"Uk 	c #14050E",
"Vk 	c #58193E",
"Wk 	c #A32D6F",
"Xk 	c #E3419B",
"Yk 	c #FF4CB2",
"Zk 	c #FF4DB1",
"`k 	c #FF4AA6",
" l 	c #F34396",
".l 	c #FF4AA2",
"+l 	c #D33E89",
"@l 	c #17060E",
"#l 	c #363636",
"$l 	c #2B7166",
"%l 	c #FF6AB4",
"&l 	c #FD3C90",
"*l 	c #30111D",
"=l 	c #11775E",
"-l 	c #CB7FB1",
";l 	c #FF3286",
">l 	c #B3286A",
",l 	c #2F3A2C",
"'l 	c #2E4E31",
")l 	c #801644",
"!l 	c #DF4282",
"~l 	c #E74487",
"{l 	c #EF4994",
"]l 	c #23000F",
"^l 	c #6E6658",
"/l 	c #FEBCAF",
"(l 	c #FBBBAF",
"_l 	c #FBBAAD",
":l 	c #DCA69B",
"<l 	c #9B726B",
"[l 	c #FAB9AD",
"}l 	c #C1A59A",
"|l 	c #1E0510",
"1l 	c #F04B95",
"2l 	c #FD4C95",
"3l 	c #F1488C",
"4l 	c #FF558F",
"5l 	c #E7478C",
"6l 	c #871F80",
"7l 	c #430077",
"8l 	c #3B0076",
"9l 	c #58017B",
"0l 	c #5D037B",
"al 	c #51029A",
"bl 	c #50029A",
"cl 	c #5702AF",
"dl 	c #5602B1",
"el 	c #5402AC",
"fl 	c #4802AB",
"gl 	c #4B02BA",
"hl 	c #8C05F6",
"il 	c #18101A",
"jl 	c #836786",
"kl 	c #E8BCE7",
"ll 	c #FFD8FF",
"ml 	c #FFBDE8",
"nl 	c #FBA8D2",
"ol 	c #FEADD8",
"pl 	c #FFD4FF",
"ql 	c #654A65",
"rl 	c #340179",
"sl 	c #5F02E1",
"tl 	c #5202C4",
"ul 	c #600AB4",
"vl 	c #FE38C1",
"wl 	c #F635BF",
"xl 	c #EA32BE",
"yl 	c #EB32B9",
"zl 	c #F335BD",
"Al 	c #FF3EDE",
"Bl 	c #54153C",
"Cl 	c #1D0625",
"Dl 	c #5A1549",
"El 	c #FF42D3",
"Fl 	c #F239B0",
"Gl 	c #FE3DBA",
"Hl 	c #EF3BB2",
"Il 	c #230819",
"Jl 	c #862467",
"Kl 	c #FF44C3",
"Ll 	c #F33CA7",
"Ml 	c #FF42B4",
"Nl 	c #FF4DCA",
"Ol 	c #671C4A",
"Pl 	c #180610",
"Ql 	c #59193A",
"Rl 	c #A32F6F",
"Sl 	c #E14093",
"Tl 	c #FF5BC9",
"Ul 	c #B63472",
"Vl 	c #31716C",
"Wl 	c #FF6AB7",
"Xl 	c #EF3583",
"Yl 	c #16090F",
"Zl 	c #0C775B",
"`l 	c #C183B1",
" m 	c #FF3186",
".m 	c #630A32",
"+m 	c #41584C",
"@m 	c #C7DDC6",
"#m 	c #34141A",
"$m 	c #EC3989",
"%m 	c #FB4B93",
"&m 	c #D13E7B",
"*m 	c #E64487",
"=m 	c #E14189",
"-m 	c #100005",
";m 	c #8E7C6D",
">m 	c #FCBCB0",
",m 	c #FBBCB0",
"'m 	c #FBBCAF",
")m 	c #EAB6A9",
"!m 	c #8C6961",
"~m 	c #E7B4A8",
"{m 	c #FFDACC",
"]m 	c #FDD6C8",
"^m 	c #2C2A24",
"/m 	c #F84A8D",
"(m 	c #FF568F",
"_m 	c #C03687",
":m 	c #500779",
"<m 	c #370075",
"[m 	c #500079",
"}m 	c #5F037B",
"|m 	c #5E037B",
"1m 	c #5B037B",
"2m 	c #520397",
"3m 	c #5E02B7",
"4m 	c #5E02BA",
"5m 	c #5B02B6",
"6m 	c #5502AF",
"7m 	c #5A02BC",
"8m 	c #5C02C4",
"9m 	c #4D02A4",
"0m 	c #4302A9",
"am 	c #9905F1",
"bm 	c #2C0141",
"cm 	c #241721",
"dm 	c #7F6581",
"em 	c #DBB1DA",
"fm 	c #FFDAFF",
"gm 	c #FFC6EF",
"hm 	c #FCABD5",
"im 	c #FAABD6",
"jm 	c #FBABD5",
"km 	c #FFC9F8",
"lm 	c #DEA9D8",
"mm 	c #0C050C",
"nm 	c #2A0263",
"om 	c #5901D7",
"pm 	c #5802D0",
"qm 	c #4B02AE",
"rm 	c #4300B1",
"sm 	c #3200AF",
"tm 	c #CE29BD",
"um 	c #FF3AC2",
"vm 	c #E831BE",
"wm 	c #EB33BA",
"xm 	c #E933B6",
"ym 	c #FF3DD8",
"zm 	c #B12995",
"Am 	c #BF2F99",
"Bm 	c #FF41CC",
"Cm 	c #E439AD",
"Dm 	c #230818",
"Em 	c #972875",
"Fm 	c #EA3AA3",
"Gm 	c #EA3BA3",
"Hm 	c #EA3A9D",
"Im 	c #FC42B0",
"Jm 	c #FF49BE",
"Km 	c #56183F",
"Lm 	c #58193B",
"Mm 	c #C83D89",
"Nm 	c #76224B",
"Om 	c #34706D",
"Pm 	c #FF6ABA",
"Qm 	c #E13278",
"Rm 	c #060304",
"Sm 	c #046D4F",
"Tm 	c #B387B1",
"Um 	c #FF3288",
"Vm 	c #F84A93",
"Wm 	c #F74D9B",
"Xm 	c #2C000F",
"Ym 	c #4A564C",
"Zm 	c #525A4A",
"`m 	c #8E1047",
" n 	c #F2488D",
".n 	c #CB3C76",
"+n 	c #E94488",
"@n 	c #D2387B",
"#n 	c #AB9082",
"$n 	c #FCBEB1",
"%n 	c #FCC0B2",
"&n 	c #FFC6B8",
"*n 	c #EDC1B5",
"=n 	c #836760",
"-n 	c #D9B2A6",
";n 	c #FFD1C3",
">n 	c #927D74",
",n 	c #531733",
"'n 	c #F6488D",
")n 	c #EA448B",
"!n 	c #F94C8D",
"~n 	c #992682",
"{n 	c #340075",
"]n 	c #440077",
"^n 	c #5E027A",
"/n 	c #5E037A",
"(n 	c #5B037A",
"_n 	c #530391",
":n 	c #520391",
"<n 	c #5903A3",
"[n 	c #5E03B1",
"}n 	c #6202B7",
"|n 	c #5802A6",
"1n 	c #450186",
"2n 	c #2B0155",
"3n 	c #190132",
"4n 	c #0F0020",
"5n 	c #0E001C",
"6n 	c #190134",
"7n 	c #34016F",
"8n 	c #5802BB",
"9n 	c #5B02C3",
"0n 	c #4C02A6",
"an 	c #4D02B3",
"bn 	c #3D02A6",
"cn 	c #6703D4",
"dn 	c #8E04D5",
"en 	c #1E161A",
"fn 	c #A58AA7",
"gn 	c #F5CAF1",
"hn 	c #FFDBFF",
"in 	c #FFCBF3",
"jn 	c #FFB2D9",
"kn 	c #FAADD5",
"ln 	c #FBAED9",
"mn 	c #FAADD8",
"nn 	c #FEB1DC",
"on 	c #FFCFFF",
"pn 	c #674863",
"qn 	c #030400",
"rn 	c #1D052D",
"sn 	c #3D00A4",
"tn 	c #5A02D7",
"un 	c #4F02B1",
"vn 	c #2900AF",
"wn 	c #7912B6",
"xn 	c #F034BF",
"yn 	c #F938C6",
"zn 	c #FE3CD6",
"An 	c #390D31",
"Bn 	c #3F0F33",
"Cn 	c #FF40CC",
"Dn 	c #FF42CD",
"En 	c #D235A2",
"Fn 	c #200816",
"Gn 	c #AA2C82",
"Hn 	c #FF43C2",
"In 	c #EB3AA4",
"Jn 	c #E93A9C",
"Kn 	c #FF46B4",
"Ln 	c #FF4BC1",
"Mn 	c #3F122E",
"Nn 	c #000300",
"On 	c #36706D",
"Pn 	c #FF6BBF",
"Qn 	c #BB2864",
"Rn 	c #005A3E",
"Sn 	c #9F8EAF",
"Tn 	c #FF388D",
"Un 	c #EC488B",
"Vn 	c #D23F80",
"Wn 	c #66695E",
"Xn 	c #A9C0A6",
"Yn 	c #530C29",
"Zn 	c #FB4297",
"`n 	c #F64C90",
" o 	c #C63B73",
".o 	c #E84488",
"+o 	c #BC316B",
"@o 	c #BDA192",
"#o 	c #FFDECE",
"$o 	c #FCC1B4",
"%o 	c #FCC0B3",
"&o 	c #FFC5B8",
"*o 	c #F0CBBD",
"=o 	c #7E655E",
"-o 	c #CDADA1",
";o 	c #FFD6C7",
">o 	c #FFDFCF",
",o 	c #DDC2B5",
"'o 	c #090705",
")o 	c #CE3F7E",
"!o 	c #E84185",
"~o 	c #FB4E8D",
"{o 	c #8A1E7F",
"]o 	c #2F0075",
"^o 	c #510079",
"/o 	c #61037B",
"(o 	c #5C037A",
"_o 	c #54038E",
":o 	c #540390",
"<o 	c #5B039E",
"[o 	c #6203AD",
"}o 	c #6203B0",
"|o 	c #5A03A6",
"1o 	c #480286",
"2o 	c #2E0155",
"3o 	c #130124",
"4o 	c #010002",
"5o 	c #170130",
"6o 	c #4C02A4",
"7o 	c #5F02CE",
"8o 	c #3D02A4",
"9o 	c #7A04EF",
"0o 	c #6C03B2",
"ao 	c #44313C",
"bo 	c #FFE4FF",
"co 	c #FFD8FC",
"do 	c #FEB1D8",
"eo 	c #FCAED5",
"fo 	c #FBB0D9",
"go 	c #FBB1DB",
"ho 	c #FBB0DB",
"io 	c #FBAAD5",
"jo 	c #FFC9F9",
"ko 	c #D6A2CF",
"lo 	c #090509",
"mo 	c #330A16",
"no 	c #1F0719",
"oo 	c #2F0096",
"po 	c #5B01DB",
"qo 	c #4301B0",
"ro 	c #3300AF",
"so 	c #D72CBE",
"to 	c #EB33BC",
"uo 	c #EC33B8",
"vo 	c #FF3FDF",
"wo 	c #97237F",
"xo 	c #BA2D94",
"yo 	c #FF49E5",
"zo 	c #C03196",
"Ao 	c #1B0613",
"Bo 	c #BB2F8D",
"Co 	c #FF42C0",
"Do 	c #EA3B9A",
"Eo 	c #DA3EA0",
"Fo 	c #0F0409",
"Go 	c #3A716F",
"Ho 	c #FF6EC2",
"Io 	c #921D4F",
"Jo 	c #00422A",
"Ko 	c #869AAD",
"Lo 	c #FF3F93",
"Mo 	c #A02C5E",
"No 	c #7B7A71",
"Oo 	c #F9FFF0",
"Po 	c #594948",
"Qo 	c #C31A68",
"Ro 	c #FF529D",
"So 	c #F0468E",
"To 	c #BD386F",
"Uo 	c #E84587",
"Vo 	c #942658",
"Wo 	c #040C04",
"Xo 	c #CEB8A7",
"Yo 	c #FCC4B6",
"Zo 	c #FCC2B5",
"`o 	c #FFC8BA",
" p 	c #F6D1C3",
".p 	c #7A635C",
"+p 	c #C1A79C",
"@p 	c #FFDDCC",
"#p 	c #FFCBBE",
"$p 	c #5F504A",
"%p 	c #FA4E90",
"&p 	c #FF528E",
"*p 	c #861C80",
"=p 	c #2D0075",
"-p 	c #570179",
";p 	c #60037A",
">p 	c #55038C",
",p 	c #53038B",
"'p 	c #5B039B",
")p 	c #6504AF",
"!p 	c #5D03A4",
"~p 	c #430278",
"{p 	c #280149",
"]p 	c #11001F",
"^p 	c #06000D",
"/p 	c #47019A",
"(p 	c #5F02D3",
"_p 	c #4602AE",
":p 	c #8A05F9",
"<p 	c #46027D",
"[p 	c #33242E",
"}p 	c #F6BFE8",
"|p 	c #FFC1E8",
"1p 	c #FCB0D7",
"2p 	c #FBB2DB",
"3p 	c #FAAFD9",
"4p 	c #FFB4DE",
"5p 	c #FFD5FF",
"6p 	c #634861",
"7p 	c #323833",
"8p 	c #3C1C3C",
"9p 	c #881765",
"0p 	c #380B2C",
"ap 	c #5901DD",
"bp 	c #5F07B1",
"cp 	c #6C0FB5",
"dp 	c #FF38C2",
"ep 	c #F335C0",
"fp 	c #E832B7",
"gp 	c #FC38C9",
"hp 	c #F138C6",
"ip 	c #1E071B",
"jp 	c #571342",
"kp 	c #FF49E8",
"lp 	c #AD2C8C",
"mp 	c #17040F",
"np 	c #D9369F",
"op 	c #FF3FBA",
"pp 	c #E93AA6",
"qp 	c #F13EA0",
"rp 	c #FF4CC0",
"sp 	c #83255C",
"tp 	c #3C7472",
"up 	c #FF6CC0",
"vp 	c #74143E",
"wp 	c #00301E",
"xp 	c #68A6AB",
"yp 	c #FF4A9A",
"zp 	c #F13F86",
"Ap 	c #671D40",
"Bp 	c #8C8880",
"Cp 	c #ABBAA4",
"Dp 	c #9B1B50",
"Ep 	c #FF459A",
"Fp 	c #DA417F",
"Gp 	c #D43E7B",
"Hp 	c #A73162",
"Ip 	c #E84487",
"Jp 	c #63163B",
"Kp 	c #10180E",
"Lp 	c #DDC6B7",
"Mp 	c #FCC3B5",
"Np 	c #FCC6B8",
"Op 	c #FCC4B7",
"Pp 	c #FDD6C7",
"Qp 	c #8B6E66",
"Rp 	c #BFAA9E",
"Sp 	c #FFEADA",
"Tp 	c #FFC8B9",
"Up 	c #FFF3E3",
"Vp 	c #AEA197",
"Wp 	c #D1437C",
"Xp 	c #FF62A8",
"Yp 	c #861B7C",
"Zp 	c #300074",
"`p 	c #580279",
" q 	c #530389",
".q 	c #590393",
"+q 	c #6604AD",
"@q 	c #5F04A4",
"#q 	c #3C0268",
"$q 	c #150026",
"%q 	c #4A02A4",
"&q 	c #5E02D3",
"*q 	c #4A02A9",
"=q 	c #4C02AE",
"-q 	c #4601AD",
";q 	c #5202BC",
">q 	c #8E05F4",
",q 	c #230142",
"'q 	c #3A2735",
")q 	c #FBC1EA",
"!q 	c #FFC2E8",
"~q 	c #FCB1D8",
"{q 	c #FBB1DC",
"]q 	c #FBAAD4",
"^q 	c #FFCCFA",
"/q 	c #D8AAD5",
"(q 	c #0C060B",
"_q 	c #777877",
":q 	c #536256",
"<q 	c #6F3168",
"[q 	c #911C65",
"}q 	c #1B051B",
"|q 	c #3900A9",
"1q 	c #5C03D1",
"2q 	c #690CB1",
"3q 	c #3700B1",
"4q 	c #C024BC",
"5q 	c #E932BE",
"6q 	c #EB33BB",
"7q 	c #ED33B8",
"8q 	c #851E6E",
"9q 	c #EB3EC4",
"0q 	c #A82D8E",
"aq 	c #0F0208",
"bq 	c #F43EBC",
"cq 	c #FF44C9",
"dq 	c #E838A1",
"eq 	c #EB3B9D",
"fq 	c #BA3484",
"gq 	c #3F7A78",
"hq 	c #FF68B7",
"iq 	c #570829",
"jq 	c #002815",
"kq 	c #4CB3A8",
"lq 	c #FE53A0",
"mq 	c #F63883",
"nq 	c #FD4B96",
"oq 	c #300B1C",
"pq 	c #9B958D",
"qq 	c #FFF0E1",
"rq 	c #ECFCDB",
"sq 	c #8C495D",
"tq 	c #F22D86",
"uq 	c #C43A73",
"vq 	c #38051E",
"wq 	c #21281D",
"xq 	c #EAD5C6",
"yq 	c #FFDACA",
"zq 	c #FCC8BA",
"Aq 	c #FDC9BB",
"Bq 	c #C9A297",
"Cq 	c #9E857C",
"Dq 	c #CFAEA2",
"Eq 	c #EEBFB1",
"Fq 	c #F5E1D1",
"Gq 	c #251C1A",
"Hq 	c #5C2030",
"Iq 	c #B12C98",
"Jq 	c #3B007A",
"Kq 	c #540178",
"Lq 	c #5A037A",
"Mq 	c #560388",
"Nq 	c #540388",
"Oq 	c #60039E",
"Pq 	c #6904AE",
"Qq 	c #48037A",
"Rq 	c #160125",
"Sq 	c #0A0117",
"Tq 	c #5902CC",
"Uq 	c #4E02B4",
"Vq 	c #4101A7",
"Wq 	c #6303D4",
"Xq 	c #8605E8",
"Yq 	c #090010",
"Zq 	c #54394C",
"`q 	c #FFC9F3",
" r 	c #FFBCE2",
".r 	c #FBB2DA",
"+r 	c #FEB2DC",
"@r 	c #FFD6FF",
"#r 	c #6D526B",
"$r 	c #676667",
"%r 	c #767776",
"&r 	c #677169",
"*r 	c #402F3E",
"=r 	c #050014",
"-r 	c #4500BE",
";r 	c #6408CE",
">r 	c #7E12B1",
",r 	c #CD28BE",
"'r 	c #FA36C1",
")r 	c #EA32BF",
"!r 	c #FF3BD1",
"~r 	c #E535BC",
"{r 	c #0E030B",
"]r 	c #AF2B8B",
"^r 	c #BF34A2",
"/r 	c #60194E",
"(r 	c #FF44CB",
"_r 	c #EB38A1",
":r 	c #EC3AA5",
"<r 	c #EC3C9F",
"[r 	c #FF47B8",
"}r 	c #B73281",
"|r 	c #000400",
"1r 	c #458180",
"2r 	c #FF64AB",
"3r 	c #3C0013",
"4r 	c #001808",
"5r 	c #33B39D",
"6r 	c #EC60A6",
"7r 	c #FC3281",
"8r 	c #D84282",
"9r 	c #080002",
"0r 	c #A79E95",
"ar 	c #696B62",
"br 	c #A71357",
"cr 	c #FF55A6",
"dr 	c #BB376C",
"er 	c #E44386",
"fr 	c #C03970",
"gr 	c #FA4992",
"hr 	c #FE4B96",
"ir 	c #170008",
"jr 	c #34362C",
"kr 	c #F6DFD0",
"lr 	c #FFD9CA",
"mr 	c #FDC8BA",
"nr 	c #FDCBBD",
"or 	c #FCC9BB",
"pr 	c #FFD0C3",
"qr 	c #FBD1C3",
"rr 	c #B4968B",
"sr 	c #C5A99C",
"tr 	c #D5B0A4",
"ur 	c #FAD6C7",
"vr 	c #70665F",
"wr 	c #390060",
"xr 	c #6A0291",
"yr 	c #5D0377",
"zr 	c #550384",
"Ar 	c #5A038F",
"Br 	c #6903AB",
"Cr 	c #5C0498",
"Dr 	c #25023F",
"Er 	c #110027",
"Fr 	c #5902CB",
"Gr 	c #5502C0",
"Hr 	c #4B02AC",
"Ir 	c #3F02A7",
"Jr 	c #7604E6",
"Kr 	c #6C03B4",
"Lr 	c #745C75",
"Mr 	c #FFD3FE",
"Nr 	c #FFB5DB",
"Or 	c #FBB3DC",
"Pr 	c #FCB3DB",
"Qr 	c #FCB4DC",
"Rr 	c #FBADD6",
"Sr 	c #FFCDF7",
"Tr 	c #DAACD6",
"Ur 	c #0C050A",
"Vr 	c #7E807F",
"Wr 	c #5E6760",
"Xr 	c #1B1F1B",
"Yr 	c #1B0043",
"Zr 	c #3B00DB",
"`r 	c #9017C3",
" s 	c #FF39BE",
".s 	c #F033C0",
"+s 	c #EB32BE",
"@s 	c #F135BC",
"#s 	c #FF3FE0",
"$s 	c #601651",
"%s 	c #63184E",
"&s 	c #B22C8C",
"*s 	c #481236",
"=s 	c #E23DB5",
"-s 	c #FF46C9",
";s 	c #EC3AA2",
">s 	c #FF47B7",
",s 	c #C03588",
"'s 	c #4B8987",
")s 	c #F261A3",
"!s 	c #280004",
"~s 	c #139E82",
"{s 	c #D973AE",
"]s 	c #FF3082",
"^s 	c #AC376E",
"/s 	c #B1A79C",
"(s 	c #95AE92",
"_s 	c #5B0F2F",
":s 	c #CC3D76",
"<s 	c #D23D7A",
"[s 	c #B13468",
"}s 	c #DE4385",
"|s 	c #454239",
"1s 	c #FEE7D8",
"2s 	c #FDCABC",
"3s 	c #FDCCBE",
"4s 	c #FDCBBE",
"5s 	c #FFE6D5",
"6s 	c #F9D9CA",
"7s 	c #D4AEA2",
"8s 	c #F9D0C1",
"9s 	c #FFFDED",
"0s 	c #BFAEA2",
"as 	c #160021",
"bs 	c #6F0492",
"cs 	c #600380",
"ds 	c #5A0378",
"es 	c #570384",
"fs 	c #550385",
"gs 	c #61039A",
"hs 	c #6C03AD",
"is 	c #44026E",
"js 	c #0F0118",
"ks 	c #28015B",
"ls 	c #5E02D6",
"ms 	c #4302AD",
"ns 	c #8304F4",
"os 	c #450270",
"ps 	c #A684A3",
"qs 	c #FFD9FF",
"rs 	c #FEB2D8",
"ss 	c #FDB3DC",
"ts 	c #FDB3DB",
"us 	c #FFB6DD",
"vs 	c #FFDCFF",
"ws 	c #755974",
"xs 	c #19006E",
"ys 	c #BB21EF",
"zs 	c #FF3CCC",
"As 	c #EA30BA",
"Bs 	c #EB31BF",
"Cs 	c #FF3CD6",
"Ds 	c #C22CA0",
"Es 	c #290A20",
"Fs 	c #6E1956",
"Gs 	c #070105",
"Hs 	c #2B0A20",
"Is 	c #DF3CB0",
"Js 	c #FF49CC",
"Ks 	c #EF3AA1",
"Ls 	c #CD3993",
"Ms 	c #0A0206",
"Ns 	c #4D938E",
"Os 	c #D45F98",
"Ps 	c #1A0000",
"Qs 	c #007A5E",
"Rs 	c #BC8FB7",
"Ss 	c #842850",
"Ts 	c #BCAFA3",
"Us 	c #FFF3E1",
"Vs 	c #ECF4E0",
"Ws 	c #352E2A",
"Xs 	c #CF2B77",
"Ys 	c #EC4C95",
"Zs 	c #AC3161",
"`s 	c #9E2F5E",
" t 	c #9D2F5E",
".t 	c #CF407F",
"+t 	c #555046",
"@t 	c #FDCEC0",
"#t 	c #FDCFC1",
"$t 	c #FDCFC0",
"%t 	c #FDD0C1",
"&t 	c #FDCEBF",
"*t 	c #D5B1A5",
"=t 	c #DEBEB0",
"-t 	c #F3E9DA",
";t 	c #490263",
">t 	c #6D0392",
",t 	c #590377",
"'t 	c #560383",
")t 	c #6803A5",
"!t 	c #5F0396",
"~t 	c #290242",
"{t 	c #3E018E",
"]t 	c #4502AB",
"^t 	c #4E02C0",
"/t 	c #8304E9",
"(t 	c #220130",
"_t 	c #110C13",
":t 	c #E7AFD9",
"<t 	c #FFCDF5",
"[t 	c #FDB4DA",
"}t 	c #FDB5DC",
"|t 	c #FDAFD6",
"1t 	c #FFD1F8",
"2t 	c #DCB2D9",
"3t 	c #140912",
"4t 	c #77197E",
"5t 	c #FF3AE2",
"6t 	c #F433C9",
"7t 	c #E830BC",
"8t 	c #EB32BF",
"9t 	c #EA33B9",
"0t 	c #F736BF",
"at 	c #FF3BD4",
"bt 	c #46103C",
"ct 	c #0E030D",
"dt 	c #160510",
"et 	c #C5379D",
"ft 	c #FF49CD",
"gt 	c #EF3CA4",
"ht 	c #E83B9D",
"it 	c #DC3D9E",
"jt 	c #15050D",
"kt 	c #4A958F",
"lt 	c #B75B8A",
"mt 	c #0F0000",
"nt 	c #006548",
"ot 	c #95ABBE",
"pt 	c #FF3189",
"qt 	c #F04389",
"rt 	c #F3478F",
"st 	c #C6B7AA",
"tt 	c #FFE5D6",
"ut 	c #617860",
"vt 	c #6D073A",
"wt 	c #FF4DA0",
"xt 	c #EB468B",
"yt 	c #F6498F",
"zt 	c #FF4D9B",
"At 	c #912C57",
"Bt 	c #A03263",
"Ct 	c #C23C78",
"Dt 	c #60584E",
"Et 	c #FFF4E2",
"Ft 	c #FDD0C2",
"Gt 	c #FDD2C3",
"Ht 	c #FDD1C3",
"It 	c #FED2C4",
"Jt 	c #C3AEA2",
"Kt 	c #B3998E",
"Lt 	c #F9DFD0",
"Mt 	c #FFDBCB",
"Nt 	c #7E7068",
"Ot 	c #1A0122",
"Pt 	c #6A038D",
"Qt 	c #5F0380",
"Rt 	c #590378",
"St 	c #550380",
"Tt 	c #5C038D",
"Ut 	c #6C03A9",
"Vt 	c #50027F",
"Wt 	c #12011C",
"Xt 	c #0F0022",
"Yt 	c #5202C1",
"Zt 	c #4402AA",
"`t 	c #5F03D9",
" u 	c #6703B0",
".u 	c #050002",
"+u 	c #523E50",
"@u 	c #FFD5FC",
"#u 	c #FFC0E4",
"$u 	c #FDB6DB",
"%u 	c #FDB7DC",
"&u 	c #FEB9DB",
"*u 	c #FFE0FF",
"=u 	c #715670",
"-u 	c #4A4A4A",
";u 	c #891F7C",
">u 	c #FF3DEF",
",u 	c #ED31BF",
"'u 	c #E832BD",
")u 	c #EC32BE",
"!u 	c #EA33B7",
"~u 	c #FF3EDD",
"{u 	c #A92688",
"]u 	c #15050F",
"^u 	c #C3379B",
"/u 	c #FF4ACE",
"(u 	c #F03CA1",
"_u 	c #F141A8",
":u 	c #210816",
"<u 	c #42978E",
"[u 	c #945C79",
"}u 	c #00462B",
"|u 	c #6AB9BA",
"1u 	c #FF3A90",
"2u 	c #F34087",
"3u 	c #F54C98",
"4u 	c #360F1F",
"5u 	c #040202",
"6u 	c #D2C4B6",
"7u 	c #FFFDF3",
"8u 	c #B4CAB4",
"9u 	c #25090E",
"0u 	c #EE4093",
"au 	c #C63E7A",
"bu 	c #CA3A74",
"cu 	c #FC4B93",
"du 	c #FD4D99",
"eu 	c #AA3467",
"fu 	c #71695E",
"gu 	c #FFF9E7",
"hu 	c #FED4C5",
"iu 	c #FED5C6",
"ju 	c #D9BDB0",
"ku 	c #968076",
"lu 	c #EDD8C9",
"mu 	c #FED7C8",
"nu 	c #C0B9AE",
"ou 	c #030100",
"pu 	c #45025E",
"qu 	c #6C0392",
"ru 	c #620494",
"su 	c #6A04A3",
"tu 	c #370155",
"uu 	c #34017A",
"vu 	c #5B02D6",
"wu 	c #4502B0",
"xu 	c #7003EB",
"yu 	c #400267",
"zu 	c #A584A4",
"Au 	c #FFDDFF",
"Bu 	c #FEB8DA",
"Cu 	c #FDB9DC",
"Du 	c #FDBADD",
"Eu 	c #FDB4D7",
"Fu 	c #FFD6FB",
"Gu 	c #DAB0D5",
"Hu 	c #080207",
"Iu 	c #C32BAD",
"Ju 	c #FF3BE6",
"Ku 	c #E933B8",
"Lu 	c #FD38C8",
"Mu 	c #F439C9",
"Nu 	c #1A0716",
"Ou 	c #B2318A",
"Pu 	c #FF4AC9",
"Qu 	c #E33EA0",
"Ru 	c #359B8F",
"Su 	c #6A5E68",
"Tu 	c #001A09",
"Uu 	c #40AEA2",
"Vu 	c #FD559F",
"Wu 	c #FB3B86",
"Xu 	c #0D0A09",
"Yu 	c #DDD5C6",
"Zu 	c #FFFDEB",
"`u 	c #FFEBDC",
" v 	c #F8FCEB",
".v 	c #384031",
"+v 	c #AA1B62",
"@v 	c #E1498F",
"#v 	c #B63669",
"$v 	c #FF4D97",
"%v 	c #862850",
"&v 	c #B1366D",
"*v 	c #81796C",
"=v 	c #FFFBEA",
"-v 	c #FED6C8",
";v 	c #FED6C7",
">v 	c #FFD8C9",
",v 	c #C9A89C",
"'v 	c #D7BFB1",
")v 	c #FEDACC",
"!v 	c #FFF4E3",
"~v 	c #F6ECDE",
"{v 	c #231A18",
"]v 	c #170020",
"^v 	c #6A038E",
"/v 	c #610381",
"(v 	c #580381",
"_v 	c #56037F",
":v 	c #67049A",
"<v 	c #65039A",
"[v 	c #250138",
"}v 	c #14002F",
"|v 	c #5402C6",
"1v 	c #4F02BA",
"2v 	c #4C02BC",
"3v 	c #6603CE",
"4v 	c #1C0225",
"5v 	c #291A25",
"6v 	c #ECC4E8",
"7v 	c #FFCDEF",
"8v 	c #FDB6D9",
"9v 	c #FDBBDE",
"0v 	c #FFBDE1",
"av 	c #FFE1FF",
"bv 	c #685067",
"cv 	c #270825",
"dv 	c #F236D7",
"ev 	c #FD36D4",
"fv 	c #E730B9",
"gv 	c #EF34BA",
"hv 	c #FF3FDA",
"iv 	c #701B5D",
"jv 	c #0A0207",
"kv 	c #A42D7D",
"lv 	c #FF55E2",
"mv 	c #C93994",
"nv 	c #1F9281",
"ov 	c #365D59",
"pv 	c #199C85",
"qv 	c #E17BB4",
"rv 	c #FF3183",
"sv 	c #EA488B",
"tv 	c #B7356A",
"uv 	c #0A0706",
"vv 	c #DDDACD",
"wv 	c #FFE4D5",
"xv 	c #FFDFCD",
"yv 	c #71907B",
"zv 	c #58092B",
"Av 	c #F84C9E",
"Bv 	c #A4305F",
"Cv 	c #F5498F",
"Dv 	c #F2468D",
"Ev 	c #83274C",
"Fv 	c #CC3C77",
"Gv 	c #AB3268",
"Hv 	c #908C7E",
"Iv 	c #FFFCEB",
"Jv 	c #FED9CA",
"Kv 	c #FED8C9",
"Lv 	c #C4A89C",
"Mv 	c #DCC6B8",
"Nv 	c #FEDACB",
"Ov 	c #FEDCCD",
"Pv 	c #FEDBCC",
"Qv 	c #FFFFEE",
"Rv 	c #534C45",
"Sv 	c #4A0261",
"Tv 	c #6C0391",
"Uv 	c #570380",
"Vv 	c #6A039F",
"Wv 	c #5B038A",
"Xv 	c #180124",
"Yv 	c #4501A1",
"Zv 	c #5402CA",
"`v 	c #5903D0",
" w 	c #4B0299",
".w 	c #7E667F",
"+w 	c #FFE2FF",
"@w 	c #FFBBDC",
"#w 	c #FDBCDE",
"$w 	c #FDB5D8",
"%w 	c #FFDFFF",
"&w 	c #C8A6C8",
"*w 	c #080107",
"=w 	c #65165B",
"-w 	c #FF3CEE",
";w 	c #F032C1",
">w 	c #E931BC",
",w 	c #E833B4",
"'w 	c #FF3BD0",
")w 	c #D030AA",
"!w 	c #C23997",
"~w 	c #AA3180",
"{w 	c #0B826E",
"]w 	c #10574D",
"^w 	c #038767",
"/w 	c #B695BC",
"(w 	c #FF2981",
"_w 	c #ED4B8D",
":w 	c #902A54",
"<w 	c #7A7470",
"[w 	c #FFFBED",
"}w 	c #D2E0C7",
"|w 	c #33161D",
"1w 	c #E23990",
"2w 	c #8A2E57",
"3w 	c #F94991",
"4w 	c #E34285",
"5w 	c #7B2447",
"6w 	c #E04281",
"7w 	c #FF50A2",
"8w 	c #A62F65",
"9w 	c #9EA192",
"0w 	c #FFFFED",
"aw 	c #FFDAC9",
"bw 	c #FFDCCE",
"cw 	c #FEE5D4",
"dw 	c #BBA397",
"ew 	c #D5C3B6",
"fw 	c #FFDCCC",
"gw 	c #FEDFCF",
"hw 	c #86837B",
"iw 	c #1D0127",
"jw 	c #69038E",
"kw 	c #5E037E",
"lw 	c #57037F",
"mw 	c #58037F",
"nw 	c #6C03A0",
"ow 	c #560381",
"pw 	c #0C0113",
"qw 	c #300170",
"rw 	c #5502CD",
"sw 	c #5F03D6",
"tw 	c #3D0273",
"uw 	c #080308",
"vw 	c #E0BADC",
"ww 	c #FFDAFB",
"xw 	c #FDB9DA",
"yw 	c #FDBFE0",
"zw 	c #FDBBDC",
"Aw 	c #FFCAE9",
"Bw 	c #FFE3FF",
"Cw 	c #453446",
"Dw 	c #C02BAB",
"Ew 	c #FF3BE5",
"Fw 	c #E930B9",
"Gw 	c #EA33B8",
"Hw 	c #F736C0",
"Iw 	c #FF3ACE",
"Jw 	c #47113B",
"Kw 	c #15050B",
"Lw 	c #290B1C",
"Mw 	c #015D4E",
"Nw 	c #014136",
"Ow 	c #005338",
"Pw 	c #8A9EB2",
"Qw 	c #FF358C",
"Rw 	c #722345",
"Sw 	c #BAB5AE",
"Tw 	c #FFE0CD",
"Uw 	c #FFE3D4",
"Vw 	c #FEFFF7",
"Ww 	c #3E4D3C",
"Xw 	c #A62064",
"Yw 	c #A9386E",
"Zw 	c #581830",
"`w 	c #CF3E7A",
" x 	c #722142",
".x 	c #A52D64",
"+x 	c #AAB0A0",
"@x 	c #FEDCCC",
"#x 	c #FEE8D8",
"$x 	c #AD998D",
"%x 	c #CEC0B3",
"&x 	c #FFEEDE",
"*x 	c #FFDBCC",
"=x 	c #FEDFD0",
"-x 	c #FFDECC",
";x 	c #AEA69D",
">x 	c #53026E",
",x 	c #69038D",
"'x 	c #58037E",
")x 	c #6E03A0",
"!x 	c #520278",
"~x 	c #09010E",
"{x 	c #1D0144",
"]x 	c #5B03D2",
"^x 	c #1B003E",
"/x 	c #766179",
"(x 	c #FFEAFF",
"_x 	c #FEC2E0",
":x 	c #FDC0DF",
"<x 	c #FDBFDF",
"[x 	c #FFBADB",
"}x 	c #FFEFFF",
"|x 	c #AB8EAC",
"1x 	c #320A2D",
"2x 	c #F638DC",
"3x 	c #FA35CD",
"4x 	c #E731B9",
"5x 	c #EC34BB",
"6x 	c #EE34B7",
"7x 	c #FF3EDB",
"8x 	c #82206F",
"9x 	c #003D32",
"0x 	c #002921",
"ax 	c #001E0E",
"bx 	c #54A5A2",
"cx 	c #FD3C89",
"dx 	c #16120F",
"ex 	c #E7E3DE",
"fx 	c #FFFEF3",
"gx 	c #85A086",
"hx 	c #C93D88",
"ix 	c #1D0B13",
"jx 	c #DB4385",
"kx 	c #B93A71",
"lx 	c #67203D",
"mx 	c #F34B94",
"nx 	c #A52B63",
"ox 	c #070201",
"px 	c #BBC0B0",
"qx 	c #FEDECE",
"rx 	c #FEDDCE",
"sx 	c #FEEBDB",
"tx 	c #A29086",
"ux 	c #C7BCAF",
"vx 	c #FFF2E1",
"wx 	c #FFDDCD",
"xx 	c #CCBFB1",
"yx 	c #060101",
"zx 	c #2F023E",
"Ax 	c #59037E",
"Bx 	c #56037D",
"Cx 	c #6D039F",
"Dx 	c #530279",
"Ex 	c #060008",
"Fx 	c #0B0019",
"Gx 	c #5A02D4",
"Hx 	c #000004",
"Ix 	c #261D1E",
"Jx 	c #F0D4EF",
"Kx 	c #FFD9F5",
"Lx 	c #FDBBDB",
"Mx 	c #FDC2E0",
"Nx 	c #FDBBDA",
"Ox 	c #FFDEF9",
"Px 	c #E7CAE8",
"Qx 	c #1E141E",
"Rx 	c #861D77",
"Sx 	c #FF3DEB",
"Tx 	c #ED32BD",
"Ux 	c #EB32BD",
"Vx 	c #EC33BA",
"Wx 	c #ED34B9",
"Xx 	c #9D2580",
"Yx 	c #002D24",
"Zx 	c #00221B",
"`x 	c #299883",
" y 	c #F062AA",
".y 	c #FF3488",
"+y 	c #FB4D95",
"@y 	c #5B524D",
"#y 	c #FFEDDB",
"$y 	c #FFDECB",
"%y 	c #FFF8EB",
"&y 	c #C3DBC5",
"*y 	c #45222A",
"=y 	c #BA2F79",
"-y 	c #200C14",
";y 	c #BD376D",
">y 	c #A83568",
",y 	c #631F3B",
"'y 	c #F94D99",
")y 	c #A32962",
"!y 	c #0F0806",
"~y 	c #C8CABC",
"{y 	c #FEDECF",
"]y 	c #FDEDDD",
"^y 	c #9C8C83",
"/y 	c #C5BCB0",
"(y 	c #FFFAE7",
"_y 	c #E1D2C3",
":y 	c #1C1514",
"<y 	c #130119",
"[y 	c #630384",
"}y 	c #630385",
"|y 	c #5A0379",
"1y 	c #57037C",
"2y 	c #6B039B",
"3y 	c #580380",
"4y 	c #0A010E",
"5y 	c #4100A6",
"6y 	c #978191",
"7y 	c #FFF0FF",
"8y 	c #FFC1DD",
"9y 	c #FEC5E1",
"0y 	c #FEC0DD",
"ay 	c #FFCDE9",
"by 	c #FFF6FF",
"cy 	c #5D4B5F",
"dy 	c #333332",
"ey 	c #120310",
"fy 	c #E835CD",
"gy 	c #FF39D7",
"hy 	c #E831B8",
"iy 	c #EB33B8",
"jy 	c #B32990",
"ky 	c #000504",
"ly 	c #025E48",
"my 	c #C782B3",
"ny 	c #FF3B93",
"oy 	c #F3488D",
"py 	c #310F1C",
"qy 	c #ADA59D",
"ry 	c #FEFFEC",
"sy 	c #5F6156",
"ty 	c #B4165C",
"uy 	c #581A32",
"vy 	c #682243",
"wy 	c #992E5B",
"xy 	c #6C2141",
"yy 	c #9F2560",
"zy 	c #170F0D",
"Ay 	c #D6D6C5",
"By 	c #FFFBEB",
"Cy 	c #FCEFDE",
"Dy 	c #98897F",
"Ey 	c #C3BDB0",
"Fy 	c #FFF6E5",
"Gy 	c #FFF3E2",
"Hy 	c #EDE7D7",
"Iy 	c #312D2A",
"Jy 	c #030004",
"Ky 	c #51026C",
"Ly 	c #68038C",
"My 	c #57037A",
"Ny 	c #690395",
"Oy 	c #5E0388",
"Py 	c #0C0011",
"Qy 	c #230155",
"Ry 	c #110044",
"Sy 	c #1F1918",
"Ty 	c #F9DCF5",
"Uy 	c #FFDAF4",
"Vy 	c #FEC2DE",
"Wy 	c #FFC2DF",
"Xy 	c #FFF7FF",
"Yy 	c #A58CA5",
"Zy 	c #711865",
"`y 	c #FF3CE6",
" z 	c #EF32BD",
".z 	c #EB32BC",
"+z 	c #EF34B9",
"@z 	c #7B1D69",
"#z 	c #00301C",
"$z 	c #9299AF",
"%z 	c #FF44A1",
"&z 	c #E23E81",
"*z 	c #1C0911",
"=z 	c #3C3430",
"-z 	c #F7F6EE",
";z 	c #FFF2E3",
">z 	c #849F8C",
",z 	c #8F0F43",
"'z 	c #791E45",
")z 	c #0B0407",
"!z 	c #802448",
"~z 	c #7F264C",
"{z 	c #9B215C",
"]z 	c #1E1513",
"^z 	c #E3E2CE",
"/z 	c #FFFAE9",
"(z 	c #FCF0DF",
"_z 	c #95867C",
":z 	c #C2BDAF",
"<z 	c #FFF0DF",
"[z 	c #F5F2E4",
"}z 	c #423E3A",
"|z 	c #3B0250",
"1z 	c #59037A",
"2z 	c #58037B",
"3z 	c #64038C",
"4z 	c #680495",
"5z 	c #160120",
"6z 	c #000003",
"7z 	c #8D768B",
"8z 	c #FFF5FF",
"9z 	c #FFC5E0",
"0z 	c #FEC9E3",
"az 	c #FEC1DD",
"bz 	c #DCC6DE",
"cz 	c #140D15",
"dz 	c #030603",
"ez 	c #10020E",
"fz 	c #D830BC",
"gz 	c #FF38D6",
"hz 	c #FA36C3",
"iz 	c #FD38C9",
"jz 	c #3E0F35",
"kz 	c #000800",
"lz 	c #517D80",
"mz 	c #FF5FB8",
"nz 	c #D6397A",
"oz 	c #0D0507",
"pz 	c #C9BFB3",
"qz 	c #D4E4C8",
"rz 	c #702943",
"sz 	c #730E3B",
"tz 	c #9A2F5D",
"uz 	c #5A1A35",
"vz 	c #9A2D5A",
"wz 	c #9B1F5A",
"xz 	c #221817",
"yz 	c #E9E7D2",
"zz 	c #FFF9E8",
"Az 	c #FFDECF",
"Bz 	c #FFE4D6",
"Cz 	c #FBF2E1",
"Dz 	c #908278",
"Ez 	c #C1BBAF",
"Fz 	c #FFEDDC",
"Gz 	c #FEF7EE",
"Hz 	c #56504D",
"Iz 	c #300240",
"Jz 	c #6A0390",
"Kz 	c #590379",
"Lz 	c #5A037B",
"Mz 	c #600385",
"Nz 	c #670490",
"Oz 	c #64038B",
"Pz 	c #560378",
"Qz 	c #5D0383",
"Rz 	c #6E039C",
"Sz 	c #260136",
"Tz 	c #21171F",
"Uz 	c #EBD4EC",
"Vz 	c #FFE1F7",
"Wz 	c #FEC6DF",
"Xz 	c #FEC4DD",
"Yz 	c #FFE2F4",
"Zz 	c #FAECFC",
"`z 	c #392F3A",
" A 	c #454946",
".A 	c #6C155E",
"+A 	c #FF3CE5",
"@A 	c #F133BF",
"#A 	c #EA32B7",
"$A 	c #FF3AD1",
"%A 	c #D331AE",
"&A 	c #13040F",
"*A 	c #17584D",
"=A 	c #F781C4",
"-A 	c #D32D74",
";A 	c #050302",
">A 	c #CBC4B6",
",A 	c #F9FFF1",
"'A 	c #6C5158",
")A 	c #68002E",
"!A 	c #370C1F",
"~A 	c #F355A9",
"{A 	c #46162D",
"]A 	c #AE3365",
"^A 	c #9C1F5A",
"/A 	c #241A19",
"(A 	c #EAE8D4",
"_A 	c #FFE6D6",
":A 	c #F9F0E1",
"<A 	c #857A71",
"[A 	c #C0BAB0",
"}A 	c #FFFAEA",
"|A 	c #FFEBDA",
"1A 	c #FFFBF0",
"2A 	c #605854",
"3A 	c #320242",
"4A 	c #610382",
"5A 	c #69038F",
"6A 	c #690390",
"7A 	c #610386",
"8A 	c #4B0367",
"9A 	c #4F026F",
"0A 	c #680390",
"aA 	c #71039F",
"bA 	c #3C0255",
"cA 	c #847185",
"dA 	c #FFF9FF",
"eA 	c #FFCDE5",
"fA 	c #FEC5DE",
"gA 	c #FFD6EA",
"hA 	c #6D5B6E",
"iA 	c #0A0F0B",
"jA 	c #0D000B",
"kA 	c #E734C6",
"lA 	c #FF37D2",
"mA 	c #E931B9",
"nA 	c #EA32B8",
"oA 	c #A6278D",
"pA 	c #002611",
"qA 	c #B57CAD",
"rA 	c #CE337D",
"sA 	c #D4D1C3",
"tA 	c #A5958C",
"uA 	c #410016",
"vA 	c #333C2F",
"wA 	c #191F1A",
"xA 	c #B53172",
"yA 	c #49162D",
"zA 	c #B93971",
"AA 	c #9E1F5B",
"BA 	c #271B1A",
"CA 	c #EBEAD5",
"DA 	c #FFE9D8",
"EA 	c #F5EDE0",
"FA 	c #786E69",
"GA 	c #C0BBB1",
"HA 	c #6A625E",
"IA 	c #3A024E",
"JA 	c #6B0390",
"KA 	c #650389",
"LA 	c #6D0393",
"MA 	c #650488",
"NA 	c #4E0269",
"OA 	c #300142",
"PA 	c #15001C",
"QA 	c #050008",
"RA 	c #5F0285",
"SA 	c #65038E",
"TA 	c #121317",
"UA 	c #09090D",
"VA 	c #EAD2EB",
"WA 	c #FFE7F8",
"XA 	c #FEC5DC",
"YA 	c #FFD0E8",
"ZA 	c #99879C",
"`A 	c #525753",
" B 	c #861B77",
".B 	c #FF3BE1",
"+B 	c #EA31B7",
"@B 	c #EF34BD",
"#B 	c #FF3CD9",
"$B 	c #6E1959",
"%B 	c #71768A",
"&B 	c #D9498C",
"*B 	c #080000",
"=B 	c #030202",
"-B 	c #CAC1B3",
";B 	c #E2DACF",
">B 	c #190C0D",
",B 	c #6E685D",
"'B 	c #70675D",
")B 	c #300010",
"!B 	c #3B1022",
"~B 	c #D44384",
"{B 	c #9E1E5A",
"]B 	c #2A1D1C",
"^B 	c #EDEDD7",
"/B 	c #FFEAD9",
"(B 	c #F2EBE0",
"_B 	c #716963",
":B 	c #C2BCB2",
"<B 	c #6D665F",
"[B 	c #600382",
"}B 	c #7804A2",
"|B 	c #560474",
"1B 	c #37024A",
"2B 	c #17011E",
"3B 	c #000006",
"4B 	c #14001C",
"5B 	c #1D2027",
"6B 	c #393E44",
"7B 	c #595D63",
"8B 	c #7A7D83",
"9B 	c #BABEC5",
"0B 	c #A3A9BB",
"aB 	c #0D0E16",
"bB 	c #7D6C7E",
"cB 	c #FFCBE3",
"dB 	c #FECCE3",
"eB 	c #A99FAF",
"fB 	c #040005",
"gB 	c #0D1D10",
"hB 	c #270120",
"iB 	c #F537D2",
"jB 	c #F835C7",
"kB 	c #F635C3",
"lB 	c #FD3AD7",
"mB 	c #3F0E34",
"nB 	c #405454",
"oB 	c #CA5B8F",
"pB 	c #1A0002",
"qB 	c #C5B8AB",
"rB 	c #FFEFE0",
"sB 	c #403632",
"tB 	c #493E3B",
"uB 	c #D9C4B4",
"vB 	c #210310",
"wB 	c #ED4A93",
"xB 	c #9F1F5C",
"yB 	c #261A1A",
"zB 	c #E9E9D4",
"AB 	c #EDE8D9",
"BB 	c #6F665F",
"CB 	c #CBC5B9",
"DB 	c #FFECDB",
"EB 	c #665E59",
"FB 	c #1C0124",
"GB 	c #2F023F",
"HB 	c #060107",
"IB 	c #27272A",
"JB 	c #282E29",
"KB 	c #13151D",
"LB 	c #15171B",
"MB 	c #35373D",
"NB 	c #61646F",
"OB 	c #868D96",
"PB 	c #B1B3B8",
"QB 	c #D8D8DD",
"RB 	c #F0F7FC",
"SB 	c #F8FFFF",
"TB 	c #4C5157",
"UB 	c #080509",
"VB 	c #DAC6D9",
"WB 	c #FFEFFD",
"XB 	c #FFC6DD",
"YB 	c #CBC5CE",
"ZB 	c #0E060F",
"`B 	c #484F49",
" C 	c #B22397",
".C 	c #FF38CE",
"+C 	c #E533BF",
"@C 	c #120411",
"#C 	c #092520",
"$C 	c #60717F",
"%C 	c #1C0B13",
"&C 	c #030101",
"*C 	c #C9BFB2",
"=C 	c #887775",
"-C 	c #130909",
";C 	c #F6EFE4",
">C 	c #556359",
",C 	c #1C0008",
"'C 	c #EC4993",
")C 	c #A82562",
"!C 	c #1E1313",
"~C 	c #D9DBC8",
"{C 	c #FFFCEC",
"]C 	c #FFEEDD",
"^C 	c #E8DFCF",
"/C 	c #70645D",
"(C 	c #D9D1C2",
"_C 	c #FFECDA",
":C 	c #FEF9ED",
"<C 	c #544E4C",
"[C 	c #0A010C",
"}C 	c #050006",
"|C 	c #010202",
"1C 	c #5C5B66",
"2C 	c #9292A2",
"3C 	c #D4D2E5",
"4C 	c #D3D2E2",
"5C 	c #202025",
"6C 	c #535864",
"7C 	c #E6E5EA",
"8C 	c #E4E9EC",
"9C 	c #F1F5F8",
"0C 	c #EAFDFF",
"aC 	c #43454E",
"bC 	c #59485A",
"cC 	c #FFF8FF",
"dC 	c #FFD8EB",
"eC 	c #FFFCFF",
"fC 	c #D9D2DD",
"gC 	c #261B27",
"hC 	c #656665",
"iC 	c #0C1C0E",
"jC 	c #500B45",
"kC 	c #FF3ADE",
"lC 	c #FF3EE7",
"mC 	c #93217B",
"nC 	c #000603",
"oC 	c #07453B",
"pC 	c #081614",
"qC 	c #0C0909",
"rC 	c #D3CFC0",
"sC 	c #B9B4AD",
"tC 	c #110804",
"uC 	c #C9C6C3",
"vC 	c #717C74",
"wC 	c #21000A",
"xC 	c #ED4894",
"yC 	c #B02867",
"zC 	c #201314",
"AC 	c #D4D8C7",
"BC 	c #DFCFC0",
"CC 	c #7E6B64",
"DC 	c #EFDECE",
"EC 	c #FFFEEF",
"FC 	c #312E2A",
"GC 	c #212124",
"HC 	c #5D5C65",
"IC 	c #9999A9",
"JC 	c #C5C4D8",
"KC 	c #D6D5EB",
"LC 	c #D8D7ED",
"MC 	c #C6C5DA",
"NC 	c #E3E1FB",
"OC 	c #9391A3",
"PC 	c #20242B",
"QC 	c #E9EBF0",
"RC 	c #F5FFFF",
"SC 	c #EDFFFF",
"TC 	c #E5F7FF",
"UC 	c #E1F2FD",
"VC 	c #DCEFFD",
"WC 	c #D3EBFE",
"XC 	c #EFFCFF",
"YC 	c #606470",
"ZC 	c #B9A2B9",
"`C 	c #EBE5F1",
" D 	c #2D242F",
".D 	c #475149",
"+D 	c #050005",
"@D 	c #E133C3",
"#D 	c #FF3EEA",
"$D 	c #2E0927",
"%D 	c #000503",
"&D 	c #1D1917",
"*D 	c #E1DDD2",
"=D 	c #FFFDEC",
"-D 	c #ECE5D5",
";D 	c #211916",
">D 	c #A0978E",
",D 	c #3C4A3E",
"'D 	c #2A0012",
")D 	c #FA4E9A",
"!D 	c #B62C6C",
"~D 	c #241415",
"{D 	c #D3D7C7",
"]D 	c #C0B2A5",
"^D 	c #86776E",
"/D 	c #9B928D",
"(D 	c #030201",
"_D 	c #4A4950",
":D 	c #91909D",
"<D 	c #C8C7DA",
"[D 	c #DDDCF2",
"}D 	c #D5D2E9",
"|D 	c #C8C6DB",
"1D 	c #B9B8CB",
"2D 	c #B4B3C6",
"3D 	c #B3B2C6",
"4D 	c #BDBBD0",
"5D 	c #E4E1FC",
"6D 	c #494852",
"7D 	c #0F1116",
"8D 	c #CDD0D7",
"9D 	c #DAF0FD",
"0D 	c #DFF0FD",
"aD 	c #E0F1FD",
"bD 	c #D9EEFD",
"cD 	c #EFFEFF",
"dD 	c #5E606B",
"eD 	c #4F3E51",
"fD 	c #A598AA",
"gD 	c #201824",
"hD 	c #6D706E",
"iD 	c #000900",
"jD 	c #9D1F91",
"kD 	c #B025A1",
"lD 	c #080C09",
"mD 	c #494949",
"nD 	c #2C2723",
"oD 	c #EEE7DF",
"pD 	c #FFF7E8",
"qD 	c #F4F2E3",
"rD 	c #4F4C48",
"sD 	c #A08A7F",
"tD 	c #18281A",
"uD 	c #420721",
"vD 	c #9A235A",
"wD 	c #120E0B",
"xD 	c #D7D7CA",
"yD 	c #9E9890",
"zD 	c #847E78",
"AD 	c #FFE0CE",
"BD 	c #FFFEF0",
"CD 	c #CFCFC7",
"DD 	c #5C5854",
"ED 	c #0D0D0E",
"FD 	c #57575E",
"GD 	c #A7A6B7",
"HD 	c #D8D6E9",
"ID 	c #DBD9ED",
"JD 	c #BBB9CC",
"KD 	c #B5B3C5",
"LD 	c #B5B3C6",
"MD 	c #B8B7CA",
"ND 	c #B9B8CA",
"OD 	c #B9B8CC",
"PD 	c #B1AFC3",
"QD 	c #D2D0E7",
"RD 	c #C0BED5",
"SD 	c #121114",
"TD 	c #A1A7AE",
"UD 	c #E0F4FE",
"VD 	c #DFF1FD",
"WD 	c #E1F1FD",
"XD 	c #EFFDFF",
"YD 	c #70737F",
"ZD 	c #CCB7CC",
"`D 	c #B5A3B6",
" E 	c #282F29",
".E 	c #2E0126",
"+E 	c #502849",
"@E 	c #353E37",
"#E 	c #5D5E5D",
"$E 	c #312B28",
"%E 	c #F2EBE1",
"&E 	c #FBF9F0",
"*E 	c #7D7470",
"=E 	c #665B52",
"-E 	c #020F06",
";E 	c #7A1C43",
">E 	c #7E1B46",
",E 	c #C7C5BC",
"'E 	c #FFE2D0",
")E 	c #8D847C",
"!E 	c #A7998E",
"~E 	c #FFFDEA",
"{E 	c #E3E3DB",
"]E 	c #070604",
"^E 	c #0E0E0F",
"/E 	c #616068",
"(E 	c #B7B6C6",
"_E 	c #DFDEF3",
":E 	c #D5D4E8",
"<E 	c #BCBBCD",
"[E 	c #B4B3C4",
"}E 	c #B7B6C8",
"|E 	c #B9B7CA",
"1E 	c #B8B7CB",
"2E 	c #B7B5CB",
"3E 	c #8D8C9D",
"4E 	c #71747C",
"5E 	c #E4F7FF",
"6E 	c #DDF0FD",
"7E 	c #E0F2FD",
"8E 	c #DBEEFD",
"9E 	c #EAF9FF",
"0E 	c #787984",
"aE 	c #6C5C6B",
"bE 	c #E9DEE8",
"cE 	c #1C121B",
"dE 	c #545354",
"eE 	c #434C44",
"fE 	c #352F2C",
"gE 	c #F5EEE3",
"hE 	c #FFF6E7",
"iE 	c #DACDC2",
"jE 	c #383731",
"kE 	c #AB346A",
"lE 	c #6B193B",
"mE 	c #B2B2A9",
"nE 	c #ECE3D7",
"oE 	c #574D47",
"pE 	c #E1D9CD",
"qE 	c #F1EFE7",
"rE 	c #888783",
"sE 	c #1E1B19",
"tE 	c #0F0F10",
"uE 	c #626169",
"vE 	c #BDBCCD",
"wE 	c #DEDDF1",
"xE 	c #D3D2E5",
"yE 	c #B5B4C4",
"zE 	c #B7B6C7",
"AE 	c #B9B8C9",
"BE 	c #B8B6CB",
"CE 	c #B5B3C7",
"DE 	c #BFBDD3",
"EE 	c #E1DEF9",
"FE 	c #46444E",
"GE 	c #34373E",
"HE 	c #FDFCFF",
"IE 	c #F6FFFF",
"JE 	c #DAEFFD",
"KE 	c #E8F9FF",
"LE 	c #878995",
"ME 	c #1A101A",
"NE 	c #F6EAF5",
"OE 	c #F6EFF6",
"PE 	c #3B2D3B",
"QE 	c #626362",
"RE 	c #3A3330",
"SE 	c #FAF1E6",
"TE 	c #FFF0DE",
"UE 	c #3C4038",
"VE 	c #C73F7C",
"WE 	c #500F2C",
"XE 	c #C2C0B8",
"YE 	c #FFE1CE",
"ZE 	c #888580",
"`E 	c #635853",
" F 	c #B5B4AF",
".F 	c #34302C",
"+F 	c #121214",
"@F 	c #616069",
"#F 	c #B4B2C3",
"$F 	c #E0DFF4",
"%F 	c #D1D0E3",
"&F 	c #B8B8C8",
"*F 	c #B8B7C8",
"=F 	c #B2B0C5",
"-F 	c #D1CEE8",
";F 	c #C5C2DC",
">F 	c #141417",
",F 	c #04050B",
"'F 	c #C4C8CE",
")F 	c #DBF1FD",
"!F 	c #9799A3",
"~F 	c #0E0B0E",
"{F 	c #928595",
"]F 	c #514555",
"^F 	c #453C39",
"/F 	c #FFF9EC",
"(F 	c #FFE9D9",
"_F 	c #DAD3C7",
":F 	c #050806",
"<F 	c #090003",
"[F 	c #FE519F",
"}F 	c #37061B",
"|F 	c #D3CDC5",
"1F 	c #FFDFCA",
"2F 	c #FFFDEF",
"3F 	c #E4DFDA",
"4F 	c #100B0A",
"5F 	c #665B54",
"6F 	c #726B67",
"7F 	c #2C2C30",
"8F 	c #7C7B87",
"9F 	c #C2C1D3",
"0F 	c #DEDDF0",
"aF 	c #D2D1E5",
"bF 	c #BBBACB",
"cF 	c #B4B3C3",
"dF 	c #B7B7C7",
"eF 	c #B8B5CB",
"fF 	c #B3B0C7",
"gF 	c #E1DEFB",
"hF 	c #9592A8",
"iF 	c #8D9196",
"jF 	c #DFF4FE",
"kF 	c #DDEFFD",
"lF 	c #E0F2FE",
"mF 	c #A2A4AE",
"nF 	c #000105",
"oF 	c #292A37",
"pF 	c #3C3F4E",
"qF 	c #757886",
"rF 	c #3D4250",
"sF 	c #3C374E",
"tF 	c #34313F",
"uF 	c #4C443F",
"vF 	c #FFEFDD",
"wF 	c #FFECDD",
"xF 	c #F4ECDB",
"yF 	c #DED2BF",
"zF 	c #F4ECDC",
"AF 	c #F8F7F1",
"BF 	c #A99B92",
"CF 	c #290715",
"DF 	c #ED4B92",
"EF 	c #110007",
"FF 	c #060C05",
"GF 	c #E2D9CF",
"HF 	c #635A56",
"IF 	c #2B2B2F",
"JF 	c #878793",
"KF 	c #CCCBDD",
"LF 	c #E0DFF3",
"MF 	c #CDCCDF",
"NF 	c #B8B7C9",
"OF 	c #BAB9CA",
"PF 	c #B8B6CC",
"QF 	c #B5B2C9",
"RF 	c #B9B6CF",
"SF 	c #E1DEFD",
"TF 	c #5C5A68",
"UF 	c #3E4047",
"VF 	c #DEF0FD",
"WF 	c #DDF1FE",
"XF 	c #BCBCC5",
"YF 	c #07090E",
"ZF 	c #090B12",
"`F 	c #161822",
" G 	c #383947",
".G 	c #6B6D7B",
"+G 	c #9EA7AF",
"@G 	c #CDCFD3",
"#G 	c #DDE0EA",
"$G 	c #F9FAFF",
"%G 	c #2E313C",
"&G 	c #AEA9BD",
"*G 	c #65636E",
"=G 	c #504742",
"-G 	c #FFFCEE",
";G 	c #F4E9D8",
">G 	c #45413D",
",G 	c #4F4C53",
"'G 	c #868282",
")G 	c #676462",
"!G 	c #252323",
"~G 	c #551933",
"{G 	c #C93B77",
"]G 	c #171712",
"^G 	c #F1E9D9",
"/G 	c #F3F3EF",
"(G 	c #7D7876",
"_G 	c #27272B",
":G 	c #91919E",
"<G 	c #D6D6E9",
"[G 	c #E0DFF2",
"}G 	c #C8C7D9",
"|G 	c #B8B5CC",
"1G 	c #B1B0C7",
"2G 	c #CAC7E1",
"3G 	c #DBD6F5",
"4G 	c #24232A",
"5G 	c #212328",
"6G 	c #E1E2E6",
"7G 	c #DCF1FD",
"8G 	c #C5C6CD",
"9G 	c #0B0C13",
"0G 	c #181A24",
"aG 	c #9C9CAB",
"bG 	c #D6DAE3",
"cG 	c #DCE9F4",
"dG 	c #F6FDFF",
"eG 	c #F4FFFF",
"fG 	c #F7FFFF",
"gG 	c #4A4F51",
"hG 	c #251C3E",
"iG 	c #67666B",
"jG 	c #524943",
"kG 	c #C6B5A3",
"lG 	c #333138",
"mG 	c #AAAEC7",
"nG 	c #B1B2C8",
"oG 	c #AFB0BE",
"pG 	c #383B41",
"qG 	c #76244A",
"rG 	c #27201C",
"sG 	c #FAFAF6",
"tG 	c #9A9A94",
"uG 	c #383530",
"vG 	c #111113",
"wG 	c #73727E",
"xG 	c #CAC9DC",
"yG 	c #E1E0F4",
"zG 	c #C6C5D7",
"AG 	c #B5B3C4",
"BG 	c #B7B5CD",
"CG 	c #B3B1C8",
"DG 	c #D8D4F1",
"EG 	c #A2A0B9",
"FG 	c #0A090A",
"GG 	c #121617",
"HG 	c #D0D3D8",
"IG 	c #DBF1FE",
"JG 	c #E2F2FD",
"KG 	c #DAF1FE",
"LG 	c #E5E4EA",
"MG 	c #1C1E24",
"NG 	c #6C7080",
"OG 	c #E9FBFF",
"PG 	c #E0F3FF",
"QG 	c #DBEEFE",
"RG 	c #D3EAFE",
"SG 	c #AAAEB6",
"TG 	c #9282C5",
"UG 	c #6F6D79",
"VG 	c #574D48",
"WG 	c #C5B29F",
"XG 	c #666169",
"YG 	c #C8CADE",
"ZG 	c #D6D4E6",
"`G 	c #E4E2F4",
" H 	c #3A3C40",
".H 	c #9B2F5D",
"+H 	c #3B2028",
"@H 	c #9B8786",
"#H 	c #3C3D38",
"$H 	c #5C5C65",
"%H 	c #E2E1F6",
"&H 	c #C9C8DB",
"*H 	c #B5B4C5",
"=H 	c #B6B4CC",
"-H 	c #B1AFC8",
";H 	c #E3DEFE",
">H 	c #9D99B1",
",H 	c #292B2E",
"'H 	c #FAFDFF",
")H 	c #F2FFFF",
"!H 	c #DBF0FD",
"~H 	c #F9FFFF",
"{H 	c #F0EEF1",
"]H 	c #32353B",
"^H 	c #080A12",
"/H 	c #CBCED9",
"(H 	c #D5EBFF",
"_H 	c #DAEDFE",
":H 	c #DCEEFE",
"<H 	c #DDEFFE",
"[H 	c #D7EBFE",
"}H 	c #F2FDFF",
"|H 	c #F5F9FE",
"1H 	c #0E1213",
"2H 	c #393154",
"3H 	c #CFBFFF",
"4H 	c #E5DAFF",
"5H 	c #7B7787",
"6H 	c #5B504B",
"7H 	c #E4CFBC",
"8H 	c #6D6B70",
"9H 	c #ABADC3",
"0H 	c #CFCEE0",
"aH 	c #BCBBCC",
"bH 	c #0E1414",
"cH 	c #C73A74",
"dH 	c #47162B",
"eH 	c #46464C",
"fH 	c #ACACBB",
"gH 	c #DEDDF2",
"hH 	c #B4B1CB",
"iH 	c #BAB6D0",
"jH 	c #E5E1FF",
"kH 	c #747186",
"lH 	c #73787C",
"mH 	c #F0FEFF",
"nH 	c #4C5057",
"oH 	c #150711",
"pH 	c #88327E",
"qH 	c #1B0B1A",
"rH 	c #330B2C",
"sH 	c #7B1B6B",
"tH 	c #0A0C11",
"uH 	c #D5D9E5",
"vH 	c #D7EDFE",
"wH 	c #DEEFFE",
"xH 	c #DEF3FF",
"yH 	c #686D74",
"zH 	c #000007",
"AH 	c #B8AAEC",
"BH 	c #B8ABF7",
"CH 	c #DDD1FF",
"DH 	c #7C7988",
"EH 	c #564D47",
"FH 	c #FFF7E5",
"GH 	c #FBEEDB",
"HH 	c #888385",
"IH 	c #A5A7BF",
"JH 	c #DFDDF0",
"KH 	c #B0B0BF",
"LH 	c #000602",
"MH 	c #140006",
"NH 	c #EC4990",
"OH 	c #C23E7B",
"PH 	c #120408",
"QH 	c #2E2E32",
"RH 	c #9B9BA9",
"SH 	c #DDDCF0",
"TH 	c #D6D5E9",
"UH 	c #B7B5CC",
"VH 	c #B7B4CD",
"WH 	c #B7B4CE",
"XH 	c #B2AEC9",
"YH 	c #BCB9D5",
"ZH 	c #E3DEFF",
"`H 	c #5B586A",
" I 	c #A3A6AA",
".I 	c #70757E",
"+I 	c #AF32A1",
"@I 	c #EA5AEB",
"#I 	c #060407",
"$I 	c #370B2B",
"%I 	c #FF3FF0",
"&I 	c #932389",
"*I 	c #4B4F5C",
"=I 	c #EAF8FF",
"-I 	c #D9ECFE",
";I 	c #D7EEFE",
">I 	c #B5BCC3",
",I 	c #7F72AE",
"'I 	c #D1C3FF",
")I 	c #A194DE",
"!I 	c #E0D4FF",
"~I 	c #7B7887",
"{I 	c #49413C",
"]I 	c #FFFCF0",
"^I 	c #FFF9E5",
"/I 	c #B3A49B",
"(I 	c #8B8BA0",
"_I 	c #EBECFF",
":I 	c #9A9AA6",
"<I 	c #450D23",
"[I 	c #892C57",
"}I 	c #1E1E21",
"|I 	c #888794",
"1I 	c #D5D4E7",
"2I 	c #DDDCEF",
"3I 	c #C0BFD0",
"4I 	c #B7B3CF",
"5I 	c #B0AEC9",
"6I 	c #C0BDDA",
"7I 	c #E4DDFF",
"8I 	c #474255",
"9I 	c #04090A",
"0I 	c #F9FEFF",
"aI 	c #A7AAAF",
"bI 	c #7A1762",
"cI 	c #FF4FFF",
"dI 	c #BC4ABD",
"eI 	c #24071B",
"fI 	c #E935CE",
"gI 	c #FF44FF",
"hI 	c #8C217F",
"iI 	c #9EA0B0",
"jI 	c #DAEFFF",
"kI 	c #D7ECFE",
"lI 	c #F2F2F6",
"mI 	c #0E1117",
"nI 	c #3A3055",
"oI 	c #D6C8FF",
"pI 	c #ADA2E6",
"qI 	c #A496DF",
"rI 	c #DED3FF",
"sI 	c #777486",
"tI 	c #231E1C",
"uI 	c #EDE7DF",
"vI 	c #E5DCCD",
"wI 	c #4F494B",
"xI 	c #C9CCE5",
"yI 	c #92959F",
"zI 	c #7B2147",
"AI 	c #CB4283",
"BI 	c #47152C",
"CI 	c #040505",
"DI 	c #64646C",
"EI 	c #C5C4D5",
"FI 	c #E3E1F6",
"GI 	c #C4C3D5",
"HI 	c #B2B1C2",
"II 	c #B7B3CE",
"JI 	c #B6B3CE",
"KI 	c #B6B3D0",
"LI 	c #B0ACC9",
"MI 	c #C3BEDE",
"NI 	c #E0DAFF",
"OI 	c #565366",
"PI 	c #3A4246",
"QI 	c #16181B",
"RI 	c #601853",
"SI 	c #FF47EB",
"TI 	c #B346AD",
"UI 	c #290922",
"VI 	c #E231C0",
"WI 	c #FF39DD",
"XI 	c #FF3DF0",
"YI 	c #86217B",
"ZI 	c #1A1C29",
"`I 	c #EAECF5",
" J 	c #F2FEFF",
".J 	c #DAF1FF",
"+J 	c #5E6569",
"@J 	c #020014",
"#J 	c #C5B5F4",
"$J 	c #BDB1F4",
"%J 	c #A69ADF",
"&J 	c #A79BE3",
"*J 	c #DCD0FF",
"=J 	c #716D7E",
"-J 	c #BAB3A5",
";J 	c #B0AA9A",
">J 	c #5A5561",
",J 	c #464F58",
"'J 	c #BB3B75",
")J 	c #E74A93",
"!J 	c #76264B",
"~J 	c #45454B",
"{J 	c #B2B2C1",
"]J 	c #E4E3F8",
"^J 	c #CECDE0",
"/J 	c #B6B3CF",
"(J 	c #B6B2CF",
"_J 	c #B7B2D1",
":J 	c #ADAAC7",
"<J 	c #D6D1F5",
"[J 	c #BBB4DB",
"}J 	c #701B5E",
"|J 	c #FF42E1",
"1J 	c #FA32BD",
"2J 	c #FF43DE",
"3J 	c #B348B1",
"4J 	c #2D0A26",
"5J 	c #E934C9",
"6J 	c #FC33CD",
"7J 	c #F52BC1",
"8J 	c #FF5DFF",
"9J 	c #703875",
"0J 	c #82848F",
"aJ 	c #FEFFFF",
"bJ 	c #BEC3C8",
"cJ 	c #8D7EB9",
"dJ 	c #D2C2FF",
"eJ 	c #A79BDF",
"fJ 	c #AB9FE3",
"gJ 	c #A99CE6",
"hJ 	c #DBCFFF",
"iJ 	c #696672",
"jJ 	c #FFE5D2",
"kJ 	c #837974",
"lJ 	c #19020A",
"mJ 	c #A4356A",
"nJ 	c #280B17",
"oJ 	c #1A191C",
"pJ 	c #8B8A97",
"qJ 	c #DBDAEE",
"rJ 	c #D8D7EB",
"sJ 	c #B6B2D0",
"tJ 	c #B6B1D1",
"uJ 	c #B4B0D0",
"vJ 	c #B4B0D1",
"wJ 	c #D3CDF6",
"xJ 	c #66627A",
"yJ 	c #6C1B5C",
"zJ 	c #FF41E1",
"AJ 	c #FD3AC8",
"BJ 	c #E62BA7",
"CJ 	c #B049B1",
"DJ 	c #360C2E",
"EJ 	c #F135CF",
"FJ 	c #FC35D1",
"GJ 	c #E523B1",
"HJ 	c #FF60FF",
"IJ 	c #A657AD",
"JJ 	c #22242B",
"KJ 	c #E6EAF6",
"LJ 	c #272D2F",
"MJ 	c #453B64",
"NJ 	c #D8C7FF",
"OJ 	c #AB9EE4",
"PJ 	c #AB9EE3",
"QJ 	c #AB9EE7",
"RJ 	c #DACEFF",
"SJ 	c #615F69",
"TJ 	c #1A1614",
"UJ 	c #EEE6D7",
"VJ 	c #FFFAEB",
"WJ 	c #FFDAC8",
"XJ 	c #E2E3DC",
"YJ 	c #070F06",
"ZJ 	c #561132",
"`J 	c #CE4489",
" K 	c #4D172F",
".K 	c #65656E",
"+K 	c #CCCBDE",
"@K 	c #E2E0F5",
"#K 	c #C2C1D2",
"$K 	c #B5B1D1",
"%K 	c #B3ADCF",
"&K 	c #D8D2FA",
"*K 	c #807C97",
"=K 	c #210719",
"-K 	c #F93ED0",
";K 	c #FF3ED3",
">K 	c #E733AF",
",K 	c #EB2CAE",
"'K 	c #FF49E9",
")K 	c #AD4CB2",
"!K 	c #400E35",
"~K 	c #FB36D2",
"{K 	c #FA34CD",
"]K 	c #E825B6",
"^K 	c #FF5DFB",
"/K 	c #974C9D",
"(K 	c #3C3E4A",
"_K 	c #5D6266",
":K 	c #1E1A30",
"<K 	c #C9B8FC",
"[K 	c #BCAEF3",
"}K 	c #A89DE0",
"|K 	c #ACA0E4",
"1K 	c #AC9FE8",
"2K 	c #D8CBFF",
"3K 	c #595664",
"4K 	c #9F9893",
"5K 	c #BFBFAF",
"6K 	c #060703",
"7K 	c #B7326F",
"8K 	c #B83F7E",
"9K 	c #17050B",
"0K 	c #303034",
"aK 	c #A2A1B0",
"bK 	c #E5E3F7",
"cK 	c #D0CFE1",
"dK 	c #D4CCF5",
"eK 	c #706C86",
"fK 	c #2C0A23",
"gK 	c #F53BC5",
"hK 	c #FF3AC5",
"iK 	c #EA34B5",
"jK 	c #EB2CAD",
"kK 	c #FF4AEA",
"lK 	c #AD4CB3",
"mK 	c #420E35",
"nK 	c #FD36D2",
"oK 	c #F934CC",
"pK 	c #EA26B6",
"qK 	c #8F4190",
"rK 	c #040214",
"sK 	c #A899D7",
"tK 	c #CBBCFF",
"uK 	c #A79ADF",
"vK 	c #ADA0E4",
"wK 	c #AA9FE3",
"xK 	c #B0A2EB",
"yK 	c #D0C4FC",
"zK 	c #494754",
"AK 	c #49423C",
"BK 	c #FFFDF1",
"CK 	c #FFF3E0",
"DK 	c #8B857B",
"EK 	c #431025",
"FK 	c #020303",
"GK 	c #6D6C77",
"HK 	c #D9D7EB",
"IK 	c #DEDCF0",
"JK 	c #BAB9C9",
"KK 	c #B3B2C3",
"LK 	c #B4AFD0",
"MK 	c #B5B0D1",
"NK 	c #D4CDF6",
"OK 	c #726E87",
"PK 	c #2C0A24",
"QK 	c #F339C2",
"RK 	c #FE3AC6",
"SK 	c #EA35B6",
"TK 	c #EB2BAE",
"UK 	c #AD4DB4",
"VK 	c #420E36",
"WK 	c #FF36D3",
"XK 	c #F833CB",
"YK 	c #ED27BA",
"ZK 	c #76397C",
"`K 	c #6C6190",
" L 	c #D7C8FF",
".L 	c #A99DE1",
"+L 	c #AC9FE3",
"@L 	c #AA9EE3",
"#L 	c #B2A4EE",
"$L 	c #C9BDF4",
"%L 	c #3B3940",
"&L 	c #191512",
"*L 	c #E5E0D9",
"=L 	c #534D4B",
"-L 	c #313135",
";L 	c #ABAABA",
">L 	c #C9C8DA",
",L 	c #B3B2C2",
"'L 	c #B5AFD2",
")L 	c #D3CDF7",
"!L 	c #726E89",
"~L 	c #320B28",
"{L 	c #FB3AC7",
"]L 	c #FD39C4",
"^L 	c #EB2BAD",
"/L 	c #FF4AEC",
"(L 	c #AD4EB5",
"_L 	c #48103E",
":L 	c #FF37D6",
"<L 	c #F732C8",
"[L 	c #EE27BC",
"}L 	c #FF5EFF",
"|L 	c #683775",
"1L 	c #8B7EBF",
"2L 	c #C7B8FF",
"3L 	c #AA9DE1",
"4L 	c #AA9FE2",
"5L 	c #B5A8F0",
"6L 	c #BEB2EF",
"7L 	c #2C2A35",
"8L 	c #A19990",
"9L 	c #C0B4AF",
"0L 	c #0B0805",
"aL 	c #65646E",
"bL 	c #D7D6EA",
"cL 	c #DBDAEF",
"dL 	c #B5B0D2",
"eL 	c #B4AFD1",
"fL 	c #B4AFD2",
"gL 	c #726E8B",
"hL 	c #330B27",
"iL 	c #AD4EB6",
"jL 	c #5B144E",
"kL 	c #FF38DB",
"lL 	c #F331C4",
"mL 	c #EE29BD",
"nL 	c #FF5FFF",
"oL 	c #6A3674",
"pL 	c #0A0811",
"qL 	c #A497DE",
"rL 	c #C3B4FF",
"sL 	c #AB9EE1",
"tL 	c #AB9FE2",
"uL 	c #B9ACF7",
"vL 	c #B2A6E6",
"wL 	c #282422",
"xL 	c #8C8380",
"yL 	c #0E0C0A",
"zL 	c #1B1C1E",
"AL 	c #A1A0AF",
"BL 	c #E5E4F9",
"CL 	c #C9C7DA",
"DL 	c #B7B6CB",
"EL 	c #B7B6CA",
"FL 	c #B7B5CA",
"GL 	c #B6B5C9",
"HL 	c #B6B4C9",
"IL 	c #B7B4CB",
"JL 	c #736E8B",
"KL 	c #340C28",
"LL 	c #FE3BC7",
"ML 	c #FC39C5",
"NL 	c #EA35B8",
"OL 	c #EA2AAE",
"PL 	c #FF4BEC",
"QL 	c #AE4FB8",
"RL 	c #681655",
"SL 	c #FF38DC",
"TL 	c #EF31C2",
"UL 	c #F02BC1",
"VL 	c #633066",
"WL 	c #100D1B",
"XL 	c #AA9CE6",
"YL 	c #C0B2FA",
"ZL 	c #AB9EE2",
"`L 	c #BCAFFC",
" M 	c #A89DDB",
".M 	c #100F11",
"+M 	c #3F3E44",
"@M 	c #C1BFD2",
"#M 	c #E1E0F5",
"$M 	c #B8B6C9",
"%M 	c #B6B5C7",
"&M 	c #B6B5C8",
"*M 	c #B7B7CA",
"=M 	c #B9B7CC",
"-M 	c #BBB8CE",
";M 	c #BEBDD2",
">M 	c #C8C5DD",
",M 	c #CBC8E1",
"'M 	c #BCBAD2",
")M 	c #B4B2CA",
"!M 	c #B6B1D0",
"~M 	c #B4AED2",
"{M 	c #B4AFD3",
"]M 	c #D3CCF7",
"^M 	c #736E8C",
"/M 	c #48113A",
"(M 	c #FF3FD8",
"_M 	c #F837BE",
":M 	c #FF49EC",
"<M 	c #B14FB8",
"[M 	c #F32CC4",
"}M 	c #FE5CFC",
"|M 	c #542C5B",
"1M 	c #19152A",
"2M 	c #B2A4F1",
"3M 	c #BCAEF6",
"4M 	c #AA9EE2",
"5M 	c #C2B5FF",
"6M 	c #9B92C9",
"7M 	c #040303",
"8M 	c #6C6C77",
"9M 	c #D5D3E7",
"0M 	c #B6B4C7",
"aM 	c #BBB9CD",
"bM 	c #C6C5D9",
"cM 	c #CFCFE5",
"dM 	c #D6D5EC",
"eM 	c #D7D5EE",
"fM 	c #D8D6EE",
"gM 	c #CAC8DF",
"hM 	c #AEABC0",
"iM 	c #ACAAC0",
"jM 	c #BFBDD6",
"kM 	c #B8B5CD",
"lM 	c #B6B3CC",
"mM 	c #B3AED2",
"nM 	c #B4AED3",
"oM 	c #D2CBF7",
"pM 	c #757190",
"qM 	c #350C2A",
"rM 	c #FB3DD7",
"sM 	c #FF3CD3",
"tM 	c #E834B2",
"uM 	c #EA2AAF",
"vM 	c #FF48EA",
"wM 	c #B44FB8",
"xM 	c #6F185D",
"yM 	c #FF39DC",
"zM 	c #EF30C1",
"AM 	c #F32BC1",
"BM 	c #FE5EFB",
"CM 	c #532E5D",
"DM 	c #2D2942",
"EM 	c #BEAFF9",
"FM 	c #B7AAF0",
"GM 	c #AA9EE1",
"HM 	c #C9BBFF",
"IM 	c #9187BA",
"JM 	c #A8A6BA",
"KM 	c #E5E4F7",
"LM 	c #C6C6D8",
"MM 	c #B2B2C2",
"NM 	c #B6B5C6",
"OM 	c #B6B6C6",
"PM 	c #BEBDD0",
"QM 	c #CFCCE1",
"RM 	c #D9D7ED",
"SM 	c #D4D3E9",
"TM 	c #C3C2D7",
"UM 	c #9B9AAB",
"VM 	c #797785",
"WM 	c #5F5F68",
"XM 	c #4B4A4F",
"YM 	c #302F34",
"ZM 	c #17171B",
"`M 	c #706E80",
" N 	c #DAD6F4",
".N 	c #B9B5CF",
"+N 	c #B6B2CE",
"@N 	c #B3AFD2",
"#N 	c #D1CAF7",
"$N 	c #797596",
"%N 	c #571449",
"&N 	c #F93DD9",
"*N 	c #FF3CD2",
"=N 	c #E629A8",
"-N 	c #FF48E9",
";N 	c #B54EB7",
">N 	c #7E1C6B",
",N 	c #FF39DF",
"'N 	c #EA2DB9",
")N 	c #FE2DCB",
"!N 	c #FF67FF",
"~N 	c #542E5E",
"{N 	c #3B3453",
"]N 	c #C2B3FE",
"^N 	c #B4A7ED",
"/N 	c #A99DE2",
"(N 	c #CDC0FF",
"_N 	c #8981A9",
":N 	c #787583",
"<N 	c #E1DEF7",
"[N 	c #DCDBEE",
"}N 	c #B9B8C8",
"|N 	c #BFBECF",
"1N 	c #DCDBEF",
"2N 	c #D5D3E8",
"3N 	c #B3B1C2",
"4N 	c #73737E",
"5N 	c #38383D",
"6N 	c #1B1B1D",
"7N 	c #040405",
"8N 	c #09080E",
"9N 	c #292834",
"0N 	c #3C3A4A",
"aN 	c #57546D",
"bN 	c #8481A4",
"cN 	c #4A465F",
"dN 	c #373440",
"eN 	c #D6D2F0",
"fN 	c #C1BDD8",
"gN 	c #B3B0CC",
"hN 	c #B5AFD3",
"iN 	c #B3AED3",
"jN 	c #B3ADD3",
"kN 	c #D0C9F6",
"lN 	c #7C779B",
"mN 	c #4D1242",
"nN 	c #F73DDB",
"oN 	c #FF33C9",
"pN 	c #FF44E0",
"qN 	c #B44BB4",
"rN 	c #8C1F79",
"sN 	c #FF37DA",
"tN 	c #FD36D6",
"uN 	c #FF3AEE",
"vN 	c #882A82",
"wN 	c #0B090E",
"xN 	c #2E2846",
"yN 	c #BCAEFA",
"zN 	c #B7A9EF",
"AN 	c #ADA1E4",
"BN 	c #A89CE3",
"CN 	c #CEC1FF",
"DN 	c #7C7698",
"EN 	c #141318",
"FN 	c #B8B1C2",
"GN 	c #F4F0FF",
"HN 	c #C7C7D8",
"IN 	c #B2B1C1",
"JN 	c #B7B7C8",
"KN 	c #D4D3E6",
"LN 	c #DAD9ED",
"MN 	c #D4D4E6",
"NN 	c #7A7983",
"ON 	c #333236",
"PN 	c #100F14",
"QN 	c #2B2A35",
"RN 	c #59576B",
"SN 	c #7A7893",
"TN 	c #9391B2",
"UN 	c #A39EC4",
"VN 	c #A6A2C9",
"WN 	c #A5A0C9",
"XN 	c #B8B3E1",
"YN 	c #827DA1",
"ZN 	c #302E3A",
"`N 	c #C7C2DF",
" O 	c #C5C1DE",
".O 	c #B1AECA",
"+O 	c #B4AED4",
"@O 	c #B4ADD4",
"#O 	c #807B9D",
"$O 	c #4B1241",
"%O 	c #F334D1",
"&O 	c #FF4BFC",
"*O 	c #AE45AA",
"=O 	c #8D1F79",
"-O 	c #FF42FE",
";O 	c #F138DD",
">O 	c #65175C",
",O 	c #302A48",
"'O 	c #BFB0FB",
")O 	c #B6A9EE",
"!O 	c #AEA1E4",
"~O 	c #A99CE4",
"{O 	c #CCBFFF",
"]O 	c #6E6886",
"^O 	c #13111B",
"/O 	c #C9C3D2",
"(O 	c #FBFAFF",
"_O 	c #B2B2C3",
":O 	c #B3B1C3",
"<O 	c #BDBCCE",
"[O 	c #DFDCF2",
"}O 	c #D0CFE2",
"|O 	c #A7A7B5",
"1O 	c #696971",
"2O 	c #333336",
"3O 	c #0D0D12",
"4O 	c #3D3D4A",
"5O 	c #716E88",
"6O 	c #9B97B7",
"7O 	c #ABA9CB",
"8O 	c #ADA8CC",
"9O 	c #A29EC2",
"0O 	c #9996B8",
"aO 	c #948FB2",
"bO 	c #908CAE",
"cO 	c #8B88AB",
"dO 	c #9C97C0",
"eO 	c #737090",
"fO 	c #25232C",
"gO 	c #C1BBD6",
"hO 	c #C7C4E2",
"iO 	c #B1ADC9",
"jO 	c #B6B2D1",
"kO 	c #B2ACD3",
"lO 	c #CEC7F5",
"mO 	c #8881A4",
"nO 	c #480D3A",
"oO 	c #FF4AFB",
"pO 	c #CF4BC7",
"qO 	c #B12AA2",
"rO 	c #ED3CEA",
"sO 	c #3C0D32",
"tO 	c #39344E",
"uO 	c #C4B5FD",
"vO 	c #B5A8ED",
"wO 	c #AC9EE5",
"xO 	c #CABCFF",
"yO 	c #5E5975",
"zO 	c #2D2D32",
"AO 	c #D8D3DF",
"BO 	c #ECEBF8",
"CO 	c #ADADBE",
"DO 	c #B9B9CA",
"EO 	c #ACABBB",
"FO 	c #63636B",
"GO 	c #222224",
"HO 	c #111015",
"IO 	c #3B3946",
"JO 	c #716F86",
"KO 	c #9998B5",
"LO 	c #ACAACA",
"MO 	c #A8A4C6",
"NO 	c #9D9AB9",
"OO 	c #938FAE",
"PO 	c #8F8CAB",
"QO 	c #8E8BAB",
"RO 	c #8E8AAA",
"SO 	c #8F8AAC",
"TO 	c #8F8AAE",
"UO 	c #8E8AAF",
"VO 	c #9E99C3",
"WO 	c #7E799E",
"XO 	c #191720",
"YO 	c #B1ADC6",
"ZO 	c #CBC7E6",
"`O 	c #B0ADC9",
" P 	c #B5B1D2",
".P 	c #B4AFD4",
"+P 	c #B1ABD3",
"@P 	c #CDC5F5",
"#P 	c #8F88AE",
"$P 	c #651A59",
"%P 	c #C33EAF",
"&P 	c #651659",
"*P 	c #350C2D",
"=P 	c #403C54",
"-P 	c #C5B8FF",
";P 	c #B3A6EC",
">P 	c #ADA0E3",
",P 	c #AFA2E9",
"'P 	c #C7BAFF",
")P 	c #4A4561",
"!P 	c #4D4B55",
"~P 	c #E8E7F0",
"{P 	c #E5E5F1",
"]P 	c #ABACBD",
"^P 	c #B7B5C7",
"/P 	c #CBCADE",
"(P 	c #CECDDE",
"_P 	c #8B8A96",
":P 	c #38383C",
"<P 	c #020201",
"[P 	c #0D0E11",
"}P 	c #3C3C48",
"|P 	c #78758D",
"1P 	c #9F9AB9",
"2P 	c #AEAACA",
"3P 	c #A8A5C4",
"4P 	c #9A98B5",
"5P 	c #908CA9",
"6P 	c #8C8AA5",
"7P 	c #8F8CAA",
"8P 	c #908DAD",
"9P 	c #908CAD",
"0P 	c #908BAE",
"aP 	c #8F8BAF",
"bP 	c #8E89AF",
"cP 	c #9C97C1",
"dP 	c #847FA7",
"eP 	c #16141C",
"fP 	c #A8A3B9",
"gP 	c #CDC9E9",
"hP 	c #B0ADCA",
"iP 	c #B4AED5",
"jP 	c #B3ADD5",
"kP 	c #B1ABD4",
"lP 	c #CCC4F4",
"mP 	c #948DB7",
"nP 	c #010005",
"oP 	c #21091A",
"pP 	c #0C040B",
"qP 	c #423D58",
"rP 	c #C6B7FF",
"sP 	c #B3A5EC",
"tP 	c #B3A5ED",
"uP 	c #C6B9FF",
"vP 	c #3F3B50",
"wP 	c #716E77",
"xP 	c #FFFEFF",
"yP 	c #D7D6E5",
"zP 	c #AAAABC",
"AP 	c #D1CEE2",
"BP 	c #E0DEF2",
"CP 	c #626269",
"DP 	c #1A191B",
"EP 	c #050506",
"FP 	c #706F82",
"GP 	c #A09FBB",
"HP 	c #AEACCB",
"IP 	c #A8A4C3",
"JP 	c #9B97B4",
"KP 	c #918FAA",
"LP 	c #8F8DA8",
"MP 	c #8F8DA9",
"NP 	c #918EAA",
"OP 	c #918EAC",
"PP 	c #918DAC",
"QP 	c #8F8BB0",
"RP 	c #8F89AF",
"SP 	c #9A95BF",
"TP 	c #8C86B1",
"UP 	c #1B1924",
"VP 	c #A29DB4",
"WP 	c #CECBEA",
"XP 	c #B0ACCA",
"YP 	c #B1AAD3",
"ZP 	c #CAC2F2",
"`P 	c #9E97C5",
" Q 	c #08070D",
".Q 	c #453E5F",
"+Q 	c #C7B7FF",
"@Q 	c #B3A5EA",
"#Q 	c #AA9DE2",
"$Q 	c #B8ABF1",
"%Q 	c #C0B3F9",
"&Q 	c #2F2B41",
"*Q 	c #898691",
"=Q 	c #CCCBD9",
"-Q 	c #A9A9BB",
";Q 	c #BAB8C9",
">Q 	c #B6B5C5",
",Q 	c #CFCEE1",
"'Q 	c #B3B2C0",
")Q 	c #57575C",
"!Q 	c #19181E",
"~Q 	c #535161",
"{Q 	c #918FA8",
"]Q 	c #ACAAC9",
"^Q 	c #ABA9C6",
"/Q 	c #9B98B5",
"(Q 	c #918DA9",
"_Q 	c #8E8BA5",
":Q 	c #908EA8",
"<Q 	c #918EAB",
"[Q 	c #8F8AAF",
"}Q 	c #8F89B0",
"|Q 	c #8E89B0",
"1Q 	c #9792BC",
"2Q 	c #958FBD",
"3Q 	c #1E1B28",
"4Q 	c #9490A5",
"5Q 	c #D3CEF0",
"6Q 	c #AFACCA",
"7Q 	c #B0AAD3",
"8Q 	c #C8C0F1",
"9Q 	c #A9A2D1",
"0Q 	c #0E0E15",
"aQ 	c #474063",
"bQ 	c #C8B8FF",
"cQ 	c #B2A5EA",
"dQ 	c #BBADF6",
"eQ 	c #BDB2F0",
"fQ 	c #282633",
"gQ 	c #0B0A10",
"hQ 	c #A6A4AE",
"iQ 	c #C1C0D1",
"jQ 	c #ABAABD",
"kQ 	c #D9D8EB",
"lQ 	c #AAAAB7",
"mQ 	c #504F55",
"nQ 	c #33313D",
"oQ 	c #79788E",
"pQ 	c #A7A5C3",
"qQ 	c #AEACCA",
"rQ 	c #A09EBA",
"sQ 	c #9290AA",
"tQ 	c #908DA8",
"uQ 	c #928FAA",
"vQ 	c #918FAB",
"wQ 	c #8F8CAE",
"xQ 	c #8F8AB0",
"yQ 	c #8D88B0",
"zQ 	c #948EB9",
"AQ 	c #9E97C9",
"BQ 	c #221F2F",
"CQ 	c #7F7B8C",
"DQ 	c #D8D3F8",
"EQ 	c #B0ACCB",
"FQ 	c #B3ACD6",
"GQ 	c #B0A9D3",
"HQ 	c #C4BDEE",
"IQ 	c #B5ADE0",
"JQ 	c #1A1722",
"KQ 	c #4A4367",
"LQ 	c #C8B9FF",
"MQ 	c #B2A5E9",
"NQ 	c #A99CE1",
"OQ 	c #BFB0F7",
"PQ 	c #B6AAE6",
"QQ 	c #201E2C",
"RQ 	c #020105",
"SQ 	c #AAA7B6",
"TQ 	c #B9B7C9",
"UQ 	c #ADACBF",
"VQ 	c #BBB9CB",
"WQ 	c #CFCDE0",
"XQ 	c #D5D4E5",
"YQ 	c #A9A9B6",
"ZQ 	c #58585E",
"`Q 	c #2B2B32",
" R 	c #464554",
".R 	c #85839D",
"+R 	c #ADABC9",
"@R 	c #A8A6C3",
"#R 	c #9897B1",
"$R 	c #8F8DA5",
"%R 	c #8F8DA6",
"&R 	c #9290A9",
"*R 	c #8F8BAE",
"=R 	c #8F89B1",
"-R 	c #8E88B1",
";R 	c #928BB7",
">R 	c #A19ACD",
",R 	c #302C40",
"'R 	c #6D6B7A",
")R 	c #DCD7FD",
"!R 	c #B1ADCE",
"~R 	c #B0A9D4",
"{R 	c #C1B9E9",
"]R 	c #C2BAEE",
"^R 	c #292735",
"/R 	c #474066",
"(R 	c #C9BAFF",
"_R 	c #A89BE1",
":R 	c #C0B2F8",
"<R 	c #B3A7DE",
"[R 	c #1B1925",
"}R 	c #A7A5B4",
"|R 	c #E3E1F3",
"1R 	c #AEACBF",
"2R 	c #BBB9CA",
"3R 	c #D6D5E7",
"4R 	c #A7A7B4",
"5R 	c #5B5B62",
"6R 	c #36363E",
"7R 	c #5A586B",
"8R 	c #9492AD",
"9R 	c #ADACCA",
"0R 	c #A19EBA",
"aR 	c #918FA7",
"bR 	c #8E89B1",
"cR 	c #8E89B2",
"dR 	c #8E88B3",
"eR 	c #9089B5",
"fR 	c #A39BD0",
"gR 	c #3A354E",
"hR 	c #595761",
"iR 	c #DFDAFC",
"jR 	c #B3AFD1",
"kR 	c #B3ADD6",
"lR 	c #B3ACD7",
"mR 	c #B2ABD7",
"nR 	c #B0A9D5",
"oR 	c #BDB4E4",
"pR 	c #CAC0F6",
"qR 	c #363344",
"rR 	c #474067",
"sR 	c #CDBCFF",
"tR 	c #A89BE0",
"uR 	c #C2B3FA",
"vR 	c #B3A8D5",
"wR 	c #46474E",
"xR 	c #C4C2D6",
"yR 	c #B7B8C8",
"zR 	c #CECDDF",
"AR 	c #D3D2E3",
"BR 	c #A9A8B5",
"CR 	c #62626B",
"DR 	c #41404B",
"ER 	c #5F5E71",
"FR 	c #9492AE",
"GR 	c #A9A6C4",
"HR 	c #9F9CB7",
"IR 	c #908EA7",
"JR 	c #8E88B2",
"KR 	c #8D87B3",
"LR 	c #8D88B4",
"MR 	c #A59CD2",
"NR 	c #3D3953",
"OR 	c #424044",
"PR 	c #E0D9F5",
"QR 	c #B3AFD3",
"RR 	c #B3ACD5",
"SR 	c #B1AAD7",
"TR 	c #BAB1E0",
"UR 	c #CDC4FC",
"VR 	c #3C3850",
"WR 	c #15141E",
"XR 	c #6E648F",
"YR 	c #7D749D",
"ZR 	c #635B84",
"`R 	c #5F5781",
" S 	c #665C86",
".S 	c #9488C5",
"+S 	c #B8AAF0",
"@S 	c #C5B6FD",
"#S 	c #A399C9",
"$S 	c #2E2F32",
"%S 	c #C5C3D7",
"&S 	c #D6D5E8",
"*S 	c #ABAAB6",
"=S 	c #68676F",
"-S 	c #42414D",
";S 	c #646377",
">S 	c #9896B1",
",S 	c #9896B0",
"'S 	c #8D87B4",
")S 	c #8C84B3",
"!S 	c #A39AD3",
"~S 	c #4A4766",
"{S 	c #1B1B1C",
"]S 	c #CEC8E7",
"^S 	c #BDB8DE",
"/S 	c #B2AAD8",
"(S 	c #B3ABD9",
"_S 	c #D1C7FF",
":S 	c #625D81",
"<S 	c #0A0910",
"[S 	c #221F2E",
"}S 	c #2B2938",
"|S 	c #2D2A3B",
"1S 	c #2B293B",
"2S 	c #2A2738",
"3S 	c #786EA0",
"4S 	c #E6D6FF",
"5S 	c #CDBEFF",
"6S 	c #CABBFF",
"7S 	c #CDBDFF",
"8S 	c #BDAFF5",
"9S 	c #A89CDE",
"0S 	c #ACA0E3",
"aS 	c #A89CE0",
"bS 	c #968AC1",
"cS 	c #06050E",
"dS 	c #1B1A1B",
"eS 	c #C5C4D6",
"fS 	c #DCDAEF",
"gS 	c #C2C0D2",
"hS 	c #CECCE0",
"iS 	c #C6C6D7",
"jS 	c #D2D1E3",
"kS 	c #A5A4B2",
"lS 	c #63626B",
"mS 	c #484853",
"nS 	c #656479",
"oS 	c #9795B1",
"pS 	c #A5A3BF",
"qS 	c #9A98B1",
"rS 	c #8C87AF",
"sS 	c #8B85B0",
"tS 	c #8B84B0",
"uS 	c #8B85B2",
"vS 	c #8B83B2",
"wS 	c #A198CF",
"xS 	c #7D77A6",
"yS 	c #15141C",
"zS 	c #B2ADCE",
"AS 	c #C7C4EA",
"BS 	c #B1ACD1",
"CS 	c #B2ABD8",
"DS 	c #B1A9D7",
"ES 	c #B9B0E1",
"FS 	c #ADA5D8",
"GS 	c #8D85B2",
"HS 	c #A89FD3",
"IS 	c #BAB0EA",
"JS 	c #BFB5F0",
"KS 	c #C0B5F1",
"LS 	c #BDB2F1",
"MS 	c #CABFF4",
"NS 	c #CEC2F7",
"OS 	c #282639",
"PS 	c #7C72A4",
"QS 	c #CFC1FF",
"RS 	c #AFA3E5",
"SS 	c #AC9FE2",
"TS 	c #A99CE0",
"US 	c #C6B8FF",
"VS 	c #8F86B6",
"WS 	c #080708",
"XS 	c #A4A3B3",
"YS 	c #B1B0C4",
"ZS 	c #9795A6",
"`S 	c #A4A4B1",
" T 	c #A4A3B2",
".T 	c #D3D3E4",
"+T 	c #AAA9B6",
"@T 	c #676670",
"#T 	c #474652",
"$T 	c #68667B",
"%T 	c #9694B1",
"&T 	c #A6A4C1",
"*T 	c #9391AA",
"=T 	c #8F8CAC",
"-T 	c #8F8BAC",
";T 	c #8F8BAD",
">T 	c #8E8AAD",
",T 	c #8D88AD",
"'T 	c #8E88AF",
")T 	c #8F8AB2",
"!T 	c #948EB7",
"~T 	c #9892BE",
"{T 	c #9C95C3",
"]T 	c #9D96C6",
"^T 	c #9F97CB",
"/T 	c #9E95CC",
"(T 	c #AFA5E5",
"_T 	c #867DB6",
":T 	c #06060C",
"<T 	c #A19DB7",
"[T 	c #D3CDF5",
"}T 	c #AFA9CF",
"|T 	c #B2AAD9",
"1T 	c #B2AADA",
"2T 	c #ACA4D4",
"3T 	c #BAB1E5",
"4T 	c #CEC4FE",
"5T 	c #C4BAF3",
"6T 	c #BCB3EA",
"7T 	c #BBB2E9",
"8T 	c #BBB1EA",
"9T 	c #BAAEE8",
"0T 	c #C6BCF5",
"aT 	c #CFC4FF",
"bT 	c #332F48",
"cT 	c #686186",
"dT 	c #CBBDFF",
"eT 	c #ACA0E2",
"fT 	c #ADA1E3",
"gT 	c #8A81AE",
"hT 	c #505358",
"iT 	c #BABDC2",
"jT 	c #B4BCBA",
"kT 	c #393E41",
"lT 	c #757185",
"mT 	c #D1CFE2",
"nT 	c #CBCADD",
"oT 	c #A9A8B4",
"pT 	c #65656D",
"qT 	c #4C4B57",
"rT 	c #6B697E",
"sT 	c #9997B4",
"tT 	c #A4A2BF",
"uT 	c #9795AF",
"vT 	c #908DAA",
"wT 	c #8F8BAA",
"xT 	c #908CAC",
"yT 	c #928EAF",
"zT 	c #9691B5",
"AT 	c #9C98BF",
"BT 	c #A39DC8",
"CT 	c #A49DCC",
"DT 	c #9E99C6",
"ET 	c #948EBB",
"FT 	c #8983B0",
"GT 	c #7B76A3",
"HT 	c #6C6691",
"IT 	c #575277",
"JT 	c #3E3B59",
"KT 	c #2A273E",
"LT 	c #0D0C15",
"MT 	c #AAA5BF",
"NT 	c #D3CBF5",
"OT 	c #B0AAD0",
"PT 	c #B1A9D9",
"QT 	c #B1A9DA",
"RT 	c #B1A7DA",
"ST 	c #AFA6D8",
"TT 	c #AEA5DA",
"UT 	c #AEA5DB",
"VT 	c #AEA4DB",
"WT 	c #ADA4DA",
"XT 	c #B3A9E4",
"YT 	c #C7BBFE",
"ZT 	c #45405B",
"`T 	c #676085",
" U 	c #7D72A7",
".U 	c #121414",
"+U 	c #BEC6C3",
"@U 	c #939B99",
"#U 	c #7B778C",
"$U 	c #CECBDF",
"%U 	c #BBBACA",
"&U 	c #B1B1BE",
"*U 	c #6C6D75",
"=U 	c #4F4E5A",
"-U 	c #6B697F",
";U 	c #9694AF",
">U 	c #A5A2BE",
",U 	c #9896AF",
"'U 	c #8F8CA9",
")U 	c #9491B0",
"!U 	c #9B97B6",
"~U 	c #9C99BA",
"{U 	c #9D9ABD",
"]U 	c #A09CC1",
"^U 	c #9B96BD",
"/U 	c #8984A8",
"(U 	c #736F91",
"_U 	c #5F5C7F",
":U 	c #514E6E",
"<U 	c #46435F",
"[U 	c #3E3B52",
"}U 	c #39374A",
"|U 	c #373544",
"1U 	c #3E3B4B",
"2U 	c #524F5F",
"3U 	c #696677",
"4U 	c #777481",
"5U 	c #8B8794",
"6U 	c #B5AFC8",
"7U 	c #C0BADF",
"8U 	c #B3ACD4",
"9U 	c #B1A8DA",
"0U 	c #B1A8DB",
"aU 	c #B0A8DC",
"bU 	c #B0A7DC",
"cU 	c #B0A6DD",
"dU 	c #AEA5DE",
"eU 	c #B3A8E1",
"fU 	c #CBBFFF",
"gU 	c #544F73",
"hU 	c #625A82",
"iU 	c #AC9FE1",
"jU 	c #C9B9FF",
"kU 	c #6F639E",
"lU 	c #757289",
"mU 	c #E3DFF6",
"nU 	c #C0C0CE",
"oU 	c #CBCADB",
"pU 	c #BCBCCA",
"qU 	c #75747D",
"rU 	c #52515D",
"sU 	c #6C6B80",
"tU 	c #9996B2",
"uU 	c #A4A1BE",
"vU 	c #9593AD",
"wU 	c #918EA9",
"xU 	c #8F8EA9",
"yU 	c #9794B1",
"zU 	c #A29FBE",
"AU 	c #A4A1C2",
"BU 	c #9A96B7",
"CU 	c #8D8AAB",
"DU 	c #7B7A98",
"EU 	c #5F5D76",
"FU 	c #444158",
"GU 	c #3C3A52",
"HU 	c #47445A",
"IU 	c #555162",
"JU 	c #625F68",
"KU 	c #75717A",
"LU 	c #8E899C",
"MU 	c #A49FB8",
"NU 	c #B4AFC8",
"OU 	c #C6C0D7",
"PU 	c #D1CCE8",
"QU 	c #D8D2F5",
"RU 	c #DAD4FA",
"SU 	c #D9D3FA",
"TU 	c #D5CFF4",
"UU 	c #CCC7EC",
"VU 	c #B4AFD5",
"WU 	c #B0AAD1",
"XU 	c #B4AED6",
"YU 	c #B0A7DD",
"ZU 	c #AFA6DE",
"`U 	c #AFA5DE",
" V 	c #CEC2FF",
".V 	c #676186",
"+V 	c #5D557F",
"@V 	c #C8BAFF",
"#V 	c #665D8E",
"$V 	c #5E596A",
"%V 	c #E5E1F9",
"&V 	c #C4C5D3",
"*V 	c #C3C2D3",
"=V 	c #A7A6B5",
"-V 	c #62606D",
";V 	c #666479",
">V 	c #9391AD",
",V 	c #A3A1BD",
"'V 	c #9492AC",
")V 	c #9A96B2",
"!V 	c #9A97B4",
"~V 	c #9D9BB9",
"{V 	c #9C9AB9",
"]V 	c #85829E",
"^V 	c #6F6C85",
"/V 	c #626079",
"(V 	c #565368",
"_V 	c #484558",
":V 	c #4F4C60",
"<V 	c #6E6A7F",
"[V 	c #928D99",
"}V 	c #ABA6B3",
"|V 	c #C3BFDA",
"1V 	c #D8D3EE",
"2V 	c #E5E0EE",
"3V 	c #E7E1F1",
"4V 	c #DFDAF7",
"5V 	c #D2CEEE",
"6V 	c #C7C3E2",
"7V 	c #C2BDDD",
"8V 	c #BEBADB",
"9V 	c #B8B3D6",
"0V 	c #B4AED0",
"aV 	c #AFABCE",
"bV 	c #ADA8CE",
"cV 	c #B5AFD6",
"dV 	c #B0A6DE",
"eV 	c #AEA4DE",
"fV 	c #776E99",
"gV 	c #5A517E",
"hV 	c #ADA2E4",
"iV 	c #615982",
"jV 	c #ADABC0",
"kV 	c #E0DFF0",
"lV 	c #C1C0D2",
"mV 	c #B1AFBE",
"nV 	c #737183",
"oV 	c #8886A2",
"pV 	c #9694AE",
"qV 	c #9C99B4",
"rV 	c #A2A1BC",
"sV 	c #9A97B3",
"tV 	c #9390AB",
"uV 	c #7E7B94",
"vV 	c #5D5C70",
"wV 	c #57546A",
"xV 	c #615D73",
"yV 	c #666175",
"zV 	c #767284",
"AV 	c #9B97AC",
"BV 	c #C1BCD0",
"CV 	c #D5D1E8",
"DV 	c #DDD9F5",
"EV 	c #DFDCF1",
"FV 	c #D9D6E8",
"GV 	c #C8C6DF",
"HV 	c #BBB9D4",
"IV 	c #B3AFCD",
"JV 	c #AEACC9",
"KV 	c #AEABC7",
"LV 	c #B1ADCB",
"MV 	c #B4B0CE",
"NV 	c #B3AFCF",
"OV 	c #ADA3DD",
"PV 	c #857BA9",
"QV 	c #5A517C",
"RV 	c #C7B9FF",
"SV 	c #B0A3E8",
"TV 	c #51496E",
"UV 	c #54555B",
"VV 	c #BDBBCD",
"WV 	c #B7B6C4",
"XV 	c #6A6978",
"YV 	c #8D8BA6",
"ZV 	c #9895AF",
"`V 	c #908EA6",
" W 	c #9592AC",
".W 	c #9A99B2",
"+W 	c #A1A0BA",
"@W 	c #9A98B2",
"#W 	c #807D95",
"$W 	c #73728A",
"%W 	c #635F76",
"&W 	c #585368",
"*W 	c #6F6B7F",
"=W 	c #8F8A9D",
"-W 	c #9F9CAF",
";W 	c #BBB7CD",
">W 	c #D4D1E8",
",W 	c #D8D5EB",
"'W 	c #CECCE2",
")W 	c #C7C5DB",
"!W 	c #C1BED5",
"~W 	c #B7B6CC",
"{W 	c #B0AEC7",
"]W 	c #AFACC7",
"^W 	c #B1AEC8",
"/W 	c #B3B0C9",
"(W 	c #B4B1CD",
"_W 	c #B5B2CE",
":W 	c #B0A8DB",
"<W 	c #AFA5DF",
"[W 	c #ADA2DC",
"}W 	c #CBBEFF",
"|W 	c #8D85BB",
"1W 	c #58507A",
"2W 	c #AEA2E4",
"3W 	c #39344F",
"4W 	c #28272A",
"5W 	c #C7C5D8",
"6W 	c #C7C6D9",
"7W 	c #BFBDCF",
"8W 	c #6B6B77",
"9W 	c #7D7B93",
"0W 	c #9D9BB6",
"aW 	c #A19FB9",
"bW 	c #9998B1",
"cW 	c #7E7C93",
"dW 	c #5F5E73",
"eW 	c #5D596F",
"fW 	c #5F5C6D",
"gW 	c #696778",
"hW 	c #9795A8",
"iW 	c #BEBACF",
"jW 	c #C7C5D9",
"kW 	c #D1D0E4",
"lW 	c #BFBFD1",
"mW 	c #B6B4C8",
"nW 	c #B5B3C8",
"oW 	c #B5B3C9",
"pW 	c #B4B2C9",
"qW 	c #B8B5CE",
"rW 	c #B8B4CF",
"sW 	c #B8B4CE",
"tW 	c #AFA4DF",
"uW 	c #C6BAFE",
"vW 	c #978EC3",
"wW 	c #030305",
"xW 	c #58507B",
"yW 	c #BAACF1",
"zW 	c #BEAEF5",
"AW 	c #252136",
"BW 	c #0C0C0D",
"CW 	c #ACACBC",
"DW 	c #CAC9DA",
"EW 	c #767580",
"FW 	c #7B7990",
"GW 	c #9E9CB6",
"HW 	c #9896B2",
"IW 	c #807F97",
"JW 	c #727287",
"KW 	c #5C5A6D",
"LW 	c #535063",
"MW 	c #6B687D",
"NW 	c #878396",
"OW 	c #9D9BAB",
"PW 	c #C3C2D4",
"QW 	c #D3D1E3",
"RW 	c #C6C4D8",
"SW 	c #B4B3C5",
"TW 	c #B5B0D3",
"UW 	c #ADA2DD",
"VW 	c #C4B9FA",
"WW 	c #9B90CB",
"XW 	c #07060F",
"YW 	c #BEB0F7",
"ZW 	c #AB9CE4",
"`W 	c #0F0D1B",
" X 	c #868591",
".X 	c #D9D9EC",
"+X 	c #BAB8CA",
"@X 	c #898894",
"#X 	c #737186",
"$X 	c #9997B1",
"%X 	c #9290A8",
"&X 	c #828098",
"*X 	c #69687D",
"=X 	c #646375",
"-X 	c #5B5967",
";X 	c #6A6876",
">X 	c #9995AA",
",X 	c #B4B2C7",
"'X 	c #D4D2E4",
")X 	c #BEBECF",
"!X 	c #BBBACC",
"~X 	c #B7B5C8",
"{X 	c #B4B2C5",
"]X 	c #BFB5F4",
"^X 	c #A599DA",
"/X 	c #141120",
"(X 	c #574F78",
"_X 	c #C4B5FF",
":X 	c #9689CE",
"<X 	c #010006",
"[X 	c #020405",
"}X 	c #636566",
"|X 	c #585958",
"1X 	c #45444C",
"2X 	c #D0CEE2",
"3X 	c #A6A6B3",
"4X 	c #686778",
"5X 	c #9391AC",
"6X 	c #9694AD",
"7X 	c #9897B0",
"8X 	c #9997B2",
"9X 	c #8887A1",
"0X 	c #82809A",
"aX 	c #747187",
"bX 	c #726F82",
"cX 	c #817E93",
"dX 	c #8A8997",
"eX 	c #A09FAC",
"fX 	c #C6C4D6",
"gX 	c #D0CFE0",
"hX 	c #CACADB",
"iX 	c #C9C8D9",
"jX 	c #BDBDCC",
"kX 	c #BAB7CA",
"lX 	c #B0A7DB",
"mX 	c #ACA2DD",
"nX 	c #BCB1F2",
"oX 	c #AFA4E1",
"pX 	c #201D29",
"qX 	c #564E76",
"rX 	c #8277B0",
"sX 	c #0F1010",
"tX 	c #2B2B2A",
"uX 	c #4C4F50",
"vX 	c #91989B",
"wX 	c #D3D7D8",
"xX 	c #9BA09F",
"yX 	c #17161B",
"zX 	c #C0BDD0",
"AX 	c #C6C4D7",
"BX 	c #B4B3C2",
"CX 	c #656474",
"DX 	c #9593B0",
"EX 	c #9A98B3",
"FX 	c #7A7790",
"GX 	c #807D91",
"HX 	c #898695",
"IX 	c #A7A4B5",
"JX 	c #B7B5C6",
"KX 	c #C0BFCF",
"LX 	c #D0D0E2",
"MX 	c #CBC9DC",
"NX 	c #BBBBCC",
"OX 	c #AEA4E0",
"PX 	c #BCB0F0",
"QX 	c #AFA4E3",
"RX 	c #211F2C",
"SX 	c #544D74",
"TX 	c #CCBCFF",
"UX 	c #716796",
"VX 	c #121514",
"WX 	c #3B4243",
"XX 	c #6F7776",
"YX 	c #9B9E9D",
"ZX 	c #BBC6C9",
"`X 	c #CFE1E4",
" Y 	c #E6EEEF",
".Y 	c #AEB2B4",
"+Y 	c #494C4D",
"@Y 	c #070A0A",
"#Y 	c #0A0B0C",
"$Y 	c #BEBED0",
"%Y 	c #797886",
"&Y 	c #716F87",
"*Y 	c #8B899D",
"=Y 	c #A2A0AF",
"-Y 	c #C5C4D4",
";Y 	c #C4C4D4",
">Y 	c #B7B4CA",
",Y 	c #B7B3CA",
"'Y 	c #B6B4CA",
")Y 	c #B6B4CB",
"!Y 	c #B5B2CB",
"~Y 	c #B6B2CD",
"{Y 	c #ACA1DE",
"]Y 	c #BBAFEF",
"^Y 	c #B2A5EB",
"/Y 	c #554D76",
"(Y 	c #AEA2E5",
"_Y 	c #5C547D",
":Y 	c #2F3134",
"<Y 	c #767B81",
"[Y 	c #AAB4B9",
"}Y 	c #BFCAD3",
"|Y 	c #D2DBE3",
"1Y 	c #E3E6EC",
"2Y 	c #E0E7EF",
"3Y 	c #CFD9E4",
"4Y 	c #CFD6E5",
"5Y 	c #90959A",
"6Y 	c #ABABBA",
"7Y 	c #9594A3",
"8Y 	c #B0AEBF",
"9Y 	c #C8C9D8",
"0Y 	c #BCBCCC",
"aY 	c #C4C1D9",
"bY 	c #CCC9E3",
"cY 	c #CECCE7",
"dY 	c #CCCAE5",
"eY 	c #CBC8E4",
"fY 	c #C6C3E0",
"gY 	c #BDBAD5",
"hY 	c #B4B0CB",
"iY 	c #B3ADD7",
"jY 	c #B0A6DC",
"kY 	c #AEA3E0",
"lY 	c #B9AEEB",
"mY 	c #B8ACF3",
"nY 	c #2D2843",
"oY 	c #554E74",
"pY 	c #B0A3E6",
"qY 	c #C2B4FF",
"rY 	c #474266",
"sY 	c #2E2D31",
"tY 	c #A5A4B5",
"uY 	c #C1C0D3",
"vY 	c #BAB7C9",
"wY 	c #ADAABD",
"xY 	c #A8A7BA",
"yY 	c #AAA8BB",
"zY 	c #B0ACBE",
"AY 	c #D1CDE2",
"BY 	c #7D7987",
"CY 	c #74737E",
"DY 	c #D9D8ED",
"EY 	c #C6C5D6",
"FY 	c #B6B6C7",
"GY 	c #C2C0D5",
"HY 	c #D0CFE5",
"IY 	c #D6D4EC",
"JY 	c #D3D1E7",
"KY 	c #CAC9DF",
"LY 	c #C4C3D8",
"MY 	c #A5A2B5",
"NY 	c #9695A6",
"OY 	c #9D9CAE",
"PY 	c #ABA8BE",
"QY 	c #C0BED7",
"RY 	c #D4D0F0",
"SY 	c #D5D1F2",
"TY 	c #BEBBD8",
"UY 	c #B5AFD1",
"VY 	c #B2A9D9",
"WY 	c #B6AAEA",
"XY 	c #C0B3F5",
"YY 	c #38354A",
"ZY 	c #3E3959",
"`Y 	c #C0B2FE",
" Z 	c #B2A6E8",
".Z 	c #B5A8EA",
"+Z 	c #BAACFA",
"@Z 	c #352F50",
"#Z 	c #5F5E67",
"$Z 	c #F4F2FF",
"%Z 	c #B8B6C8",
"&Z 	c #BCBACC",
"*Z 	c #BEBDCD",
"=Z 	c #E3E2F7",
"-Z 	c #5D5D66",
";Z 	c #4E4D55",
">Z 	c #D1D0E2",
",Z 	c #CAC7DC",
"'Z 	c #D8D6ED",
")Z 	c #BDBCCF",
"!Z 	c #9D9CAB",
"~Z 	c #7D7B87",
"{Z 	c #66646E",
"]Z 	c #51505C",
"^Z 	c #474654",
"/Z 	c #262630",
"(Z 	c #1B1A24",
"_Z 	c #23222F",
":Z 	c #151419",
"<Z 	c #1B1A1C",
"[Z 	c #38383F",
"}Z 	c #807E92",
"|Z 	c #CEC9EC",
"1Z 	c #DBD5F9",
"2Z 	c #C8C3E5",
"3Z 	c #BCB8D9",
"4Z 	c #B0ABCC",
"5Z 	c #B5AFD5",
"6Z 	c #B1A7DF",
"7Z 	c #B0A6DF",
"8Z 	c #AFA4E0",
"9Z 	c #ACA1DF",
"0Z 	c #B5A9E9",
"aZ 	c #C2B5F6",
"bZ 	c #3D384D",
"cZ 	c #1C192A",
"dZ 	c #B0A3EA",
"eZ 	c #BBAFF5",
"fZ 	c #AB9FE0",
"gZ 	c #ACA1E3",
"hZ 	c #ACA0E1",
"iZ 	c #BDAFF3",
"jZ 	c #AFA2EA",
"kZ 	c #211D32",
"lZ 	c #404046",
"mZ 	c #D2D1E4",
"nZ 	c #BCBACD",
"oZ 	c #111012",
"pZ 	c #2B2B2E",
"qZ 	c #C3C2D2",
"rZ 	c #878690",
"sZ 	c #4C4C50",
"tZ 	c #27272C",
"uZ 	c #1B1A20",
"vZ 	c #1F1F29",
"wZ 	c #353347",
"xZ 	c #53506C",
"yZ 	c #636181",
"zZ 	c #6E6A8F",
"AZ 	c #716D93",
"BZ 	c #706C95",
"CZ 	c #635E85",
"DZ 	c #4F4B6B",
"EZ 	c #201D30",
"FZ 	c #313037",
"GZ 	c #8D89A3",
"HZ 	c #BDB8DA",
"IZ 	c #D0CCF2",
"JZ 	c #D5CFF7",
"KZ 	c #CBC5EC",
"LZ 	c #B8B4D8",
"MZ 	c #AFAACF",
"NZ 	c #B2ACD2",
"OZ 	c #B1A6E1",
"PZ 	c #B4A9E8",
"QZ 	c #C4B6FA",
"RZ 	c #413B5A",
"SZ 	c #A397D5",
"TZ 	c #C1B4FC",
"UZ 	c #A89DDD",
"VZ 	c #ABA0E1",
"WZ 	c #AFA4E4",
"XZ 	c #B7AAF1",
"YZ 	c #B1A5EB",
"ZZ 	c #242133",
"`Z 	c #B5B5C5",
" ` 	c #6F6E78",
".` 	c #AFAEBE",
"+` 	c #CBCADC",
"@` 	c #8E8D97",
"#` 	c #4A494E",
"$` 	c #141516",
"%` 	c #15151B",
"&` 	c #31303F",
"*` 	c #55536B",
"=` 	c #72708E",
"-` 	c #817FA1",
";` 	c #837FA3",
">` 	c #7E7B9E",
",` 	c #7D7A9D",
"'` 	c #7C799E",
")` 	c #7C789F",
"!` 	c #7B779E",
"~` 	c #7E79A5",
"{` 	c #8580B0",
"]` 	c #8D87BD",
"^` 	c #676290",
"/` 	c #11101C",
"(` 	c #3A3844",
"_` 	c #6C6A81",
":` 	c #ACA7CB",
"<` 	c #D0CAF6",
"[` 	c #D2CBF8",
"}` 	c #BAB4DB",
"|` 	c #ADA7CF",
"1` 	c #B4ADD8",
"2` 	c #AFA6DB",
"3` 	c #B2A9DE",
"4` 	c #AFA5DC",
"5` 	c #AFA6DD",
"6` 	c #B1A8DF",
"7` 	c #A195D6",
"8` 	c #A99DDC",
"9` 	c #B4A9E3",
"0` 	c #AEA3E1",
"a` 	c #ACA3DF",
"b` 	c #B3A7E7",
"c` 	c #504A6A",
"d` 	c #010104",
"e` 	c #988CC1",
"f` 	c #E1D2FF",
"g` 	c #C3B6FD",
"h` 	c #C2B4FB",
"i` 	c #BAADF1",
"j` 	c #B3A7EA",
"k` 	c #AA9EDF",
"l` 	c #B0A4E5",
"m` 	c #A599E0",
"n` 	c #A79AE3",
"o` 	c #C3B6FF",
"p` 	c #3F3A59",
"q` 	c #676770",
"r` 	c #CDCCDE",
"s` 	c #161619",
"t` 	c #888895",
"u` 	c #D7D6EB",
"v` 	c #DCDCF0",
"w` 	c #68676E",
"x` 	c #252528",
"y` 	c #100E13",
"z` 	c #5C5B71",
"A` 	c #7C7A98",
"B` 	c #8B88A8",
"C` 	c #8886A4",
"D` 	c #7E7B9A",
"E` 	c #777594",
"F` 	c #757290",
"G` 	c #73708F",
"H` 	c #716E8F",
"I` 	c #716E91",
"J` 	c #716D92",
"K` 	c #706C93",
"L` 	c #6F6A93",
"M` 	c #716D98",
"N` 	c #867FB6",
"O` 	c #7E78AE",
"P` 	c #494567",
"Q` 	c #0A0911",
"R` 	c #0C0C0F",
"S` 	c #484557",
"T` 	c #A29BC0",
"U` 	c #D3CCFB",
"V` 	c #D0C9F9",
"W` 	c #B7AFD9",
"X` 	c #ADA7D1",
"Y` 	c #B1A8DD",
"Z` 	c #B4AAE3",
"`` 	c #B3A9DF",
"  .	c #ADA4DC",
". .	c #AEA5DD",
"+ .	c #B5ABE2",
"@ .	c #A89CD9",
"# .	c #9689CC",
"$ .	c #B2A8E2",
"% .	c #ACA3DE",
"& .	c #ADA2DE",
"* .	c #ADA2E0",
"= .	c #ABA0DD",
"- .	c #B0A4E4",
"; .	c #554F6F",
"> .	c #716893",
", .	c #B8AAE5",
"' .	c #9588CE",
") .	c #A194DB",
"! .	c #B5A7EE",
"~ .	c #C6B7FE",
"{ .	c #CEBFFF",
"] .	c #BDB1F5",
"^ .	c #A194DA",
"/ .	c #9C8EDB",
"( .	c #AA9EE6",
"_ .	c #B7A9F6",
": .	c #2A234B",
"< .	c #0D0A20",
"[ .	c #16122C",
"} .	c #0C0917",
"| .	c #0A0814",
"1 .	c #05040B",
"2 .	c #111213",
"3 .	c #B4B4C4",
"4 .	c #7C7C86",
"5 .	c #4C4C53",
"6 .	c #DAD8ED",
"7 .	c #BEBDCE",
"8 .	c #B8B7C7",
"9 .	c #9A99A6",
"0 .	c #454549",
"a .	c #16151C",
"b .	c #484759",
"c .	c #7E7B96",
"d .	c #8C8AA8",
"e .	c #8584A0",
"f .	c #7A7994",
"g .	c #73718C",
"h .	c #74718E",
"i .	c #747290",
"j .	c #747190",
"k .	c #747191",
"l .	c #737092",
"m .	c #736F94",
"n .	c #736E94",
"o .	c #726E96",
"p .	c #726D98",
"q .	c #706B97",
"r .	c #6D6794",
"s .	c #7771A4",
"t .	c #877FBC",
"u .	c #7E76B2",
"v .	c #554F7B",
"w .	c #1F1C2D",
"x .	c #423F51",
"y .	c #A39DC7",
"z .	c #DAD1FF",
"A .	c #C8C1EE",
"B .	c #AEA7D2",
"C .	c #AFA8D5",
"D .	c #B3AADA",
"E .	c #B7AFE3",
"F .	c #A399D0",
"G .	c #9186C1",
"H .	c #ADA3DC",
"I .	c #B8AEE7",
"J .	c #AB9EE5",
"K .	c #B9ADF3",
"L .	c #D1C6FF",
"M .	c #EEDEFF",
"N .	c #7F74A7",
"O .	c #09080F",
"P .	c #090816",
"Q .	c #020109",
"R .	c #090712",
"S .	c #3C3653",
"T .	c #6A6292",
"U .	c #AEA1E8",
"V .	c #988CD3",
"W .	c #B1A4EC",
"X .	c #A193DA",
"Y .	c #140F2A",
"Z .	c #4C3BA9",
"` .	c #7660ED",
" ..	c #604DC1",
"...	c #604CC0",
"+..	c #5948B3",
"@..	c #5242A4",
"#..	c #483A90",
"$..	c #3A2E73",
"%..	c #2C2358",
"&..	c #1F193F",
"*..	c #171430",
"=..	c #120F23",
"-..	c #030307",
";..	c #E4E2F7",
">..	c #D2D0E4",
",..	c #27282B",
"'..	c #1A1A1C",
")..	c #DEDCF1",
"!..	c #C5C3D4",
"~..	c #7A7982",
"{..	c #323235",
"]..	c #25252F",
"^..	c #5F5F72",
"/..	c #86859F",
"(..	c #8C8AA7",
"_..	c #7F7C96",
":..	c #75748C",
"<..	c #727189",
"[..	c #73728B",
"}..	c #75738E",
"|..	c #75738F",
"1..	c #75728F",
"2..	c #747092",
"3..	c #736F93",
"4..	c #726D97",
"5..	c #716C99",
"6..	c #716B9A",
"7..	c #6E6898",
"8..	c #6E689A",
"9..	c #7871AA",
"0..	c #857CBE",
"a..	c #7E76B7",
"b..	c #56507F",
"c..	c #1E1C2D",
"d..	c #050408",
"e..	c #57536B",
"f..	c #BCB5E4",
"g..	c #BBB4E2",
"h..	c #ACA5D2",
"i..	c #AFA7DB",
"j..	c #BBB1E8",
"k..	c #6F6799",
"l..	c #968DC4",
"m..	c #C6BCF8",
"n..	c #A99FD8",
"o..	c #AFA5E0",
"p..	c #C0B5F5",
"q..	c #9287C3",
"r..	c #736B9F",
"s..	c #7F75AB",
"t..	c #7B72A1",
"u..	c #7D74A6",
"v..	c #8076AA",
"w..	c #79709E",
"x..	c #847BA0",
"y..	c #585174",
"z..	c #3B3655",
"A..	c #B3A5EE",
"B..	c #A295DA",
"C..	c #AEA1EC",
"D..	c #988CCE",
"E..	c #1A172A",
"F..	c #4E3EAB",
"G..	c #7862F1",
"H..	c #6B56D5",
"I..	c #6D58DB",
"J..	c #705ADF",
"K..	c #715BE2",
"L..	c #725CE2",
"M..	c #715BE1",
"N..	c #6F59DC",
"O..	c #6C57D7",
"P..	c #6955D0",
"Q..	c #6552C8",
"R..	c #5949B2",
"S..	c #3B3178",
"T..	c #0B0916",
"U..	c #8D8D99",
"V..	c #9898A4",
"W..	c #D7D6E9",
"X..	c #DAD8EC",
"Y..	c #B0AFBF",
"Z..	c #5D5C63",
"`..	c #383744",
" +.	c #8E8DA7",
".+.	c #87859F",
"++.	c #78778E",
"@+.	c #727088",
"#+.	c #74738B",
"$+.	c #75748D",
"%+.	c #75738D",
"&+.	c #75728E",
"*+.	c #74728F",
"=+.	c #736E95",
"-+.	c #726E95",
";+.	c #726E97",
">+.	c #706A9C",
",+.	c #70699C",
"'+.	c #6E679C",
")+.	c #6B649B",
"!+.	c #746CA9",
"~+.	c #8479C1",
"{+.	c #7E74BC",
"]+.	c #4D4676",
"^+.	c #110F1A",
"/+.	c #16141F",
"(+.	c #867FA4",
"_+.	c #D9CFFF",
":+.	c #CAC1F3",
"<+.	c #ACA5D5",
"[+.	c #AFA7D7",
"}+.	c #B1A9DB",
"|+.	c #C3B9F2",
"1+.	c #9C92C4",
"2+.	c #463E68",
"3+.	c #BBB1EB",
"4+.	c #B8AEE8",
"5+.	c #C6BBFD",
"6+.	c #867CB3",
"7+.	c #08060B",
"8+.	c #8A80B6",
"9+.	c #A99BE9",
"0+.	c #AFA0F3",
"a+.	c #8377B7",
"b+.	c #120F27",
"c+.	c #5242AC",
"d+.	c #6E58DB",
"e+.	c #5F4DBF",
"f+.	c #614EC1",
"g+.	c #604DBF",
"h+.	c #614EC2",
"i+.	c #6451C6",
"j+.	c #6754CC",
"k+.	c #6A56D1",
"l+.	c #6A57D3",
"m+.	c #6F5ADB",
"n+.	c #7963F1",
"o+.	c #6856CE",
"p+.	c #1B1636",
"q+.	c #E2E1F5",
"r+.	c #C4C3D4",
"s+.	c #323137",
"t+.	c #6B6A73",
"u+.	c #92919D",
"v+.	c #3C3B3E",
"w+.	c #191A20",
"x+.	c #4C4D5C",
"y+.	c #807E97",
"z+.	c #8D8CA7",
"A+.	c #828199",
"B+.	c #76758B",
"C+.	c #737388",
"D+.	c #75748B",
"E+.	c #76748C",
"F+.	c #747291",
"G+.	c #726F96",
"H+.	c #716C98",
"I+.	c #716B99",
"J+.	c #6F689E",
"K+.	c #6E67A0",
"L+.	c #6C649E",
"M+.	c #6B639E",
"N+.	c #756BAE",
"O+.	c #8379C8",
"P+.	c #776DB8",
"Q+.	c #3D3860",
"R+.	c #040307",
"S+.	c #423E55",
"T+.	c #BBB2E2",
"U+.	c #D8CEFF",
"V+.	c #B3ABDD",
"W+.	c #ACA3D5",
"X+.	c #B2A8DD",
"Y+.	c #D0C4FF",
"Z+.	c #443E61",
"`+.	c #555075",
" @.	c #DBD0FF",
".@.	c #C8BCFF",
"+@.	c #443E5B",
"@@.	c #615690",
"#@.	c #B1A3EF",
"$@.	c #BFB0FF",
"%@.	c #403A5B",
"&@.	c #624FC4",
"*@.	c #6D57DA",
"=@.	c #604EC0",
"-@.	c #624FC3",
";@.	c #6250C2",
">@.	c #614FC0",
",@.	c #614FBF",
"'@.	c #604FBF",
")@.	c #604EBE",
"!@.	c #604EBF",
"~@.	c #7D67F5",
"{@.	c #1B1B1E",
"]@.	c #DDDCF1",
"^@.	c #92919F",
"/@.	c #3A393E",
"(@.	c #BFBED0",
"_@.	c #7C7B86",
":@.	c #252526",
"<@.	c #020304",
"[@.	c #1E1E26",
"}@.	c #616075",
"|@.	c #8A89A2",
"1@.	c #8C8BA5",
"2@.	c #7C7A92",
"3@.	c #727187",
"4@.	c #747389",
"5@.	c #76758C",
"6@.	c #737093",
"7@.	c #726D96",
"8@.	c #706B9A",
"9@.	c #70699D",
"0@.	c #6F689F",
"a@.	c #6E67A1",
"b@.	c #6E66A2",
"c@.	c #6C63A1",
"d@.	c #6A61A1",
"e@.	c #776CB7",
"f@.	c #8478CE",
"g@.	c #655BA0",
"h@.	c #201C33",
"i@.	c #1A1924",
"j@.	c #928BB4",
"k@.	c #DCD2FF",
"l@.	c #BDB5E8",
"m@.	c #ABA3D6",
"n@.	c #AEA4DA",
"o@.	c #B1A7DE",
"p@.	c #C6BBF7",
"q@.	c #A096C8",
"r@.	c #0B0817",
"s@.	c #B0A5D6",
"t@.	c #DACCFF",
"u@.	c #2C283F",
"v@.	c #2F2758",
"w@.	c #AEA0F3",
"x@.	c #A498DF",
"y@.	c #08070C",
"z@.	c #04030C",
"A@.	c #6855D0",
"B@.	c #6A56D5",
"C@.	c #614EC0",
"D@.	c #6250C3",
"E@.	c #6150BF",
"F@.	c #6855C9",
"G@.	c #735EE1",
"H@.	c #191634",
"I@.	c #6D6D77",
"J@.	c #E5E3F9",
"K@.	c #C5C3D6",
"L@.	c #313136",
"M@.	c #B0AFBE",
"N@.	c #CFCDE1",
"O@.	c #B1B1C1",
"P@.	c #5D5D64",
"Q@.	c #121213",
"R@.	c #31313C",
"S@.	c #6D6C81",
"T@.	c #8D8CA6",
"U@.	c #87869F",
"V@.	c #737287",
"W@.	c #747388",
"X@.	c #737288",
"Y@.	c #75738B",
"Z@.	c #75748E",
"`@.	c #74738C",
" #.	c #74728D",
".#.	c #706B9B",
"+#.	c #6F699D",
"@#.	c #6E65A2",
"##.	c #6D65A3",
"$#.	c #6D63A5",
"%#.	c #6960A2",
"&#.	c #6C62A8",
"*#.	c #7E71C7",
"=#.	c #7F72CC",
"-#.	c #463F73",
";#.	c #645E80",
">#.	c #D1C6FE",
",#.	c #C9BFF4",
"'#.	c #A79ED5",
")#.	c #9B8FD0",
"!#.	c #B3ABDF",
"~#.	c #D6CAFF",
"{#.	c #494360",
"]#.	c #353144",
"^#.	c #3E3952",
"/#.	c #0D0C16",
"(#.	c #A294EA",
"_#.	c #7066A2",
":#.	c #15112C",
"<#.	c #6B56D6",
"[#.	c #6854CF",
"}#.	c #6251C1",
"|#.	c #6351C0",
"1#.	c #7460E3",
"2#.	c #362D6B",
"3#.	c #DCDCEF",
"4#.	c #9697A3",
"5#.	c #73737D",
"6#.	c #4A494F",
"7#.	c #3B3A47",
"8#.	c #7C7B94",
"9#.	c #9796B2",
"0#.	c #9594AF",
"a#.	c #8B8AA4",
"b#.	c #87869E",
"c#.	c #8786A0",
"d#.	c #8988A1",
"e#.	c #84839C",
"f#.	c #7F7D97",
"g#.	c #797790",
"h#.	c #7A7993",
"i#.	c #817F9C",
"j#.	c #7E7C99",
"k#.	c #777591",
"l#.	c #73718E",
"m#.	c #73718F",
"n#.	c #726F90",
"o#.	c #726F91",
"p#.	c #726E93",
"q#.	c #716D94",
"r#.	c #716E96",
"s#.	c #706A9B",
"t#.	c #6F679F",
"u#.	c #6E67A2",
"v#.	c #6D65A4",
"w#.	c #6C63A6",
"x#.	c #6C63A7",
"y#.	c #6A61A7",
"z#.	c #675DA3",
"A#.	c #7165B7",
"B#.	c #8376D6",
"C#.	c #6459A5",
"D#.	c #141222",
"E#.	c #403C52",
"F#.	c #C6BBF2",
"G#.	c #D6CCFF",
"H#.	c #A197D2",
"I#.	c #9287C7",
"J#.	c #B3A9E0",
"K#.	c #C8BDF8",
"L#.	c #AEA3DA",
"M#.	c #07060E",
"N#.	c #9E92BC",
"O#.	c #71688E",
"P#.	c #7668B7",
"Q#.	c #574E81",
"R#.	c #1E183E",
"S#.	c #6E58DA",
"T#.	c #6753CC",
"U#.	c #614FC1",
"V#.	c #6351C1",
"W#.	c #6250BE",
"X#.	c #755FE3",
"Y#.	c #463A89",
"Z#.	c #55555D",
"`#.	c #4C4B52",
" $.	c #424248",
".$.	c #F7F6FF",
"+$.	c #41414F",
"@$.	c #9291AC",
"#$.	c #A6A5C2",
"$$.	c #7C7B91",
"%$.	c #5B5A6B",
"&$.	c #42414E",
"*$.	c #3B3A44",
"=$.	c #363641",
"-$.	c #3B3A45",
";$.	c #454451",
">$.	c #4E4D5C",
",$.	c #68677B",
"'$.	c #717085",
")$.	c #797890",
"!$.	c #84829E",
"~$.	c #8A8AA6",
"{$.	c #807E9A",
"]$.	c #716F88",
"^$.	c #797791",
"/$.	c #8684A4",
"($.	c #8986A9",
"_$.	c #8785A7",
":$.	c #8481A5",
"<$.	c #7F7CA0",
"[$.	c #7B789D",
"}$.	c #7A779C",
"|$.	c #79749C",
"1$.	c #76729A",
"2$.	c #736E98",
"3$.	c #706B95",
"4$.	c #6E6994",
"5$.	c #706A98",
"6$.	c #6E66A1",
"7$.	c #6D64A4",
"8$.	c #6B61A8",
"9$.	c #6B60AA",
"0$.	c #675DA7",
"a$.	c #695DAB",
"b$.	c #7E70CF",
"c$.	c #796BCC",
"d$.	c #342E58",
"e$.	c #232030",
"f$.	c #ACA2D6",
"g$.	c #E2D7FF",
"h$.	c #988ECB",
"i$.	c #8A80BE",
"j$.	c #D8CCFF",
"k$.	c #575171",
"l$.	c #1E1B32",
"m$.	c #554F77",
"n$.	c #2D274B",
"o$.	c #2E2847",
"p$.	c #272052",
"q$.	c #715CE2",
"r$.	c #6451C8",
"s$.	c #624FC2",
"t$.	c #6150BE",
"u$.	c #735DDE",
"v$.	c #50439C",
"w$.	c #A6A4B4",
"x$.	c #DCDBF0",
"y$.	c #3B3A40",
"z$.	c #202022",
"A$.	c #76768C",
"B$.	c #B0AECF",
"C$.	c #7C7C93",
"D$.	c #4F4F5E",
"E$.	c #29292F",
"F$.	c #0F0F11",
"G$.	c #1E1E23",
"H$.	c #18171C",
"I$.	c #0C0C0E",
"J$.	c #09080A",
"K$.	c #030304",
"L$.	c #24232B",
"M$.	c #3B3B48",
"N$.	c #23232B",
"O$.	c #0B0C0E",
"P$.	c #353340",
"Q$.	c #515064",
"R$.	c #59576E",
"S$.	c #605D77",
"T$.	c #6E6B8A",
"U$.	c #797699",
"V$.	c #7D79A0",
"W$.	c #807CA7",
"X$.	c #827CAA",
"Y$.	c #837DAD",
"Z$.	c #827EAF",
"`$.	c #817BAE",
" %.	c #7A73A6",
".%.	c #726C9E",
"+%.	c #6F689A",
"@%.	c #6E679B",
"#%.	c #6E669D",
"$%.	c #6B60A9",
"%%.	c #6A5FAB",
"&%.	c #695DAA",
"*%.	c #665BA7",
"=%.	c #7568C4",
"-%.	c #8272DD",
";%.	c #453D78",
">%.	c #13111D",
",%.	c #978EBF",
"'%.	c #E7DBFF",
")%.	c #8B82BC",
"!%.	c #B6A9E9",
"~%.	c #020106",
"{%.	c #09070F",
"]%.	c #06050C",
"^%.	c #322865",
"/%.	c #735DE6",
"(%.	c #634FC5",
"_%.	c #6F5BD7",
":%.	c #584AAC",
"<%.	c #06050B",
"[%.	c #2F3033",
"}%.	c #E7E5FA",
"|%.	c #6E6E78",
"1%.	c #52525A",
"2%.	c #656477",
"3%.	c #9695B1",
"4%.	c #3A3A44",
"5%.	c #32313B",
"6%.	c #83829A",
"7%.	c #85849D",
"8%.	c #7A7990",
"9%.	c #77768C",
"0%.	c #727186",
"a%.	c #6A687C",
"b%.	c #5E5D6F",
"c%.	c #4D4D5B",
"d%.	c #3C3B47",
"e%.	c #2B2A33",
"f%.	c #1D1C22",
"g%.	c #0A0B0D",
"h%.	c #17161D",
"i%.	c #1F1D27",
"j%.	c #242430",
"k%.	c #2A2A39",
"l%.	c #3A384D",
"m%.	c #534F6F",
"n%.	c #6A648F",
"o%.	c #7A73A5",
"p%.	c #827BB5",
"q%.	c #857EBA",
"r%.	c #7D76B2",
"s%.	c #716AA2",
"t%.	c #6C649D",
"u%.	c #6B61AA",
"v%.	c #6A5FAC",
"w%.	c #6A5EAD",
"x%.	c #695EAE",
"y%.	c #6559A9",
"z%.	c #6C5FB8",
"A%.	c #8373E1",
"B%.	c #584D98",
"C%.	c #8D85A9",
"D%.	c #E8DCFF",
"E%.	c #6C6398",
"F%.	c #8C82BD",
"G%.	c #F5E7FF",
"H%.	c #575176",
"I%.	c #3C3179",
"J%.	c #745EE7",
"K%.	c #6551C8",
"L%.	c #6A56D3",
"M%.	c #6250C1",
"N%.	c #624FBE",
"O%.	c #06060D",
"P%.	c #797984",
"Q%.	c #E3E3F8",
"R%.	c #C1BFD0",
"S%.	c #505057",
"T%.	c #545261",
"U%.	c #0A0A0C",
"V%.	c #313139",
"W%.	c #8A89A4",
"X%.	c #82819A",
"Y%.	c #7C7B92",
"Z%.	c #8887A0",
"`%.	c #84829D",
" &.	c #7B7A93",
".&.	c #69687E",
"+&.	c #5A5A6D",
"@&.	c #4B495A",
"#&.	c #373643",
"$&.	c #1A1920",
"%&.	c #060507",
"&&.	c #08080B",
"*&.	c #1A1823",
"=&.	c #343048",
"-&.	c #504B70",
";&.	c #655F90",
">&.	c #8178B8",
",&.	c #7A72B2",
"'&.	c #695DB0",
")&.	c #6559AC",
"!&.	c #695BB3",
"~&.	c #8170DF",
"{&.	c #6457AE",
"]&.	c #110E1D",
"^&.	c #837B9B",
"/&.	c #DCCFFB",
"(&.	c #473F6E",
"_&.	c #AFA5D0",
":&.	c #CBBEEE",
"<&.	c #47398E",
"[&.	c #735DE4",
"}&.	c #6754CF",
"|&.	c #4D3F9A",
"1&.	c #624FBD",
"2&.	c #705CD9",
"3&.	c #5648A7",
"4&.	c #F7F5FF",
"5&.	c #42424F",
"6&.	c #78778D",
"7&.	c #77768D",
"8&.	c #76758A",
"9&.	c #757489",
"0&.	c #7D7A94",
"a&.	c #7F7D96",
"b&.	c #82819C",
"c&.	c #8785A2",
"d&.	c #8A88A7",
"e&.	c #8886A5",
"f&.	c #7B7897",
"g&.	c #6B6985",
"h&.	c #615F79",
"i&.	c #454557",
"j&.	c #1C1C23",
"k&.	c #040305",
"l&.	c #302D44",
"m&.	c #776EAD",
"n&.	c #7C73B7",
"o&.	c #69619D",
"p&.	c #6B61A9",
"q&.	c #6B60AB",
"r&.	c #695DAF",
"s&.	c #695CB1",
"t&.	c #665AB0",
"u&.	c #6558AE",
"v&.	c #7E6CDB",
"w&.	c #6A5BBC",
"x&.	c #110D1E",
"y&.	c #867F9C",
"z&.	c #B7ACCF",
"A&.	c #232238",
"B&.	c #C4B9E3",
"C&.	c #7C739B",
"D&.	c #020206",
"E&.	c #614CC0",
"F&.	c #7A62F1",
"G&.	c #5E4BBA",
"H&.	c #5F4CBE",
"I&.	c #765FEB",
"J&.	c #3C3178",
"K&.	c #282050",
"L&.	c #6F5BDB",
"M&.	c #6452C6",
"N&.	c #715EDA",
"O&.	c #5345A2",
"P&.	c #48484F",
"Q&.	c #DFDDF2",
"R&.	c #BEBDCF",
"S&.	c #E4E4F9",
"T&.	c #A3A3B2",
"U&.	c #3E3E49",
"V&.	c #7B7A91",
"W&.	c #8E8EA8",
"X&.	c #85849C",
"Y&.	c #75748A",
"Z&.	c #74728A",
"`&.	c #767490",
" *.	c #7D7A98",
".*.	c #8482A3",
"+*.	c #8684A9",
"@*.	c #8A87AC",
"#*.	c #827FA4",
"$*.	c #585671",
"%*.	c #282733",
"&*.	c #060509",
"**.	c #1E1C2C",
"=*.	c #8177BC",
"-*.	c #7E74BB",
";*.	c #68609D",
">*.	c #695CB0",
",*.	c #685BB2",
"'*.	c #6659B0",
")*.	c #6357AE",
"!*.	c #806FE2",
"~*.	c #6052AD",
"{*.	c #7D7593",
"]*.	c #797193",
"^*.	c #2B273A",
"/*.	c #887DB3",
"(*.	c #181624",
"_*.	c #020104",
":*.	c #2A2256",
"<*.	c #6652CB",
"[*.	c #6E59DA",
"}*.	c #6D58D9",
"|*.	c #624EC2",
"1*.	c #423682",
"2*.	c #735DE3",
"3*.	c #6250BD",
"4*.	c #6F5CD6",
"5*.	c #594AAD",
"6*.	c #9998A6",
"7*.	c #CDCDE0",
"8*.	c #373742",
"9*.	c #8F8EA7",
"0*.	c #84839B",
"a*.	c #74728E",
"b*.	c #72708D",
"c*.	c #706F8C",
"d*.	c #736F8F",
"e*.	c #7B789A",
"f*.	c #8885AD",
"g*.	c #827EA7",
"h*.	c #686588",
"i*.	c #4B4862",
"j*.	c #2A2939",
"k*.	c #131219",
"l*.	c #322E48",
"m*.	c #887ECB",
"n*.	c #7B72BB",
"o*.	c #6960A1",
"p*.	c #6B62A6",
"q*.	c #685AB3",
"r*.	c #6659B3",
"s*.	c #6759B5",
"t*.	c #7E6CE1",
"u*.	c #3C336C",
"v*.	c #584F78",
"w*.	c #181626",
"x*.	c #000002",
"y*.	c #0E0D16",
"z*.	c #16122E",
"A*.	c #6551C9",
"B*.	c #846AFF",
"C*.	c #241C48",
"D*.	c #6351C4",
"E*.	c #6D58D6",
"F*.	c #6251BE",
"G*.	c #6957CB",
"H*.	c #6856C9",
"I*.	c #17132E",
"J*.	c #252529",
"K*.	c #D7D5E9",
"L*.	c #E2E0F4",
"M*.	c #9594A1",
"N*.	c #26262F",
"O*.	c #6E6E82",
"P*.	c #908FAB",
"Q*.	c #86859E",
"R*.	c #736E8F",
"S*.	c #777398",
"T*.	c #827EA9",
"U*.	c #8681B1",
"V*.	c #847EAF",
"W*.	c #7B76A5",
"X*.	c #625C84",
"Y*.	c #3C3A54",
"Z*.	c #181723",
"`*.	c #232135",
" =.	c #746AAD",
".=.	c #7E73BF",
"+=.	c #6960A3",
"@=.	c #675AB4",
"#=.	c #6457B1",
"$=.	c #6A5BBD",
"%=.	c #7B69DE",
"&=.	c #382F66",
"*=.	c #030306",
"==.	c #493B92",
"-=.	c #6652C8",
";=.	c #1D183B",
">=.	c #705BDE",
",=.	c #6553C8",
"'=.	c #6150C0",
")=.	c #6957C8",
"!=.	c #6C58D0",
"~=.	c #1E193C",
"{=.	c #797983",
"]=.	c #E5E4F8",
"^=.	c #4C4C51",
"/=.	c #5F5E70",
"(=.	c #8C8BA6",
"_=.	c #8A89A3",
":=.	c #736E92",
"<=.	c #706C92",
"[=.	c #706B93",
"}=.	c #76719B",
"|=.	c #7C77A5",
"1=.	c #837DAF",
"2=.	c #8680B8",
"3=.	c #7872A6",
"4=.	c #5B5680",
"5=.	c #34324C",
"6=.	c #0D0C13",
"7=.	c #161421",
"8=.	c #746BB2",
"9=.	c #7A6FBD",
"0=.	c #685EA3",
"a=.	c #685BB1",
"b=.	c #6356B1",
"c=.	c #6E5EC5",
"d=.	c #7C6AE2",
"e=.	c #3C336F",
"f=.	c #18132F",
"g=.	c #3E337D",
"h=.	c #725DE2",
"i=.	c #6756C7",
"j=.	c #6D5ACF",
"k=.	c #25204C",
"l=.	c #050514",
"m=.	c #ABAAAA",
"n=.	c #9494A1",
"o=.	c #090908",
"p=.	c #484855",
"q=.	c #8B89A3",
"r=.	c #8E8CA7",
"s=.	c #7A798F",
"t=.	c #716D96",
"u=.	c #706B94",
"v=.	c #706B96",
"w=.	c #716C9A",
"x=.	c #7872A5",
"y=.	c #827BB7",
"z=.	c #8A82C5",
"A=.	c #7972AE",
"B=.	c #15121E",
"C=.	c #1F1D31",
"D=.	c #7C71BE",
"E=.	c #7166B0",
"F=.	c #695EA6",
"G=.	c #6A5EAC",
"H=.	c #695DAE",
"I=.	c #6759B4",
"J=.	c #6758B6",
"K=.	c #6355B1",
"L=.	c #6A5AC1",
"M=.	c #7D6BE4",
"N=.	c #594BA3",
"O=.	c #16122A",
"P=.	c #5142A0",
"Q=.	c #735EE3",
"R=.	c #604EBC",
"S=.	c #6655C6",
"T=.	c #6F5DD3",
"U=.	c #2A2352",
"V=.	c #1B184B",
"W=.	c #0D0B1F",
"X=.	c #CDCDCC",
"Y=.	c #B5B5B3",
"Z=.	c #A3A4A0",
"`=.	c #969692",
" -.	c #8A8A86",
".-.	c #8F8F8B",
"+-.	c #B6B6B3",
"@-.	c #B4B4B2",
"#-.	c #C3C3C2",
"$-.	c #D2D2D1",
"%-.	c #36363A",
"&-.	c #6A6A70",
"*-.	c #1F1E26",
"=-.	c #9190AB",
"--.	c #807E96",
";-.	c #706B98",
">-.	c #6F6999",
",-.	c #6E6799",
"'-.	c #726AA0",
")-.	c #8E85CC",
"!-.	c #564F7D",
"~-.	c #47416D",
"{-.	c #8478CC",
"]-.	c #6A60A7",
"^-.	c #675AB3",
"/-.	c #6658B8",
"(-.	c #6354B3",
"_-.	c #6757BA",
":-.	c #7A67DF",
"<-.	c #7360D5",
"[-.	c #352D65",
"}-.	c #5645AB",
"|-.	c #715BDE",
"1-.	c #6252BE",
"2-.	c #6554C4",
"3-.	c #725ED7",
"4-.	c #2E2657",
"5-.	c #201E5A",
"6-.	c #231E55",
"7-.	c #525251",
"8-.	c #C5C5C2",
"9-.	c #A2A29E",
"0-.	c #646462",
"a-.	c #3D3D40",
"b-.	c #2A2A32",
"c-.	c #22212E",
"d-.	c #21202E",
"e-.	c #23232F",
"f-.	c #2A2A33",
"g-.	c #323136",
"h-.	c #70706D",
"i-.	c #8B8B87",
"j-.	c #92928F",
"k-.	c #A3A3A1",
"l-.	c #A0A09F",
"m-.	c #5B5A6C",
"n-.	c #9291AB",
"o-.	c #6D669A",
"p-.	c #726BA3",
"q-.	c #8179BB",
"r-.	c #222033",
"s-.	c #0D0C14",
"t-.	c #766BB7",
"u-.	c #766BBA",
"v-.	c #695EA8",
"w-.	c #695CAF",
"x-.	c #685CB1",
"y-.	c #6657B7",
"z-.	c #6657B8",
"A-.	c #6455B8",
"B-.	c #6152B3",
"C-.	c #705ECE",
"D-.	c #816BF1",
"E-.	c #433881",
"F-.	c #1D183D",
"G-.	c #6D59DA",
"H-.	c #6754CA",
"I-.	c #6553C3",
"J-.	c #725DD6",
"K-.	c #332A5F",
"L-.	c #1B194B",
"M-.	c #373083",
"N-.	c #080714",
"O-.	c #19182B",
"P-.	c #151434",
"Q-.	c #22204C",
"R-.	c #272654",
"S-.	c #2C2D5B",
"T-.	c #302F5D",
"U-.	c #2F2E5B",
"V-.	c #2A2954",
"W-.	c #26254B",
"X-.	c #1D1D3B",
"Y-.	c #121228",
"Z-.	c #191826",
"`-.	c #3C3B3B",
" ;.	c #5C5B59",
".;.	c #8A8A87",
"+;.	c #91918F",
"@;.	c #080809",
"#;.	c #494956",
"$;.	c #6B6598",
"%;.	c #837ABD",
"&;.	c #655F95",
"*;.	c #47416F",
"=;.	c #8175CA",
"-;.	c #695EA7",
";;.	c #6556B9",
">;.	c #6958C4",
",;.	c #806BF0",
"';.	c #483C8A",
");.	c #020204",
"!;.	c #5A48B2",
"~;.	c #735EE4",
"{;.	c #5F4FBC",
"];.	c #715DD4",
"^;.	c #342B61",
"/;.	c #171642",
"(;.	c #3A348D",
"_;.	c #221F53",
":;.	c #0C0B17",
"<;.	c #1C1B3B",
"[;.	c #20204F",
"};.	c #312D65",
"|;.	c #36356A",
"1;.	c #363467",
"2;.	c #363564",
"3;.	c #343560",
"4;.	c #34345E",
"5;.	c #35345E",
"6;.	c #363760",
"7;.	c #383862",
"8;.	c #373662",
"9;.	c #363761",
"0;.	c #31325C",
"a;.	c #28294D",
"b;.	c #1C1D3A",
"c;.	c #1E1F33",
"d;.	c #21212D",
"e;.	c #2C2C32",
"f;.	c #555554",
"g;.	c #767573",
"h;.	c #A8A8A6",
"i;.	c #212120",
"j;.	c #121215",
"k;.	c #707083",
"l;.	c #9493AE",
"m;.	c #7F7E95",
"n;.	c #717086",
"o;.	c #7E7D96",
"p;.	c #7D7C93",
"q;.	c #79788F",
"r;.	c #75758B",
"s;.	c #6E689D",
"t;.	c #867CC4",
"u;.	c #312E49",
"v;.	c #28243D",
"w;.	c #050509",
"x;.	c #11101B",
"y;.	c #786DBC",
"z;.	c #7167B4",
"A;.	c #685DA9",
"B;.	c #6658B7",
"C;.	c #6556BA",
"D;.	c #6655BB",
"E;.	c #6253B6",
"F;.	c #6656BF",
"G;.	c #7E69EE",
"H;.	c #493D8C",
"I;.	c #7761EE",
"J;.	c #715ED4",
"K;.	c #332A60",
"L;.	c #191948",
"M;.	c #342F7E",
"N;.	c #342E7C",
"O;.	c #0C0A1C",
"P;.	c #131328",
"Q;.	c #27244D",
"R;.	c #353268",
"S;.	c #393871",
"T;.	c #363569",
"U;.	c #32305F",
"V;.	c #302F5B",
"W;.	c #2F2F59",
"X;.	c #302F59",
"Y;.	c #31315A",
"Z;.	c #323158",
"`;.	c #313157",
" >.	c #313155",
".>.	c #313255",
"+>.	c #323357",
"@>.	c #333458",
"#>.	c #36375D",
"$>.	c #3B3B63",
"%>.	c #393A62",
"&>.	c #303156",
"*>.	c #28294A",
"=>.	c #1E1E39",
"->.	c #151425",
";>.	c #32323A",
">>.	c #27282A",
",>.	c #2C2A32",
"'>.	c #818099",
")>.	c #8988A0",
"!>.	c #7D7C94",
"~>.	c #7C7B93",
"{>.	c #818098",
"]>.	c #8888A1",
"^>.	c #8988A2",
"/>.	c #736F95",
"(>.	c #6C659B",
"_>.	c #766EAD",
":>.	c #8177C0",
"<>.	c #1B1928",
"[>.	c #25233B",
"}>.	c #312D4B",
"|>.	c #514A7F",
"1>.	c #8074CA",
"2>.	c #685AB2",
"3>.	c #6759B3",
"4>.	c #6656B9",
"5>.	c #6555BA",
"6>.	c #6555BC",
"7>.	c #6152B7",
"8>.	c #6655C1",
"9>.	c #7F69F0",
"0>.	c #463A87",
"a>.	c #0F0C1F",
"b>.	c #6E58DC",
"c>.	c #6D59D9",
"d>.	c #5F4EBD",
"e>.	c #6552C3",
"f>.	c #6352C1",
"g>.	c #6554C3",
"h>.	c #705DD4",
"i>.	c #30285D",
"j>.	c #1C194C",
"k>.	c #302B74",
"l>.	c #36307F",
"m>.	c #262259",
"n>.	c #1E1E41",
"o>.	c #2F2D62",
"p>.	c #383673",
"q>.	c #393671",
"r>.	c #343267",
"s>.	c #2F2E5D",
"t>.	c #302E5B",
"u>.	c #30305C",
"v>.	c #31305B",
"w>.	c #31305A",
"x>.	c #313159",
"y>.	c #313058",
"z>.	c #313158",
"A>.	c #323256",
"B>.	c #323255",
"C>.	c #333255",
"D>.	c #333254",
"E>.	c #333454",
"F>.	c #353657",
"G>.	c #383A5D",
"H>.	c #38395E",
"I>.	c #38395D",
"J>.	c #303154",
"K>.	c #262845",
"L>.	c #25263D",
"M>.	c #1A1B2A",
"N>.	c #0C0B12",
"O>.	c #34343D",
"P>.	c #6F6E83",
"Q>.	c #646376",
"R>.	c #3C3C47",
"S>.	c #242428",
"T>.	c #171619",
"U>.	c #16161A",
"V>.	c #1F1E23",
"W>.	c #28272F",
"X>.	c #2B2A32",
"Y>.	c #313039",
"Z>.	c #36363F",
"`>.	c #3B3B45",
" ,.	c #474754",
".,.	c #545363",
"+,.	c #626174",
"@,.	c #706F84",
"#,.	c #88869F",
"$,.	c #8C8AA4",
"%,.	c #6F699E",
"&,.	c #6A6399",
"*,.	c #847BC2",
"=,.	c #635C93",
"-,.	c #0F0F18",
";,.	c #494371",
">,.	c #1C192C",
",,.	c #7F73C8",
"',.	c #6F64B1",
"),.	c #695EAA",
"!,.	c #6656B8",
"~,.	c #6151B8",
"{,.	c #6755C1",
"],.	c #7E68ED",
"^,.	c #3F3479",
"/,.	c #0B0915",
"(,.	c #25204A",
"_,.	c #4E3F9C",
":,.	c #775FEC",
"<,.	c #6451C1",
"[,.	c #705DD3",
"},.	c #2E2658",
"|,.	c #1B1A4D",
"1,.	c #312C76",
"2,.	c #2E296F",
"3,.	c #352F7D",
"4,.	c #0F0D23",
"5,.	c #0D0C1D",
"6,.	c #191838",
"7,.	c #2A2758",
"8,.	c #32306C",
"9,.	c #373575",
"0,.	c #36326D",
"a,.	c #312E63",
"b,.	c #2F2C5D",
"c,.	c #2F2D5B",
"d,.	c #31305F",
"e,.	c #353265",
"f,.	c #39376C",
"g,.	c #39386C",
"h,.	c #39376A",
"i,.	c #373767",
"j,.	c #373665",
"k,.	c #363563",
"l,.	c #36365F",
"m,.	c #34345C",
"n,.	c #34345B",
"o,.	c #323253",
"p,.	c #323254",
"q,.	c #333453",
"r,.	c #323352",
"s,.	c #363757",
"t,.	c #383B5C",
"u,.	c #3C3E61",
"v,.	c #3C3E60",
"w,.	c #353756",
"x,.	c #2F304A",
"y,.	c #202031",
"z,.	c #7F7E96",
"A,.	c #6F6E81",
"B,.	c #6A6A7D",
"C,.	c #3D3C49",
"D,.	c #26262D",
"E,.	c #151418",
"F,.	c #030509",
"G,.	c #12141C",
"H,.	c #101012",
"I,.	c #575667",
"J,.	c #6E669F",
"K,.	c #867DC8",
"L,.	c #2C2942",
"M,.	c #353052",
"N,.	c #302C49",
"O,.	c #605898",
"P,.	c #7C6FC4",
"Q,.	c #685CA8",
"R,.	c #6658B6",
"S,.	c #6555BB",
"T,.	c #6454BD",
"U,.	c #6251B8",
"V,.	c #6956C4",
"W,.	c #7E68F0",
"X,.	c #342C67",
"Y,.	c #392F72",
"Z,.	c #6150BD",
"`,.	c #1B1633",
" '.	c #2E265F",
".'.	c #7860F0",
"+'.	c #604FC0",
"@'.	c #6553C6",
"#'.	c #6350C0",
"$'.	c #5646A8",
"%'.	c #6352BF",
"&'.	c #6353C0",
"*'.	c #6654C4",
"='.	c #2B2453",
"-'.	c #1B184A",
";'.	c #322D78",
">'.	c #2B2767",
",'.	c #352F7E",
"''.	c #2A2662",
")'.	c #1A183C",
"!'.	c #221F4A",
"~'.	c #2B285F",
"{'.	c #363175",
"]'.	c #383377",
"^'.	c #373373",
"/'.	c #322E6A",
"('.	c #2E2C62",
"_'.	c #2F2C60",
":'.	c #2F2C5E",
"<'.	c #302E60",
"['.	c #36336A",
"}'.	c #3A3972",
"|'.	c #333163",
"1'.	c #262448",
"2'.	c #252445",
"3'.	c #272648",
"4'.	c #29294A",
"5'.	c #1D1D40",
"6'.	c #1B1A40",
"7'.	c #23244B",
"8'.	c #2B2B54",
"9'.	c #2F2F5B",
"0'.	c #34345F",
"a'.	c #373961",
"b'.	c #39395F",
"c'.	c #37375B",
"d'.	c #343557",
"e'.	c #323353",
"f'.	c #333452",
"g'.	c #323552",
"h'.	c #323452",
"i'.	c #323551",
"j'.	c #333552",
"k'.	c #373957",
"l'.	c #3C3D5D",
"m'.	c #3E3F60",
"n'.	c #3C3E5F",
"o'.	c #32324F",
"p'.	c #222335",
"q'.	c #12121C",
"r'.	c #080608",
"s'.	c #676579",
"t'.	c #69687C",
"u'.	c #3B3B46",
"v'.	c #3E3C48",
"w'.	c #050405",
"x'.	c #12141A",
"y'.	c #3C4158",
"z'.	c #40435A",
"A'.	c #43465F",
"B'.	c #2A2E43",
"C'.	c #0A0B0F",
"D'.	c #51505E",
"E'.	c #555565",
"F'.	c #35353E",
"G'.	c #25242B",
"H'.	c #282831",
"I'.	c #727185",
"J'.	c #7B72B4",
"K'.	c #665E98",
"L'.	c #27233D",
"M'.	c #4D4677",
"N'.	c #332E51",
"O'.	c #8275CD",
"P'.	c #695EAB",
"Q'.	c #6454BC",
"R'.	c #6454BE",
"S'.	c #6150B8",
"T'.	c #6B59CC",
"U'.	c #7863EB",
"V'.	c #2B2454",
"W'.	c #4C3D8E",
"X'.	c #846CFA",
"Y'.	c #0D0A1A",
"Z'.	c #6E59DC",
"`'.	c #5F4CBD",
" ).	c #6250C4",
".).	c #6150C1",
"+).	c #6956CC",
"@).	c #5345A5",
"#).	c #5848AD",
"$).	c #6855C8",
"%).	c #6252BD",
"&).	c #2B2451",
"*).	c #17143E",
"=).	c #332D7A",
"-).	c #2C276A",
";).	c #2F2A6F",
">).	c #373283",
",).	c #100F27",
"').	c #04040A",
")).	c #2A265E",
"!).	c #423D94",
"~).	c #353378",
"{).	c #302C68",
"]).	c #2F2C66",
"^).	c #2E2B62",
"/).	c #2E2C60",
"().	c #322F64",
"_).	c #383570",
":).	c #393772",
"<).	c #322F63",
"[).	c #1E1D3A",
"}).	c #0A0A13",
"|).	c #4E4E4F",
"1).	c #49494C",
"2).	c #3B3B41",
"3).	c #32323D",
"4).	c #2B2A3A",
"5).	c #222235",
"6).	c #1D1E36",
"7).	c #222341",
"8).	c #272749",
"9).	c #2B2B4F",
"0).	c #2E3054",
"a).	c #333459",
"b).	c #3B3C62",
"c).	c #3A3B5F",
"d).	c #363959",
"e).	c #333553",
"f).	c #323451",
"g).	c #333451",
"h).	c #333450",
"i).	c #343552",
"j).	c #373855",
"k).	c #3A3B5B",
"l).	c #3E3F61",
"m).	c #3B3C5C",
"n).	c #30324C",
"o).	c #202033",
"p).	c #0D0D14",
"q).	c #5C5B6B",
"r).	c #50505D",
"s).	c #84829B",
"t).	c #A09FBD",
"u).	c #41414D",
"v).	c #3E4158",
"w).	c #3B3E53",
"x).	c #3D4056",
"y).	c #2E3248",
"z).	c #0B0E15",
"A).	c #5C5B6A",
"B).	c #9594B1",
"C).	c #88879E",
"D).	c #86859D",
"E).	c #6D6D81",
"F).	c #585767",
"G).	c #44434F",
"H).	c #292930",
"I).	c #393943",
"J).	c #88879F",
"K).	c #6D66A0",
"L).	c #8178C1",
"M).	c #433E67",
"N).	c #463F6D",
"O).	c #201E31",
"P).	c #050407",
"Q).	c #7266B4",
"R).	c #7569BA",
"S).	c #6A5EAE",
"T).	c #6758B5",
"U).	c #6453BE",
"V).	c #6050B7",
"W).	c #6D5AD2",
"X).	c #7561E4",
"Y).	c #1F193B",
"Z).	c #4F4099",
"`).	c #9076FF",
" !.	c #6653C9",
".!.	c #362C6D",
"+!.	c #06060E",
"@!.	c #5241A5",
"#!.	c #7860EC",
"$!.	c #6956CE",
"%!.	c #5D4CB6",
"&!.	c #4A3D92",
"*!.	c #6754C7",
"=!.	c #6552C2",
"-!.	c #6553C1",
";!.	c #7560DC",
">!.	c #312857",
",!.	c #0E0E28",
"'!.	c #342E7E",
")!.	c #2E286C",
"!!.	c #2C2767",
"~!.	c #33307C",
"{!.	c #2A2762",
"]!.	c #020103",
"^!.	c #020205",
"/!.	c #161634",
"(!.	c #39357D",
"_!.	c #343070",
":!.	c #2D2A61",
"<!.	c #2E2B61",
"[!.	c #302D65",
"}!.	c #373473",
"|!.	c #393573",
"1!.	c #2B2957",
"2!.	c #17162F",
"3!.	c #040508",
"4!.	c #040403",
"5!.	c #50504E",
"6!.	c #B7B7B5",
"7!.	c #ACACA9",
"8!.	c #A1A19E",
"9!.	c #999995",
"0!.	c #91918D",
"a!.	c #676664",
"b!.	c #464649",
"c!.	c #3C3C41",
"d!.	c #2F2F3A",
"e!.	c #313143",
"f!.	c #282941",
"g!.	c #2A2C47",
"h!.	c #363759",
"i!.	c #3D3F62",
"j!.	c #3C3F61",
"k!.	c #393C5C",
"l!.	c #373958",
"m!.	c #353654",
"n!.	c #343551",
"o!.	c #33344F",
"p!.	c #343550",
"q!.	c #363754",
"r!.	c #3E4062",
"s!.	c #3C3D5C",
"t!.	c #2C2E46",
"u!.	c #14141F",
"v!.	c #4F4F5D",
"w!.	c #9897B3",
"x!.	c #34343E",
"y!.	c #3B3E54",
"z!.	c #292D41",
"A!.	c #5E5D6A",
"B!.	c #78778C",
"C!.	c #807E95",
"D!.	c #83829B",
"E!.	c #8B8AA5",
"F!.	c #605F71",
"G!.	c #24242B",
"H!.	c #222329",
"I!.	c #7B7A90",
"J!.	c #726F95",
"K!.	c #6F68A0",
"L!.	c #6C659E",
"M!.	c #776EB0",
"N!.	c #6B629F",
"O!.	c #433D68",
"P!.	c #423D68",
"Q!.	c #4A4376",
"R!.	c #8073CB",
"S!.	c #6A5FAD",
"T!.	c #6555B9",
"U!.	c #6455BC",
"V!.	c #6453BD",
"W!.	c #604FB7",
"X!.	c #725FDD",
"Y!.	c #6D5BD5",
"Z!.	c #130F26",
"`!.	c #5143A2",
" ~.	c #846CFF",
".~.	c #745FE6",
"+~.	c #322965",
"@~.	c #080611",
"#~.	c #423586",
"$~.	c #7A61F3",
"%~.	c #634FC3",
"&~.	c #6C59D4",
"*~.	c #413682",
"=~.	c #5949AD",
"-~.	c #6B57CE",
";~.	c #6252BF",
">~.	c #7561DE",
",~.	c #32295D",
"'~.	c #020308",
")~.	c #302C77",
"!~.	c #2F2A71",
"~~.	c #2C2768",
"{~.	c #2D2A6D",
"]~.	c #373280",
"^~.	c #151330",
"/~.	c #211F4B",
"(~.	c #080812",
"_~.	c #0E0B1C",
":~.	c #353275",
"<~.	c #373377",
"[~.	c #353270",
"}~.	c #34306C",
"|~.	c #262550",
"1~.	c #121125",
"2~.	c #919190",
"3~.	c #8F8F8D",
"4~.	c #989896",
"5~.	c #878784",
"6~.	c #0B0B12",
"7~.	c #151521",
"8~.	c #1F2031",
"9~.	c #2D2F49",
"0~.	c #373857",
"a~.	c #3D3E5F",
"b~.	c #3D3F5F",
"c~.	c #3A3B5A",
"d~.	c #32334E",
"e~.	c #383956",
"f~.	c #3D3E60",
"g~.	c #2E2F49",
"h~.	c #101019",
"i~.	c #43424E",
"j~.	c #303039",
"k~.	c #111319",
"l~.	c #40445B",
"m~.	c #3A3D53",
"n~.	c #272C40",
"o~.	c #14151C",
"p~.	c #676575",
"q~.	c #8E8EA7",
"r~.	c #757488",
"s~.	c #838299",
"t~.	c #9190A9",
"u~.	c #908FA7",
"v~.	c #575666",
"w~.	c #717087",
"x~.	c #737094",
"y~.	c #7A71B7",
"z~.	c #4F4978",
"A~.	c #524C80",
"B~.	c #100E18",
"C~.	c #191628",
"D~.	c #7064B4",
"E~.	c #695DA9",
"F~.	c #6352BE",
"G~.	c #604FB8",
"H~.	c #7662E5",
"I~.	c #080710",
"J~.	c #745FE4",
"K~.	c #6B57D3",
"L~.	c #7861EC",
"M~.	c #5F4EBF",
"N~.	c #302863",
"O~.	c #06050D",
"P~.	c #372C71",
"Q~.	c #7A63F4",
"R~.	c #6652CA",
"S~.	c #745EE4",
"T~.	c #433787",
"U~.	c #715BDA",
"V~.	c #6451C2",
"W~.	c #6553C2",
"X~.	c #26235D",
"Y~.	c #352E7D",
"Z~.	c #2C2869",
"`~.	c #2C2868",
" {.	c #342F7B",
".{.	c #2D2866",
"+{.	c #191739",
"@{.	c #393480",
"#{.	c #322E6B",
"${.	c #2B295D",
"%{.	c #131127",
"&{.	c #1E1E2E",
"*{.	c #2A2A40",
"={.	c #3D3E5E",
"-{.	c #373856",
";{.	c #32334F",
">{.	c #353753",
",{.	c #3E3F62",
"'{.	c #404165",
"){.	c #35353F",
"!{.	c #9090AA",
"~{.	c #101118",
"{{.	c #3F435A",
"]{.	c #3B3E55",
"^{.	c #25293C",
"/{.	c #181A21",
"({.	c #6F6D7F",
"_{.	c #8B89A4",
":{.	c #828197",
"<{.	c #9593AC",
"[{.	c #4A4958",
"}{.	c #373741",
"|{.	c #6F689D",
"1{.	c #6D669F",
"2{.	c #746BAC",
"3{.	c #69609D",
"4{.	c #564E85",
"5{.	c #3B365D",
"6{.	c #645B9F",
"7{.	c #786CC1",
"8{.	c #6251BD",
"9{.	c #6050B9",
"0{.	c #7B65EC",
"a{.	c #5B4AB1",
"b{.	c #040308",
"c{.	c #16122D",
"d{.	c #6D5ADA",
"e{.	c #6D59D8",
"f{.	c #5F4EBC",
"g{.	c #705CDD",
"h{.	c #7661EC",
"i{.	c #6250C7",
"j{.	c #322863",
"k{.	c #3E327F",
"l{.	c #7862F4",
"m{.	c #6654CF",
"n{.	c #604DBE",
"o{.	c #5F4DBC",
"p{.	c #705CDF",
"q{.	c #5E4DBB",
"r{.	c #0E0B1D",
"s{.	c #5C4BB2",
"t{.	c #6E5AD6",
"u{.	c #614FBC",
"v{.	c #6554C2",
"w{.	c #7461DE",
"x{.	c #332B62",
"y{.	c #151130",
"z{.	c #352F7F",
"A{.	c #2E286D",
"B{.	c #2D2969",
"C{.	c #2E2A6C",
"D{.	c #383282",
"E{.	c #15132E",
"F{.	c #2F2C6A",
"G{.	c #3E398A",
"H{.	c #0E0C1D",
"I{.	c #0F0E1F",
"J{.	c #2F2C62",
"K{.	c #2F2C61",
"L{.	c #25234C",
"M{.	c #1B1A37",
"N{.	c #101021",
"O{.	c #0A0914",
"P{.	c #8B8B8C",
"Q{.	c #050508",
"R{.	c #11111A",
"S{.	c #1E1F2E",
"T{.	c #292A42",
"U{.	c #3B3D5C",
"V{.	c #383957",
"W{.	c #33334E",
"X{.	c #404265",
"Y{.	c #101119",
"Z{.	c #2D2F48",
"`{.	c #2A2C44",
" ].	c #2A2B44",
".].	c #26273D",
"+].	c #202134",
"@].	c #151622",
"#].	c #25252C",
"$].	c #42424E",
"%].	c #11131A",
"&].	c #3B3D53",
"*].	c #282C40",
"=].	c #191B24",
"-].	c #6D6B7C",
";].	c #6F6F84",
">].	c #77768B",
",].	c #6E6D81",
"'].	c #8987A1",
")].	c #0B090A",
"!].	c #222228",
"~].	c #908EAB",
"{].	c #6F6A9C",
"]].	c #766CB1",
"^].	c #5E558F",
"/].	c #5C5490",
"(].	c #0C0A11",
"_].	c #423C68",
":].	c #685DAA",
"<].	c #695EAD",
"[].	c #6151BD",
"}].	c #6151BE",
"|].	c #7C66F0",
"1].	c #51439E",
"2].	c #211B42",
"3].	c #7862EE",
"4].	c #6C59D7",
"5].	c #5B4BB5",
"6].	c #7760ED",
"7].	c #5E4CBC",
"8].	c #282151",
"9].	c #47398F",
"0].	c #7862F3",
"a].	c #6453CB",
"b].	c #5E4DBF",
"c].	c #624FC5",
"d].	c #614FC2",
"e].	c #7660E8",
"f].	c #342B69",
"g].	c #7863EA",
"h].	c #725FDA",
"i].	c #2C2555",
"j].	c #080713",
"k].	c #312B74",
"l].	c #312B75",
"m].	c #352E78",
"n].	c #2B2863",
"o].	c #010203",
"p].	c #0D0D1E",
"q].	c #3C3885",
"r].	c #3C3681",
"s].	c #14122A",
"t].	c #2A2759",
"u].	c #413E89",
"v].	c #3A3779",
"w].	c #37336E",
"x].	c #35336B",
"y].	c #333064",
"z].	c #2B2B56",
"A].	c #242345",
"B].	c #1C1A34",
"C].	c #151427",
"D].	c #0D0C19",
"E].	c #21211D",
"F].	c #5E5E5B",
"G].	c #747472",
"H].	c #5F5F5E",
"I].	c #0A0A0F",
"J].	c #171824",
"K].	c #161722",
"L].	c #1D1E2D",
"M].	c #31324C",
"N].	c #393A58",
"O].	c #363753",
"P].	c #32334D",
"Q].	c #3B3D5D",
"R].	c #292B41",
"S].	c #474A73",
"T].	c #3A3C5C",
"U].	c #3C3D60",
"V].	c #3C3E62",
"W].	c #9C9BB8",
"X].	c #666578",
"Y].	c #0D0E13",
"Z].	c #3C3F55",
"`].	c #282D41",
" ^.	c #1A1A22",
".^.	c #706D7E",
"+^.	c #707084",
"@^.	c #86859C",
"#^.	c #7C7A90",
"$^.	c #1D1C20",
"%^.	c #0F0F15",
"&^.	c #6F6D83",
"*^.	c #9390AE",
"=^.	c #706A9D",
"-^.	c #6D659F",
";^.	c #736AAB",
">^.	c #68609E",
",^.	c #675DA0",
"'^.	c #393458",
")^.	c #171323",
"!^.	c #7C6FC6",
"~^.	c #6D62B0",
"{^.	c #695EAC",
"]^.	c #6352C0",
"^^.	c #6150BC",
"/^.	c #7C66F2",
"(^.	c #5747AB",
"_^.	c #030105",
":^.	c #292152",
"<^.	c #7762EC",
"[^.	c #6B58D3",
"}^.	c #5E4CBB",
"|^.	c #6350C5",
"1^.	c #725CE1",
"2^.	c #745EE9",
"3^.	c #5A48B5",
"4^.	c #2B2256",
"5^.	c #07050E",
"6^.	c #171331",
"7^.	c #5B4AB7",
"8^.	c #765FEF",
"9^.	c #6250C5",
"0^.	c #5D4CBC",
"a^.	c #604EC2",
"b^.	c #6350C4",
"c^.	c #6B57D5",
"d^.	c #8169FE",
"e^.	c #332964",
"f^.	c #130F28",
"g^.	c #7560E7",
"h^.	c #6855CD",
"i^.	c #614FBD",
"j^.	c #715DD6",
"k^.	c #261F48",
"l^.	c #020306",
"m^.	c #2A2666",
"n^.	c #332E7A",
"o^.	c #2D296A",
"p^.	c #2E296B",
"q^.	c #383380",
"r^.	c #161433",
"s^.	c #242252",
"t^.	c #3A3580",
"u^.	c #3B357D",
"v^.	c #1B1939",
"w^.	c #1A1938",
"x^.	c #393676",
"y^.	c #38346F",
"z^.	c #312F62",
"A^.	c #36356B",
"B^.	c #37366E",
"C^.	c #3A376E",
"D^.	c #3A386D",
"E^.	c #363565",
"F^.	c #30305A",
"G^.	c #2A2A4F",
"H^.	c #242340",
"I^.	c #19192E",
"J^.	c #090915",
"K^.	c #04040C",
"L^.	c #09090E",
"M^.	c #0F1018",
"N^.	c #191A28",
"O^.	c #2A2C42",
"P^.	c #30314A",
"Q^.	c #2D2D44",
"R^.	c #242539",
"S^.	c #1F1F30",
"T^.	c #2A2B41",
"U^.	c #353651",
"V^.	c #353653",
"W^.	c #414266",
"X^.	c #292940",
"Y^.	c #30314D",
"Z^.	c #31324E",
"`^.	c #323553",
" /.	c #343556",
"./.	c #27262E",
"+/.	c #7D7D94",
"@/.	c #3B3D54",
"#/.	c #3A3C51",
"$/.	c #2C3146",
"%/.	c #191B25",
"&/.	c #686777",
"*/.	c #89889F",
"=/.	c #706F83",
"-/.	c #7B7A8F",
";/.	c #9392AC",
">/.	c #2A292F",
",/.	c #3D4158",
"'/.	c #646277",
")/.	c #9393B0",
"!/.	c #777790",
"~/.	c #72708A",
"{/.	c #6D64A1",
"]/.	c #7066A9",
"^/.	c #665D9D",
"//.	c #5A538D",
"(/.	c #110F19",
"_/.	c #615699",
":/.	c #796DC3",
"</.	c #685CAA",
"[/.	c #6351BF",
"}/.	c #7B64F1",
"|/.	c #5444A4",
"1/.	c #07050D",
"2/.	c #2F265E",
"3/.	c #7A64F1",
"4/.	c #5E4DBD",
"5/.	c #725DE5",
"6/.	c #5A49B8",
"7/.	c #372C70",
"8/.	c #1B1537",
"9/.	c #372D71",
"0/.	c #7A63F5",
"a/.	c #7B64F9",
"b/.	c #6754D0",
"c/.	c #6653CD",
"d/.	c #6855D2",
"e/.	c #6855D3",
"f/.	c #6956D5",
"g/.	c #6B58D7",
"h/.	c #6D58D8",
"i/.	c #705ADE",
"j/.	c #6954D0",
"k/.	c #3F327C",
"l/.	c #0D0B1D",
"m/.	c #5F4DBD",
"n/.	c #5F4EBB",
"o/.	c #6351C2",
"p/.	c #705DD6",
"q/.	c #251E46",
"r/.	c #231F55",
"s/.	c #332E7C",
"t/.	c #2D296B",
"u/.	c #2D2867",
"v/.	c #362F79",
"w/.	c #2C2965",
"x/.	c #14132E",
"y/.	c #38337A",
"z/.	c #3A367D",
"A/.	c #22204A",
"B/.	c #0F0E1D",
"C/.	c #333066",
"D/.	c #3B3777",
"E/.	c #2D2C59",
"F/.	c #312F5F",
"G/.	c #333160",
"H/.	c #343360",
"I/.	c #383869",
"J/.	c #3A3A6A",
"K/.	c #3A3968",
"L/.	c #363660",
"M/.	c #2F3057",
"N/.	c #27274A",
"O/.	c #21213D",
"P/.	c #1D1E33",
"Q/.	c #171728",
"R/.	c #141422",
"S/.	c #11111C",
"T/.	c #100F19",
"U/.	c #11111B",
"V/.	c #141421",
"W/.	c #181927",
"X/.	c #1E1F31",
"Y/.	c #27283F",
"Z/.	c #2E2F4A",
"`/.	c #383959",
" (.	c #3C3D5E",
".(.	c #3E3F5F",
"+(.	c #3A3C5B",
"@(.	c #31314C",
"#(.	c #27273D",
"$(.	c #383958",
"%(.	c #3B3B5A",
"&(.	c #2C2E44",
"*(.	c #2C2D45",
"=(.	c #353652",
"-(.	c #414267",
";(.	c #191925",
">(.	c #06070A",
",(.	c #3B3D5F",
"'(.	c #32344F",
")(.	c #0D0E12",
"!(.	c #090A0D",
"~(.	c #17151B",
"{(.	c #18171B",
"](.	c #3E425A",
"^(.	c #383B50",
"/(.	c #2F3349",
"((.	c #141620",
"_(.	c #625F70",
":(.	c #747286",
"<(.	c #9392AB",
"[(.	c #545361",
"}(.	c #262938",
"|(.	c #40435C",
"1(.	c #41445C",
"2(.	c #2A2C3C",
"3(.	c #5A5A6B",
"4(.	c #9392B1",
"5(.	c #717089",
"6(.	c #6E64A1",
"7(.	c #7167A9",
"8(.	c #685F9D",
"9(.	c #6D63AA",
"0(.	c #302B4B",
"a(.	c #38315A",
"b(.	c #6658B5",
"c(.	c #6453BF",
"d(.	c #7963ED",
"e(.	c #5E4EBC",
"f(.	c #090813",
"g(.	c #312860",
"h(.	c #7A65F2",
"i(.	c #6855CE",
"j(.	c #6350C7",
"k(.	c #6C59DC",
"l(.	c #725DE7",
"m(.	c #6E59DE",
"n(.	c #5E4CBF",
"o(.	c #5042A1",
"p(.	c #493B94",
"q(.	c #45378C",
"r(.	c #44368B",
"s(.	c #3E317D",
"t(.	c #2D245C",
"u(.	c #44368A",
"v(.	c #5A49B6",
"w(.	c #6351C9",
"x(.	c #6350C8",
"y(.	c #614FC5",
"z(.	c #5D4DBD",
"A(.	c #5747B2",
"B(.	c #5041A0",
"C(.	c #3F327F",
"D(.	c #2B2357",
"E(.	c #201A40",
"F(.	c #1E1A41",
"G(.	c #221C45",
"H(.	c #5A4AB2",
"I(.	c #725DE1",
"J(.	c #604EBD",
"K(.	c #6654C5",
"L(.	c #735FDC",
"M(.	c #2C2554",
"N(.	c #1A173F",
"O(.	c #2D286B",
"P(.	c #2E2969",
"Q(.	c #37337F",
"R(.	c #161532",
"S(.	c #010204",
"T(.	c #2F2C67",
"U(.	c #363174",
"V(.	c #3A367C",
"W(.	c #2D2A60",
"X(.	c #242149",
"Y(.	c #3A3876",
"Z(.	c #36346B",
"`(.	c #2F2E5C",
" _.	c #312F5E",
"._.	c #31305D",
"+_.	c #302F5A",
"@_.	c #303059",
"#_.	c #32315A",
"$_.	c #34345D",
"%_.	c #383863",
"&_.	c #393964",
"*_.	c #3B3B65",
"=_.	c #3A3B65",
"-_.	c #3B3A63",
";_.	c #3A3A5F",
">_.	c #393A5E",
",_.	c #393A5D",
"'_.	c #3B3C61",
")_.	c #3B3D60",
"!_.	c #393C5D",
"~_.	c #383A5A",
"{_.	c #363756",
"]_.	c #343553",
"^_.	c #393A59",
"/_.	c #31324D",
"(_.	c #202130",
"__.	c #3C3D5F",
":_.	c #333350",
"<_.	c #3E4162",
"[_.	c #12131D",
"}_.	c #404367",
"|_.	c #3A3C5E",
"1_.	c #383A50",
"2_.	c #2B2D3E",
"3_.	c #40445D",
"4_.	c #383B4F",
"5_.	c #32374D",
"6_.	c #161924",
"7_.	c #5A5867",
"8_.	c #706F85",
"9_.	c #8D8BA4",
"0_.	c #716F83",
"a_.	c #020200",
"b_.	c #1B1E29",
"c_.	c #434760",
"d_.	c #36394D",
"e_.	c #434660",
"f_.	c #1D202A",
"g_.	c #525263",
"h_.	c #797893",
"i_.	c #747192",
"j_.	c #6D65A5",
"k_.	c #6F66A8",
"l_.	c #6C62A7",
"m_.	c #554D86",
"n_.	c #24213B",
"o_.	c #6E63B1",
"p_.	c #7165B5",
"q_.	c #685CAB",
"r_.	c #7863ED",
"s_.	c #362D6D",
"t_.	c #7A64F3",
"u_.	c #6753CD",
"v_.	c #614EC3",
"w_.	c #624FC6",
"x_.	c #6B57D8",
"y_.	c #705BE1",
"z_.	c #705AE3",
"A_.	c #715BE5",
"B_.	c #735CE6",
"C_.	c #715CE6",
"D_.	c #6F59E0",
"E_.	c #6854D2",
"F_.	c #5644AF",
"G_.	c #322867",
"H_.	c #1B173B",
"I_.	c #1D173D",
"J_.	c #201943",
"K_.	c #241D4A",
"L_.	c #231C49",
"M_.	c #211B44",
"N_.	c #201A42",
"O_.	c #201B46",
"P_.	c #251E4D",
"Q_.	c #302762",
"R_.	c #3C3079",
"S_.	c #4B3C95",
"T_.	c #5949B3",
"U_.	c #6C59D6",
"V_.	c #6E5AD9",
"W_.	c #614FBE",
"X_.	c #7460DE",
"Y_.	c #41357B",
"Z_.	c #161334",
"`_.	c #352E7E",
" :.	c #2E296C",
".:.	c #2E296A",
"+:.	c #353078",
"@:.	c #2D2965",
"#:.	c #121027",
"$:.	c #383379",
"%:.	c #302D68",
"&:.	c #2E2B60",
"*:.	c #353471",
"=:.	c #131228",
"-:.	c #0F0E1E",
";:.	c #343168",
">:.	c #3A3874",
",:.	c #323162",
"':.	c #302E5C",
"):.	c #31305C",
"!:.	c #31315B",
"~:.	c #313156",
"{:.	c #323257",
"]:.	c #34355A",
"^:.	c #36365A",
"/:.	c #36375A",
"(:.	c #363758",
"_:.	c #343555",
"::.	c #212235",
"<:.	c #2B2C44",
"[:.	c #1F2132",
"}:.	c #3E4165",
"|:.	c #2B2D45",
"1:.	c #24253A",
"2:.	c #040407",
"3:.	c #323447",
"4:.	c #42465F",
"5:.	c #393C50",
"6:.	c #3A3D52",
"7:.	c #3E4259",
"8:.	c #0D0C0E",
"9:.	c #222432",
"0:.	c #41445E",
"a:.	c #373B52",
"b:.	c #141622",
"c:.	c #4F4D59",
"d:.	c #8A88A1",
"e:.	c #717083",
"f:.	c #110F11",
"g:.	c #0C0C13",
"h:.	c #43475F",
"i:.	c #373A50",
"j:.	c #101218",
"k:.	c #515062",
"l:.	c #9290B1",
"m:.	c #777590",
"n:.	c #72708B",
"o:.	c #747091",
"p:.	c #6C64A3",
"q:.	c #6F66A9",
"r:.	c #6D62A6",
"s:.	c #2B2845",
"t:.	c #534A84",
"u:.	c #786BC3",
"v:.	c #675CA9",
"w:.	c #6250BF",
"x:.	c #7761EB",
"y:.	c #0A0915",
"z:.	c #7B62F6",
"A:.	c #6451C7",
"B:.	c #614EBF",
"C:.	c #614FC4",
"D:.	c #614FC3",
"E:.	c #604EC3",
"F:.	c #604DC2",
"G:.	c #5F4DC2",
"H:.	c #6854D1",
"I:.	c #6F59DE",
"J:.	c #6D57DC",
"K:.	c #6551CB",
"L:.	c #5C4ABA",
"M:.	c #5543AB",
"N:.	c #5342A7",
"O:.	c #5344A9",
"P:.	c #5546AE",
"Q:.	c #5A4AB8",
"R:.	c #6150C5",
"S:.	c #6752CE",
"T:.	c #715CE1",
"U:.	c #6A55D1",
"V:.	c #6151BA",
"W:.	c #7964E6",
"X:.	c #4B3E90",
"Y:.	c #1F1B4B",
"Z:.	c #2C286A",
"`:.	c #2E2B6B",
" <.	c #38337E",
".<.	c #171431",
"+<.	c #23204C",
"@<.	c #39357B",
"#<.	c #2D2B61",
"$<.	c #2D2B60",
"%<.	c #33326C",
"&<.	c #3B397B",
"*<.	c #252349",
"=<.	c #3C3B77",
"-<.	c #3A3870",
";<.	c #363466",
"><.	c #32315D",
",<.	c #323159",
"'<.	c #323258",
")<.	c #323356",
"!<.	c #333356",
"~<.	c #333355",
"{<.	c #333455",
"]<.	c #232437",
"^<.	c #28293F",
"/<.	c #3E4064",
"(<.	c #2E304B",
"_<.	c #171723",
":<.	c #0A090E",
"<<.	c #41445D",
"[<.	c #34384D",
"}<.	c #444863",
"|<.	c #151725",
"1<.	c #44434E",
"2<.	c #88869E",
"3<.	c #737289",
"4<.	c #8E8DA8",
"5<.	c #000104",
"6<.	c #3A3E54",
"7<.	c #35384C",
"8<.	c #040507",
"9<.	c #160E0D",
"0<.	c #505061",
"a<.	c #918FAF",
"b<.	c #737192",
"c<.	c #6F67A0",
"d<.	c #6D64A5",
"e<.	c #6B62A4",
"f<.	c #756BB7",
"g<.	c #4F477D",
"h<.	c #352E55",
"i<.	c #766AC0",
"j<.	c #6B60B0",
"k<.	c #6656B7",
"l<.	c #7761EC",
"m<.	c #6251C5",
"n<.	c #0D0A19",
"o<.	c #443688",
"p<.	c #7861F0",
"q<.	c #624EC1",
"r<.	c #614EC4",
"s<.	c #5F4DC1",
"t<.	c #6853D1",
"u<.	c #6A55D5",
"v<.	c #6B56D7",
"w<.	c #6B56D8",
"x<.	c #6B57D7",
"y<.	c #6A56D6",
"z<.	c #6955D3",
"A<.	c #6753D0",
"B<.	c #5F4EB8",
"C<.	c #6D5CD4",
"D<.	c #7360DD",
"E<.	c #1C1836",
"F<.	c #0C0B1E",
"G<.	c #302A73",
"H<.	c #2C2769",
"I<.	c #2D2966",
"J<.	c #343076",
"K<.	c #030206",
"L<.	c #080711",
"M<.	c #353172",
"N<.	c #343170",
"O<.	c #302E64",
"P<.	c #3A3878",
"Q<.	c #323167",
"R<.	c #0E0E1C",
"S<.	c #262447",
"T<.	c #323060",
"U<.	c #38376A",
"V<.	c #3A396D",
"W<.	c #33335E",
"X<.	c #313057",
"Y<.	c #323259",
"Z<.	c #363755",
"`<.	c #393A5B",
" [.	c #2C2D46",
".[.	c #333551",
"+[.	c #31334E",
"@[.	c #3F4165",
"#[.	c #2F304C",
"$[.	c #030204",
"%[.	c #090A0F",
"&[.	c #07080C",
"*[.	c #37394E",
"=[.	c #40435D",
"-[.	c #34374C",
";[.	c #393B51",
">[.	c #060609",
",[.	c #030203",
"'[.	c #111218",
")[.	c #40435B",
"![.	c #393D52",
"~[.	c #3C4058",
"{[.	c #181B29",
"][.	c #2E2D35",
"^[.	c #6E6D83",
"/[.	c #9493AF",
"([.	c #36394E",
"_[.	c #3E4258",
":[.	c #42455E",
"<[.	c #272A39",
"[[.	c #201111",
"}[.	c #422727",
"|[.	c #59586B",
"1[.	c #74718C",
"2[.	c #737091",
"3[.	c #736AB3",
"4[.	c #332D52",
"5[.	c #655BA4",
"6[.	c #7165B9",
"7[.	c #695DAD",
"8[.	c #7661EB",
"9[.	c #0B0917",
"0[.	c #5645AD",
"a[.	c #7660EB",
"b[.	c #614EC5",
"c[.	c #5F4DB9",
"d[.	c #6B58CF",
"e[.	c #806BF9",
"f[.	c #362D6A",
"g[.	c #25215B",
"h[.	c #363183",
"i[.	c #2D286C",
"j[.	c #2E2968",
"k[.	c #2D2A68",
"l[.	c #37337D",
"m[.	c #181535",
"n[.	c #1E1C41",
"o[.	c #3C3881",
"p[.	c #312E68",
"q[.	c #393874",
"r[.	c #222041",
"s[.	c #05050A",
"t[.	c #151529",
"u[.	c #242445",
"v[.	c #312F5B",
"w[.	c #39386A",
"x[.	c #3A396B",
"y[.	c #393866",
"z[.	c #363560",
"A[.	c #33325A",
"B[.	c #323450",
"C[.	c #3E3F63",
"D[.	c #353755",
"E[.	c #161621",
"F[.	c #212334",
"G[.	c #323350",
"H[.	c #3F4266",
"I[.	c #09090F",
"J[.	c #171725",
"K[.	c #444761",
"L[.	c #323548",
"M[.	c #333648",
"N[.	c #36384C",
"O[.	c #35384B",
"P[.	c #1F2334",
"Q[.	c #212126",
"R[.	c #7F7D91",
"S[.	c #7A7A91",
"T[.	c #5D5B6C",
"U[.	c #2E3144",
"V[.	c #41455D",
"W[.	c #151923",
"X[.	c #523030",
"Y[.	c #663B3C",
"Z[.	c #605F75",
"`[.	c #908EAF",
" }.	c #73718B",
".}.	c #74708D",
"+}.	c #716C97",
"@}.	c #6E689F",
"#}.	c #6D64A6",
"$}.	c #6A61A3",
"%}.	c #796FBE",
"&}.	c #4B4378",
"*}.	c #494176",
"=}.	c #776AC1",
"-}.	c #6955D1",
";}.	c #715ADF",
">}.	c #5D4CBE",
",}.	c #322A62",
"'}.	c #0C0A1B",
")}.	c #2E2A72",
"!}.	c #343075",
"~}.	c #302C6C",
"{}.	c #040409",
"]}.	c #020305",
"^}.	c #1E1D41",
"/}.	c #33306E",
"(}.	c #353271",
"_}.	c #2E2C61",
":}.	c #2E2C5F",
"<}.	c #323065",
"[}.	c #3B3875",
"}}.	c #15152B",
"|}.	c #11101F",
"1}.	c #1E1E38",
"2}.	c #2C2D51",
"3}.	c #363460",
"4}.	c #3B3C69",
"5}.	c #393963",
"6}.	c #35355D",
"7}.	c #33345A",
"8}.	c #333457",
"9}.	c #333352",
"0}.	c #343654",
"a}.	c #37395A",
"b}.	c #3B3E5F",
"c}.	c #3C3F60",
"d}.	c #30324D",
"e}.	c #202133",
"f}.	c #222134",
"g}.	c #3F4063",
"h}.	c #383B5B",
"i}.	c #3F4066",
"j}.	c #2D3041",
"k}.	c #2B2D3D",
"l}.	c #14161E",
"m}.	c #303346",
"n}.	c #2D2F40",
"o}.	c #33364A",
"p}.	c #272938",
"q}.	c #272A3A",
"r}.	c #191A23",
"s}.	c #35394C",
"t}.	c #3F4259",
"u}.	c #3C3F54",
"v}.	c #272B3F",
"w}.	c #101015",
"x}.	c #727082",
"y}.	c #6C6C80",
"z}.	c #8988A3",
"A}.	c #1F212F",
"B}.	c #33374A",
"C}.	c #030508",
"D}.	c #080201",
"E}.	c #915456",
"F}.	c #5E3637",
"G}.	c #6D6B84",
"H}.	c #8F8DAF",
"I}.	c #726F8B",
"J}.	c #6C64A6",
"K}.	c #6B62A5",
"L}.	c #7569B5",
"M}.	c #635A9D",
"N}.	c #403A68",
"O}.	c #6C60B0",
"P}.	c #6C60B2",
"Q}.	c #6450C6",
"R}.	c #1B1637",
"S}.	c #7B63F6",
"T}.	c #6652CE",
"U}.	c #5E4DBE",
"V}.	c #5E4EB9",
"W}.	c #745FE1",
"X}.	c #241E49",
"Y}.	c #1F1C4C",
"Z}.	c #353081",
"`}.	c #2E2A69",
" |.	c #2E2A68",
".|.	c #39347E",
"+|.	c #1A183A",
"@|.	c #100F23",
"#|.	c #312E6A",
"$|.	c #383578",
"%|.	c #2F2C5F",
"&|.	c #2F2D5F",
"*|.	c #37346D",
"=|.	c #3B3873",
"-|.	c #2B2B55",
";|.	c #101020",
">|.	c #0C0C16",
",|.	c #18182C",
"'|.	c #262643",
")|.	c #2F2F52",
"!|.	c #3B3B67",
"~|.	c #3B3C66",
"{|.	c #3A3B64",
"]|.	c #393960",
"^|.	c #393A5F",
"/|.	c #3A3B60",
"(|.	c #3C3C61",
"_|.	c #3B3D61",
":|.	c #353757",
"<|.	c #2C2E49",
"[|.	c #1F2032",
"}|.	c #1C1E2D",
"||.	c #3F4166",
"1|.	c #151623",
"2|.	c #3E3F65",
"3|.	c #343554",
"4|.	c #111118",
"5|.	c #3F425B",
"6|.	c #42465E",
"7|.	c #1A1C26",
"8|.	c #373B4F",
"9|.	c #4A4E6B",
"0|.	c #1C1D28",
"a|.	c #303245",
"b|.	c #30344B",
"c|.	c #0D0E15",
"d|.	c #636170",
"e|.	c #6C6B7F",
"f|.	c #828198",
"g|.	c #8787A0",
"h|.	c #141415",
"i|.	c #0F111B",
"j|.	c #36384B",
"k|.	c #41455C",
"l|.	c #2D2F41",
"m|.	c #1C100F",
"n|.	c #BE6F70",
"o|.	c #4C2C2C",
"p|.	c #7A7895",
"q|.	c #8B89A9",
"r|.	c #706D8A",
"s|.	c #6C62A9",
"t|.	c #7569B9",
"u|.	c #453E70",
"v|.	c #5A5094",
"w|.	c #7467BD",
"x|.	c #685BAD",
"y|.	c #5E4CBD",
"z|.	c #6552CA",
"A|.	c #302761",
"B|.	c #7C64FA",
"C|.	c #5F4EC0",
"D|.	c #604FBE",
"E|.	c #7761E8",
"F|.	c #6D5AD5",
"G|.	c #1D183A",
"H|.	c #241F56",
"I|.	c #352F80",
"J|.	c #342F73",
"K|.	c #312C6D",
"L|.	c #2F2C64",
"M|.	c #3A377B",
"N|.	c #2E2B5E",
"O|.	c #302E61",
"P|.	c #2F2D5E",
"Q|.	c #39376F",
"R|.	c #3A3871",
"S|.	c #2A284F",
"T|.	c #0B0B13",
"U|.	c #151526",
"V|.	c #1C1C30",
"W|.	c #23233C",
"X|.	c #272944",
"Y|.	c #2D2D4C",
"Z|.	c #2F2F4F",
"`|.	c #2F2F50",
" 1.	c #2F3050",
".1.	c #2F2F4D",
"+1.	c #2A2B45",
"@1.	c #23243A",
"#1.	c #1B1C2D",
"$1.	c #13131E",
"%1.	c #12121D",
"&1.	c #2F324D",
"*1.	c #393B5D",
"=1.	c #323251",
"-1.	c #2C2F3F",
";1.	c #434761",
">1.	c #3C4057",
",1.	c #333548",
"'1.	c #383C4F",
")1.	c #181922",
"!1.	c #393C51",
"~1.	c #101116",
"{1.	c #282A39",
"]1.	c #3C4056",
"^1.	c #1E202A",
"/1.	c #272A38",
"(1.	c #35394F",
"_1.	c #0B0D16",
":1.	c #4F4E5B",
"<1.	c #6E6D82",
"[1.	c #717084",
"}1.	c #7B7A8E",
"|1.	c #2C2B31",
"11.	c #010206",
"21.	c #3E435C",
"31.	c #42455D",
"41.	c #4D2D2D",
"51.	c #D97F80",
"61.	c #2C1A1A",
"71.	c #18181D",
"81.	c #8482A0",
"91.	c #8682A3",
"01.	c #706E8A",
"a1.	c #6B61A5",
"b1.	c #7368B5",
"c1.	c #5C5394",
"d1.	c #4B437B",
"e1.	c #6A5EB1",
"f1.	c #7961EF",
"g1.	c #5A49B4",
"h1.	c #413584",
"i1.	c #7A63F8",
"j1.	c #604EC1",
"k1.	c #5F4DC0",
"l1.	c #6653CA",
"m1.	c #15112A",
"n1.	c #030102",
"o1.	c #080202",
"p1.	c #121131",
"q1.	c #342E7F",
"r1.	c #2E296D",
"s1.	c #2C286B",
"t1.	c #2E2A67",
"u1.	c #38337D",
"v1.	c #1A193A",
"w1.	c #3A397E",
"x1.	c #33306A",
"y1.	c #2F2B5F",
"z1.	c #302D60",
"A1.	c #2E2C5C",
"B1.	c #37366A",
"C1.	c #090912",
"D1.	c #07070A",
"E1.	c #323351",
"F1.	c #1C1D27",
"G1.	c #35394D",
"H1.	c #15161D",
"I1.	c #1E1F2A",
"J1.	c #444861",
"K1.	c #1D1F2B",
"L1.	c #313647",
"M1.	c #303244",
"N1.	c #060708",
"O1.	c #2F3142",
"P1.	c #3C3E55",
"Q1.	c #373A4F",
"R1.	c #3F435B",
"S1.	c #20222F",
"T1.	c #424760",
"U1.	c #11131E",
"V1.	c #403E48",
"W1.	c #9493AD",
"X1.	c #854D4E",
"Y1.	c #D47D7D",
"Z1.	c #180F0E",
"`1.	c #27262F",
" 2.	c #908DAF",
".2.	c #7F7D9C",
"+2.	c #706F8B",
"@2.	c #6B61A6",
"#2.	c #6F64AF",
"$2.	c #6E62AE",
"%2.	c #4B437A",
"&2.	c #665BA9",
"*2.	c #6D61B5",
"=2.	c #685BAF",
"-2.	c #7860F1",
";2.	c #5343A8",
">2.	c #4B3D98",
",2.	c #7963EF",
"'2.	c #4A3C91",
")2.	c #301325",
"!2.	c #43162A",
"~2.	c #00020A",
"{2.	c #2C2970",
"]2.	c #353077",
"^2.	c #2C2964",
"/2.	c #1D1B3E",
"(2.	c #383677",
"_2.	c #393574",
":2.	c #302E63",
"<2.	c #302E5E",
"[2.	c #2E2E5C",
"}2.	c #333263",
"|2.	c #3B3971",
"12.	c #363567",
"22.	c #20203D",
"32.	c #0A0912",
"42.	c #06060A",
"52.	c #07080D",
"62.	c #08080E",
"72.	c #0B0B11",
"82.	c #151522",
"92.	c #1D1E31",
"02.	c #292B42",
"a2.	c #353754",
"b2.	c #353554",
"c2.	c #323250",
"d2.	c #282B3B",
"e2.	c #0B0D11",
"f2.	c #171921",
"g2.	c #272937",
"h2.	c #373A4E",
"i2.	c #494D69",
"j2.	c #1A1B25",
"k2.	c #070709",
"l2.	c #383C53",
"m2.	c #1A1C2C",
"n2.	c #34333D",
"o2.	c #88859D",
"p2.	c #76748B",
"q2.	c #6A697D",
"r2.	c #626173",
"s2.	c #636276",
"t2.	c #6A687D",
"u2.	c #6E6D80",
"v2.	c #74738A",
"w2.	c #727184",
"x2.	c #616070",
"y2.	c #2D3044",
"z2.	c #343649",
"A2.	c #C47475",
"B2.	c #BE7072",
"C2.	c #0A0606",
"D2.	c #3D3D4B",
"E2.	c #918EB1",
"F2.	c #787794",
"G2.	c #716E8D",
"H2.	c #6A5FA7",
"I2.	c #7467B7",
"J2.	c #594F91",
"K2.	c #544C8E",
"L2.	c #7064BA",
"M2.	c #604DC0",
"N2.	c #7961F1",
"O2.	c #4E3F9F",
"P2.	c #4E409E",
"Q2.	c #7860F2",
"R2.	c #614EC6",
"S2.	c #6350C6",
"T2.	c #6B57D4",
"U2.	c #2A2356",
"V2.	c #65274E",
"W2.	c #632546",
"X2.	c #22205B",
"Y2.	c #352E7F",
"Z2.	c #2D2A67",
"`2.	c #363179",
" 3.	c #171633",
".3.	c #0D0D1D",
"+3.	c #2A2857",
"@3.	c #3A3877",
"#3.	c #37346E",
"$3.	c #2F2E60",
"%3.	c #2F2D5D",
"&3.	c #302F5F",
"*3.	c #363465",
"=3.	c #3A396E",
"-3.	c #343362",
";3.	c #2A294D",
">3.	c #22213D",
",3.	c #1E1E36",
"'3.	c #1D1C33",
")3.	c #1E1D34",
"!3.	c #1F1E36",
"~3.	c #21213A",
"{3.	c #22223D",
"]3.	c #24243F",
"^3.	c #262642",
"/3.	c #282845",
"(3.	c #2A2A48",
"_3.	c #2C2C4A",
":3.	c #2E2D4B",
"<3.	c #313251",
"[3.	c #333353",
"}3.	c #343455",
"|3.	c #333554",
"13.	c #37385A",
"23.	c #393A5C",
"33.	c #38395B",
"43.	c #343454",
"53.	c #3D3E64",
"63.	c #1D1E29",
"73.	c #0A0B0E",
"83.	c #313446",
"93.	c #34384B",
"03.	c #33354A",
"a3.	c #222532",
"b3.	c #3C3F56",
"c3.	c #2B2F3E",
"d3.	c #3D4156",
"e3.	c #272B3E",
"f3.	c #24242D",
"g3.	c #7A778D",
"h3.	c #5D5C6C",
"i3.	c #585766",
"j3.	c #525161",
"k3.	c #4F4E5D",
"l3.	c #504F5E",
"m3.	c #504F5F",
"n3.	c #535261",
"o3.	c #595869",
"p3.	c #616072",
"q3.	c #676677",
"r3.	c #656577",
"s3.	c #717185",
"t3.	c #8E8DA6",
"u3.	c #78768B",
"v3.	c #1F2231",
"w3.	c #2F1B1C",
"x3.	c #EA8A8C",
"y3.	c #905557",
"z3.	c #514E63",
"A3.	c #9390B5",
"B3.	c #6E65A1",
"C3.	c #6B61A7",
"D3.	c #665BA5",
"E3.	c #534B89",
"F3.	c #6B5EB1",
"G3.	c #6B5DB2",
"H3.	c #7660EF",
"I3.	c #5142A5",
"J3.	c #100C21",
"K3.	c #4E3F9E",
"L3.	c #745EEA",
"M3.	c #6854CD",
"N3.	c #7963F2",
"O3.	c #5142A2",
"P3.	c #110E22",
"Q3.	c #240E1C",
"R3.	c #7F3162",
"S3.	c #66274D",
"T3.	c #12143A",
"U3.	c #362F81",
"V3.	c #2E2A6B",
"W3.	c #302B6E",
"X3.	c #322D72",
"Y3.	c #332E73",
"Z3.	c #322E72",
"`3.	c #3D388B",
" 4.	c #2D2A64",
".4.	c #191732",
"+4.	c #323066",
"@4.	c #3B3877",
"#4.	c #343269",
"$4.	c #2F2E5E",
"%4.	c #302F5E",
"&4.	c #312E5C",
"*4.	c #353463",
"=4.	c #383769",
"-4.	c #393869",
";4.	c #393969",
">4.	c #3A3969",
",4.	c #3B3969",
"'4.	c #393A67",
")4.	c #3A3A66",
"!4.	c #3A3A65",
"~4.	c #3A3A63",
"{4.	c #393A63",
"]4.	c #3A3961",
"^4.	c #39395E",
"/4.	c #38395C",
"(4.	c #3E4069",
"_4.	c #24253C",
":4.	c #2C2F3D",
"<4.	c #08070A",
"[4.	c #3E4159",
"}4.	c #25283B",
"|4.	c #716F82",
"14.	c #646374",
"24.	c #676679",
"34.	c #7B7A92",
"44.	c #8D8BA5",
"54.	c #78778A",
"64.	c #171A26",
"74.	c #06070B",
"84.	c #663B3D",
"94.	c #F69194",
"04.	c #6A3E40",
"a4.	c #616079",
"b4.	c #8F8CB2",
"c4.	c #6A60AA",
"d4.	c #7064B5",
"e4.	c #564C8D",
"f4.	c #60559F",
"g4.	c #6E62B9",
"h4.	c #675AB0",
"i4.	c #5E4EC0",
"j4.	c #735EE8",
"k4.	c #231C4A",
"l4.	c #6D58DD",
"m4.	c #6752CC",
"n4.	c #3A2F74",
"o4.	c #070205",
"p4.	c #5E2449",
"q4.	c #712B57",
"r4.	c #6A2852",
"s4.	c #1A070A",
"t4.	c #020717",
"u4.	c #312C77",
"v4.	c #35307D",
"w4.	c #332E78",
"x4.	c #312C72",
"y4.	c #2F2869",
"z4.	c #2C2765",
"A4.	c #2D2967",
"B4.	c #252355",
"C4.	c #0C0B1A",
"D4.	c #05040A",
"E4.	c #1E1D3E",
"F4.	c #3A3774",
"G4.	c #313060",
"H4.	c #302F5C",
"I4.	c #312F5C",
"J4.	c #32315C",
"K4.	c #32325B",
"L4.	c #33325B",
"M4.	c #313256",
"N4.	c #313356",
"O4.	c #323354",
"P4.	c #3D3E65",
"Q4.	c #1F1F33",
"R4.	c #0A0A11",
"S4.	c #252836",
"T4.	c #2E2F41",
"U4.	c #242634",
"V4.	c #40445E",
"W4.	c #191D2C",
"X4.	c #0C0B0F",
"Y4.	c #575564",
"Z4.	c #828099",
"`4.	c #6D6C80",
" 5.	c #727188",
".5.	c #666478",
"+5.	c #2B2B35",
"@5.	c #5D5D6F",
"#5.	c #7B798E",
"$5.	c #41455F",
"%5.	c #2A2D3E",
"&5.	c #060303",
"*5.	c #AF6769",
"=5.	c #E28487",
"-5.	c #361F20",
";5.	c #8885A9",
">5.	c #6F6C8D",
",5.	c #6C61A7",
"'5.	c #6C61A8",
")5.	c #6E62B2",
"!5.	c #6257A0",
"~5.	c #584F94",
"{5.	c #6D60B6",
"]5.	c #695CB3",
"^5.	c #5F4DBE",
"/5.	c #362C71",
"(5.	c #3C307C",
"_5.	c #624EC7",
":5.	c #6A56D7",
"<5.	c #604DC3",
"[5.	c #604FC3",
"}5.	c #735CE4",
"|5.	c #382D71",
"15.	c #38152B",
"25.	c #752C5B",
"35.	c #5E2448",
"45.	c #702C57",
"55.	c #341222",
"65.	c #2E2A74",
"75.	c #373185",
"85.	c #292564",
"95.	c #242157",
"05.	c #1F1C4A",
"a5.	c #1A173C",
"b5.	c #13112E",
"c5.	c #080712",
"d5.	c #05050D",
"e5.	c #05040C",
"f5.	c #090913",
"g5.	c #1F1E3F",
"h5.	c #323064",
"i5.	c #3A3872",
"j5.	c #37366D",
"k5.	c #313162",
"l5.	c #313059",
"m5.	c #313258",
"n5.	c #323157",
"o5.	c #333354",
"p5.	c #343657",
"q5.	c #3E3F67",
"r5.	c #3A3C60",
"s5.	c #2D2E4C",
"t5.	c #0F1015",
"u5.	c #3C3F57",
"v5.	c #2F3244",
"w5.	c #15161F",
"x5.	c #36353E",
"y5.	c #6C697B",
"z5.	c #807F96",
"A5.	c #6F6F83",
"B5.	c #86849C",
"C5.	c #3F3D4A",
"D5.	c #00030B",
"E5.	c #222433",
"F5.	c #191922",
"G5.	c #202432",
"H5.	c #37394D",
"I5.	c #424661",
"J5.	c #181823",
"K5.	c #2C191A",
"L5.	c #D87F81",
"M5.	c #BD6F73",
"N5.	c #180E0F",
"O5.	c #1A1A20",
"P5.	c #827FA2",
"Q5.	c #807DA2",
"R5.	c #6F6B8E",
"S5.	c #6A60A9",
"T5.	c #6C61AE",
"U5.	c #6D61B0",
"V5.	c #574D92",
"W5.	c #665BAC",
"X5.	c #6B5EB6",
"Y5.	c #675AB2",
"Z5.	c #6D59DF",
"`5.	c #4E3FA0",
" 6.	c #3B2F7A",
".6.	c #5242A9",
"+6.	c #6752D1",
"@6.	c #6652CF",
"#6.	c #180912",
"$6.	c #6F2956",
"%6.	c #682750",
"&6.	c #5C2447",
"*6.	c #4F1E3D",
"=6.	c #080919",
"-6.	c #0B0B1C",
";6.	c #050409",
">6.	c #15142A",
",6.	c #2A2953",
"'6.	c #37356C",
")6.	c #393972",
"!6.	c #38356C",
"~6.	c #373468",
"{6.	c #373667",
"]6.	c #363566",
"^6.	c #353564",
"/6.	c #343561",
"(6.	c #353461",
"_6.	c #35345F",
":6.	c #36355F",
"<6.	c #353560",
"[6.	c #36355E",
"}6.	c #35365E",
"|6.	c #36355D",
"16.	c #35355C",
"26.	c #35365B",
"36.	c #34355B",
"46.	c #353559",
"56.	c #363559",
"66.	c #363659",
"76.	c #3A3D61",
"86.	c #292A44",
"96.	c #0D0D15",
"06.	c #333549",
"a6.	c #20232F",
"b6.	c #363A54",
"c6.	c #3B3B4A",
"d6.	c #6B6A7E",
"e6.	c #59586A",
"f6.	c #191B27",
"g6.	c #1A1D27",
"h6.	c #272936",
"i6.	c #21232E",
"j6.	c #20212D",
"k6.	c #232431",
"l6.	c #3B3E56",
"m6.	c #3A3D54",
"n6.	c #050609",
"o6.	c #6C4041",
"p6.	c #EE8B90",
"q6.	c #8A5054",
"r6.	c #2D2C38",
"s6.	c #8E8AB4",
"t6.	c #7A769B",
"u6.	c #706B90",
"v6.	c #6E62B4",
"w6.	c #5F549E",
"x6.	c #5C509C",
"y6.	c #6D5FB9",
"z6.	c #5F4CC0",
"A6.	c #624FC8",
"B6.	c #6C58DC",
"C6.	c #5F4CC2",
"D6.	c #473991",
"E6.	c #4B3C9B",
"F6.	c #5D4ABD",
"G6.	c #0A0916",
"H6.	c #060305",
"I6.	c #60244B",
"J6.	c #732A5A",
"K6.	c #5D2349",
"L6.	c #5F2449",
"M6.	c #692951",
"N6.	c #0C0409",
"O6.	c #111022",
"P6.	c #232245",
"Q6.	c #292850",
"R6.	c #2C2A54",
"S6.	c #2C2C55",
"T6.	c #2C2C54",
"U6.	c #2E2D57",
"V6.	c #33335F",
"W6.	c #343460",
"X6.	c #353460",
"Y6.	c #35355F",
"Z6.	c #36365E",
"`6.	c #373761",
" 7.	c #3A3A61",
".7.	c #393A61",
"+7.	c #393B5F",
"@7.	c #393A60",
"#7.	c #2F304F",
"$7.	c #11121D",
"%7.	c #464A64",
"&7.	c #202232",
"*7.	c #41424E",
"=7.	c #7C7B90",
"-7.	c #7F7D95",
";7.	c #292B3C",
">7.	c #34364C",
",7.	c #3A3D51",
"'7.	c #323549",
")7.	c #282939",
"!7.	c #1B1C27",
"~7.	c #33364B",
"{7.	c #414560",
"]7.	c #292C3D",
"^7.	c #090505",
"/7.	c #AC6468",
"(7.	c #E3858A",
"_7.	c #563235",
":7.	c #444257",
"<7.	c #908DB8",
"[7.	c #747095",
"}7.	c #6F6C93",
"|7.	c #6C61B1",
"17.	c #685BAA",
"27.	c #5B4F99",
"37.	c #695CB2",
"47.	c #695BB4",
"57.	c #6752D0",
"67.	c #6854D3",
"77.	c #4E3EA0",
"87.	c #5141A9",
"97.	c #5E4CC0",
"07.	c #6552CD",
"a7.	c #6350CA",
"b7.	c #451A37",
"c7.	c #772D5E",
"d7.	c #572145",
"e7.	c #5F234A",
"f7.	c #61244B",
"g7.	c #63264D",
"h7.	c #6E2A54",
"i7.	c #220C19",
"j7.	c #090910",
"k7.	c #0A0A12",
"l7.	c #090911",
"m7.	c #0C0C15",
"n7.	c #0E0E18",
"o7.	c #10101B",
"p7.	c #10111E",
"q7.	c #11111E",
"r7.	c #10111B",
"s7.	c #10101A",
"t7.	c #0F0F19",
"u7.	c #100F1B",
"v7.	c #0D0D16",
"w7.	c #2A2E3F",
"x7.	c #16161F",
"y7.	c #252734",
"z7.	c #1C1D29",
"A7.	c #2F303D",
"B7.	c #6F6D81",
"C7.	c #747288",
"D7.	c #767488",
"E7.	c #313241",
"F7.	c #31354A",
"G7.	c #252835",
"H7.	c #1F222D",
"I7.	c #3F415C",
"J7.	c #442829",
"K7.	c #D77D83",
"L7.	c #BF6F75",
"M7.	c #1E1212",
"N7.	c #595671",
"O7.	c #8F8BB9",
"P7.	c #706D93",
"Q7.	c #716C95",
"R7.	c #6D61B4",
"S7.	c #5C519D",
"T7.	c #6256A8",
"U7.	c #6C5EB8",
"V7.	c #624FC7",
"W7.	c #6451CA",
"X7.	c #5948B6",
"Y7.	c #5141A8",
"Z7.	c #5644B0",
"`7.	c #604CC1",
" 8.	c #745DE8",
".8.	c #45378A",
"+8.	c #230F1C",
"@8.	c #722B5B",
"#8.	c #672752",
"$8.	c #501E3E",
"%8.	c #592145",
"&8.	c #65264F",
"*8.	c #61264B",
"=8.	c #6B284F",
"-8.	c #2F1021",
";8.	c #08090F",
">8.	c #3A3E53",
",8.	c #15171F",
"'8.	c #323547",
")8.	c #3D4159",
"!8.	c #232638",
"~8.	c #7E7D92",
"{8.	c #6D6C7F",
"]8.	c #6F6E82",
"^8.	c #7C7A8F",
"/8.	c #3A3A47",
"(8.	c #272B3D",
"_8.	c #1E202B",
":8.	c #2D2E3F",
"<8.	c #40425D",
"[8.	c #292A3C",
"}8.	c #8D5256",
"|8.	c #E2838A",
"18.	c #864C52",
"28.	c #8A85B5",
"38.	c #6E6A91",
"48.	c #6A60AB",
"58.	c #6558AA",
"68.	c #5C50A0",
"78.	c #695CB4",
"88.	c #685AB4",
"98.	c #6350C9",
"08.	c #5A48B8",
"a8.	c #5443AB",
"b8.	c #5947B5",
"c8.	c #614EC7",
"d8.	c #251E4B",
"e8.	c #0A0409",
"f8.	c #662751",
"g8.	c #6C2955",
"h8.	c #5F244B",
"i8.	c #592146",
"j8.	c #4F1E3E",
"k8.	c #64264D",
"l8.	c #592142",
"m8.	c #793263",
"n8.	c #6F3265",
"o8.	c #AF9D90",
"p8.	c #342F26",
"q8.	c #111523",
"r8.	c #3F435C",
"s8.	c #2E3143",
"t8.	c #3F445C",
"u8.	c #30313F",
"v8.	c #777689",
"w8.	c #1D202F",
"x8.	c #373B50",
"y8.	c #383A51",
"z8.	c #0C0D14",
"A8.	c #301C1D",
"B8.	c #C37078",
"C8.	c #D07880",
"D8.	c #492A2E",
"E8.	c #7D79A4",
"F8.	c #847EAD",
"G8.	c #6D6791",
"H8.	c #6A5EB0",
"I8.	c #6A5DB1",
"J8.	c #6357AB",
"K8.	c #695CB5",
"L8.	c #6454BB",
"M8.	c #6551CC",
"N8.	c #614FC6",
"O8.	c #5F4CC1",
"P8.	c #6F5ADE",
"Q8.	c #491C3A",
"R8.	c #752C5C",
"S8.	c #5E244A",
"T8.	c #5B2148",
"U8.	c #441935",
"V8.	c #5C2244",
"W8.	c #9E4892",
"X8.	c #AB4FA2",
"Y8.	c #170A15",
"Z8.	c #060505",
"`8.	c #322C29",
" 9.	c #EAD4C5",
".9.	c #584E45",
"+9.	c #222332",
"@9.	c #5C5A6C",
"#9.	c #7D7B92",
"$9.	c #4D4C59",
"%9.	c #3C3E56",
"&9.	c #35374D",
"*9.	c #40425E",
"=9.	c #262737",
"-9.	c #814A50",
";9.	c #D77C86",
">9.	c #AB636A",
",9.	c #100A0A",
"'9.	c #24222F",
")9.	c #8B85B7",
"!9.	c #6D6893",
"~9.	c #6558AC",
"{9.	c #695BB8",
"]9.	c #6450CA",
"^9.	c #604FC2",
"/9.	c #3C3078",
"(9.	c #2D1223",
"_9.	c #722B5A",
":9.	c #61254D",
"<9.	c #61254C",
"[9.	c #421935",
"}9.	c #4C1B39",
"|9.	c #62244A",
"19.	c #95448A",
"29.	c #B150A5",
"39.	c #351830",
"49.	c #C3B0A2",
"59.	c #9A897F",
"69.	c #4C433D",
"79.	c #322C26",
"89.	c #222638",
"99.	c #12131A",
"09.	c #292C40",
"a9.	c #363642",
"b9.	c #706F86",
"c9.	c #747387",
"d9.	c #85849B",
"e9.	c #1A1B27",
"f9.	c #1A1C25",
"g9.	c #393C55",
"h9.	c #383D55",
"i9.	c #29181A",
"j9.	c #B66A72",
"k9.	c #CF7882",
"l9.	c #7A464D",
"m9.	c #363448",
"n9.	c #8C87BB",
"o9.	c #76709F",
"p9.	c #6D6896",
"q9.	c #685CAE",
"r9.	c #6D5FB6",
"s9.	c #6054A5",
"t9.	c #554A96",
"u9.	c #6B5CBB",
"v9.	c #685AB5",
"w9.	c #6956D4",
"x9.	c #130E26",
"y9.	c #060205",
"z9.	c #6C2855",
"A9.	c #712B59",
"B9.	c #5A2247",
"C9.	c #61264D",
"D9.	c #471A38",
"E9.	c #361428",
"F9.	c #622349",
"G9.	c #833A77",
"H9.	c #B754AC",
"I9.	c #632E5C",
"J9.	c #070606",
"K9.	c #201D1A",
"L9.	c #A6958A",
"M9.	c #8D7E75",
"N9.	c #131110",
"O9.	c #564E47",
"P9.	c #463D34",
"Q9.	c #0D111D",
"R9.	c #3E415A",
"S9.	c #13151C",
"T9.	c #2F3449",
"U9.	c #262835",
"V9.	c #696879",
"W9.	c #79788C",
"X9.	c #818097",
"Y9.	c #686679",
"Z9.	c #191B22",
"`9.	c #303449",
" 0.	c #1D1F29",
".0.	c #292C3C",
"+0.	c #34364D",
"@0.	c #3F425E",
"#0.	c #814B51",
"$0.	c #C5717B",
"%0.	c #C2707A",
"&0.	c #46282D",
"*0.	c #4B4866",
"=0.	c #8F88C1",
"-0.	c #726D9D",
";0.	c #6E6899",
">0.	c #6C63A5",
",0.	c #695DB1",
"'0.	c #50468B",
")0.	c #6053A7",
"!0.	c #6D5EC0",
"~0.	c #6557B4",
"{0.	c #735DE7",
"]0.	c #4E3E9D",
"^0.	c #38152D",
"/0.	c #732C5B",
"(0.	c #5F244C",
"_0.	c #652650",
":0.	c #4C1C3B",
"<0.	c #2E1223",
"[0.	c #561E3E",
"}0.	c #7F3771",
"|0.	c #B454AC",
"10.	c #863D7D",
"20.	c #D4BFB2",
"30.	c #090907",
"40.	c #FCE4D3",
"50.	c #7D7169",
"60.	c #0B0C12",
"70.	c #212434",
"80.	c #4D4B59",
"90.	c #828097",
"00.	c #6F6E84",
"a0.	c #7B798F",
"b0.	c #26293C",
"c0.	c #35374E",
"d0.	c #33354C",
"e0.	c #3A3E59",
"f0.	c #33364F",
"g0.	c #2E1B1D",
"h0.	c #B46771",
"i0.	c #BE6C77",
"j0.	c #B76876",
"k0.	c #1A0F11",
"l0.	c #565276",
"m0.	c #8C85C0",
"n0.	c #685CB0",
"o0.	c #6F60BD",
"p0.	c #554B95",
"q0.	c #544995",
"r0.	c #6D5EC2",
"s0.	c #6557B5",
"t0.	c #6452BE",
"u0.	c #7760F0",
"v0.	c #481C39",
"w0.	c #742D5C",
"x0.	c #5D234A",
"y0.	c #64264F",
"z0.	c #240D1B",
"A0.	c #3A1328",
"B0.	c #863873",
"C0.	c #A94FA1",
"D0.	c #A14A96",
"E0.	c #1D0E1A",
"F0.	c #161413",
"G0.	c #6B605A",
"H0.	c #7B6F67",
"I0.	c #473F3A",
"J0.	c #7E7269",
"K0.	c #695E57",
"L0.	c #4E443E",
"M0.	c #100E10",
"N0.	c #252633",
"O0.	c #2A2D3D",
"P0.	c #222536",
"Q0.	c #3A3B48",
"R0.	c #817F95",
"S0.	c #737387",
"T0.	c #86849D",
"U0.	c #1B1F2D",
"V0.	c #37394F",
"W0.	c #303345",
"X0.	c #393C53",
"Y0.	c #34374E",
"Z0.	c #353850",
"`0.	c #3E425E",
" a.	c #171822",
".a.	c #824B51",
"+a.	c #BB6B76",
"@a.	c #BE6C79",
"#a.	c #91525F",
"$a.	c #050303",
"%a.	c #040306",
"&a.	c #65608D",
"*a.	c #8981C0",
"=a.	c #6C659A",
"-a.	c #6E679E",
";a.	c #6F61BD",
">a.	c #5D51A2",
",a.	c #3B336B",
"'a.	c #6859B8",
")a.	c #6B5CC0",
"!a.	c #6556B6",
"~a.	c #725CE3",
"{a.	c #5343AA",
"]a.	c #0A0407",
"^a.	c #6D2956",
"/a.	c #5A2248",
"(a.	c #63254E",
"_a.	c #6A2853",
":a.	c #280F21",
"<a.	c #260C19",
"[a.	c #80346B",
"}a.	c #A04B98",
"|a.	c #B352A7",
"1a.	c #462041",
"2a.	c #1D1945",
"3a.	c #1A173D",
"4a.	c #0F0E0D",
"5a.	c #B19F94",
"6a.	c #2F2926",
"7a.	c #E1CCBD",
"8a.	c #BDAC9F",
"9a.	c #57514B",
"0a.	c #FFECD9",
"aa.	c #1E1917",
"ba.	c #141A2C",
"ca.	c #2E3241",
"da.	c #3E4058",
"ea.	c #2F3448",
"fa.	c #262733",
"ga.	c #7C7A91",
"ha.	c #66657A",
"ia.	c #6A697B",
"ja.	c #75758A",
"ka.	c #8886A1",
"la.	c #494755",
"ma.	c #0E101A",
"na.	c #393D54",
"oa.	c #232632",
"pa.	c #33364D",
"qa.	c #3D405C",
"ra.	c #2D2F45",
"sa.	c #2E1A1D",
"ta.	c #BE6C78",
"ua.	c #A65F6A",
"va.	c #C77080",
"wa.	c #72404B",
"xa.	c #0A0A10",
"ya.	c #6E679A",
"za.	c #867DBE",
"Aa.	c #6B649A",
"Ba.	c #6D5FBC",
"Ca.	c #2F2952",
"Da.	c #534794",
"Ea.	c #7161CB",
"Fa.	c #6455B4",
"Ga.	c #6653CE",
"Ha.	c #705BE2",
"Ia.	c #191432",
"Ja.	c #210C1A",
"Ka.	c #732B5A",
"La.	c #5C2349",
"Ma.	c #6C2854",
"Na.	c #471D3C",
"Oa.	c #702D5A",
"Pa.	c #A24998",
"Qa.	c #B150A6",
"Ra.	c #6C3165",
"Sa.	c #0F0C23",
"Ta.	c #332D79",
"Ua.	c #232155",
"Va.	c #19173B",
"Wa.	c #100F26",
"Xa.	c #050404",
"Ya.	c #524A44",
"Za.	c #605650",
"`a.	c #7A6D65",
" b.	c #48413C",
".b.	c #47403C",
"+b.	c #83776F",
"@b.	c #675D57",
"#b.	c #514A44",
"$b.	c #0D0B08",
"%b.	c #1A1C2B",
"&b.	c #13131A",
"*b.	c #171926",
"=b.	c #5A5969",
"-b.	c #6E6E83",
";b.	c #83819A",
">b.	c #6D6C7D",
",b.	c #35374C",
"'b.	c #20222C",
")b.	c #33364E",
"!b.	c #363952",
"~b.	c #3C3E5C",
"{b.	c #0E0F17",
"]b.	c #8A4F58",
"^b.	c #BC6C79",
"/b.	c #A15A69",
"(b.	c #C77083",
"_b.	c #532F38",
":b.	c #0F0E15",
"<b.	c #766FA9",
"[b.	c #837ABC",
"}b.	c #69639B",
"|b.	c #6D65A2",
"1b.	c #6658AE",
"2b.	c #7565C9",
"3b.	c #4F458C",
"4b.	c #393168",
"5b.	c #6F5FC8",
"6b.	c #6858BA",
"7b.	c #5F4EC1",
"8b.	c #4B3D99",
"9b.	c #421934",
"0b.	c #742C5C",
"ab.	c #5B2348",
"bb.	c #572346",
"cb.	c #A14995",
"db.	c #A84D9E",
"eb.	c #904287",
"fb.	c #0E060D",
"gb.	c #292565",
"hb.	c #302B73",
"ib.	c #342E7B",
"jb.	c #332F7A",
"kb.	c #1F1B48",
"lb.	c #171332",
"mb.	c #0B0A1A",
"nb.	c #3B3531",
"ob.	c #49423D",
"pb.	c #97877F",
"qb.	c #E1C8BB",
"rb.	c #FBE6D5",
"sb.	c #81746B",
"tb.	c #0B0C10",
"ub.	c #383741",
"vb.	c #7F7D94",
"wb.	c #7F7E94",
"xb.	c #58576A",
"yb.	c #272531",
"zb.	c #5E5D70",
"Ab.	c #828196",
"Bb.	c #28282F",
"Cb.	c #1E2132",
"Db.	c #1C1C26",
"Eb.	c #34374F",
"Fb.	c #33354D",
"Gb.	c #3E405F",
"Hb.	c #252738",
"Ib.	c #351E22",
"Jb.	c #BD6C7B",
"Kb.	c #A25C6A",
"Lb.	c #AA6071",
"Mb.	c #C36D82",
"Nb.	c #3F232B",
"Ob.	c #1B1927",
"Pb.	c #7B74B3",
"Qb.	c #7F75B9",
"Rb.	c #69629C",
"Sb.	c #6D63A6",
"Tb.	c #6B60A8",
"Ub.	c #675AB1",
"Vb.	c #6B5DB9",
"Wb.	c #7061C6",
"Xb.	c #2A254C",
"Yb.	c #393067",
"Zb.	c #7865D8",
"`b.	c #6758BD",
" c.	c #6354B7",
".c.	c #7862F2",
"+c.	c #0D0B1C",
"@c.	c #080406",
"#c.	c #702A56",
"$c.	c #1A0912",
"%c.	c #36152B",
"&c.	c #9F4892",
"*c.	c #A34B9A",
"=c.	c #A74C9C",
"-c.	c #2E162C",
";c.	c #19163E",
">c.	c #3C3693",
",c.	c #2F2A73",
"'c.	c #312D74",
")c.	c #34307A",
"!c.	c #35317E",
"~c.	c #352F7B",
"{c.	c #312C71",
"]c.	c #272258",
"^c.	c #1D1942",
"/c.	c #15132F",
"(c.	c #0D0C1E",
"_c.	c #0B0909",
":c.	c #615651",
"<c.	c #B3A095",
"[c.	c #2C2725",
"}c.	c #141211",
"|c.	c #908178",
"1c.	c #4C4640",
"2c.	c #D5C2B4",
"3c.	c #3F3731",
"4c.	c #03030A",
"5c.	c #0C0D11",
"6c.	c #767489",
"7c.	c #1E1E28",
"8c.	c #5D5D63",
"9c.	c #27272D",
"0c.	c #707086",
"ac.	c #737286",
"bc.	c #8B8AA2",
"cc.	c #4D4C58",
"dc.	c #10131F",
"ec.	c #34384A",
"fc.	c #222431",
"gc.	c #33344D",
"hc.	c #3A3C59",
"ic.	c #383A57",
"jc.	c #804953",
"kc.	c #C26E7F",
"lc.	c #965563",
"mc.	c #B16376",
"nc.	c #BD6A80",
"oc.	c #382027",
"pc.	c #8277BE",
"qc.	c #7E74BA",
"rc.	c #69609E",
"sc.	c #685BB3",
"tc.	c #6457AF",
"uc.	c #7968D5",
"vc.	c #51468F",
"wc.	c #493E84",
"xc.	c #7B68E3",
"yc.	c #6250C6",
"zc.	c #7962F4",
"Ac.	c #5949B4",
"Bc.	c #0D0B1A",
"Cc.	c #200C1A",
"Dc.	c #61254E",
"Ec.	c #712A57",
"Fc.	c #3D162E",
"Gc.	c #13070F",
"Hc.	c #964388",
"Ic.	c #A04A97",
"Jc.	c #AD50A2",
"Kc.	c #562851",
"Lc.	c #110F2B",
"Mc.	c #2B266A",
"Nc.	c #332D7C",
"Oc.	c #363082",
"Pc.	c #302B75",
"Qc.	c #2D2A6C",
"Rc.	c #302C71",
"Sc.	c #332E76",
"Tc.	c #352F79",
"Uc.	c #35307A",
"Vc.	c #35317A",
"Wc.	c #332F75",
"Xc.	c #2F2B6A",
"Yc.	c #282458",
"Zc.	c #201D47",
"`c.	c #161430",
" d.	c #0A0A17",
".d.	c #090806",
"+d.	c #090807",
"@d.	c #5D544E",
"#d.	c #CBB6A9",
"$d.	c #211E1B",
"%d.	c #020302",
"&d.	c #C0ACA0",
"*d.	c #9C8D84",
"=d.	c #4F4843",
"-d.	c #F0DECD",
";d.	c #423B34",
">d.	c #13141A",
",d.	c #32364B",
"'d.	c #161922",
")d.	c #636271",
"!d.	c #272631",
"~d.	c #E1DEEF",
"{d.	c #9999A6",
"]d.	c #4E4E5C",
"^d.	c #84839A",
"/d.	c #6A6879",
"(d.	c #32354A",
"_d.	c #383A4F",
":d.	c #383C52",
"<d.	c #343650",
"[d.	c #3E4161",
"}d.	c #28161A",
"|d.	c #BF6B7D",
"1d.	c #AB6071",
"2d.	c #985565",
"3d.	c #B56579",
"4d.	c #B9667F",
"5d.	c #2E1921",
"6d.	c #272439",
"7d.	c #8178C2",
"8d.	c #685FA0",
"9d.	c #6B62A7",
"0d.	c #6558B1",
"ad.	c #7060C4",
"bd.	c #7261C9",
"cd.	c #6B5BC5",
"dd.	c #7765DA",
"ed.	c #6151B4",
"fd.	c #6451C9",
"gd.	c #7A63F6",
"hd.	c #5243A7",
"id.	c #05050C",
"jd.	c #471B39",
"kd.	c #722C5A",
"ld.	c #541F41",
"md.	c #090206",
"nd.	c #823A77",
"od.	c #A24B99",
"pd.	c #AC4FA1",
"qd.	c #813C79",
"rd.	c #0F0D25",
"sd.	c #1F1A4C",
"td.	c #040309",
"ud.	c #0C0A1D",
"vd.	c #211D51",
"wd.	c #332D7B",
"xd.	c #373184",
"yd.	c #342E7D",
"zd.	c #322D77",
"Ad.	c #2F296E",
"Bd.	c #2D286A",
"Cd.	c #2D2869",
"Dd.	c #2C2867",
"Ed.	c #2E2868",
"Fd.	c #2F2A6B",
"Gd.	c #312C6F",
"Hd.	c #322E71",
"Id.	c #353076",
"Jd.	c #36327B",
"Kd.	c #302D6C",
"Ld.	c #29265C",
"Md.	c #1A1838",
"Nd.	c #393330",
"Od.	c #E6CEC0",
"Pd.	c #4E4641",
"Qd.	c #95857C",
"Rd.	c #D6C0B1",
"Sd.	c #131210",
"Td.	c #F1DACA",
"Ud.	c #7E7069",
"Vd.	c #554C46",
"Wd.	c #231E1A",
"Xd.	c #202435",
"Yd.	c #292B3B",
"Zd.	c #1F2331",
"`d.	c #575562",
" e.	c #818096",
".e.	c #6D6D83",
"+e.	c #4B4C57",
"@e.	c #EAE7EE",
"#e.	c #E8E3F8",
"$e.	c #B7B6C9",
"%e.	c #D4D3E4",
"&e.	c #67667C",
"*e.	c #767589",
"=e.	c #818095",
"-e.	c #25262D",
";e.	c #191A24",
">e.	c #2E3142",
",e.	c #34364F",
"'e.	c #32344E",
")e.	c #3B3E5C",
"!e.	c #7A444F",
"~e.	c #C26D81",
"{e.	c #9C5869",
"]e.	c #995568",
"^e.	c #B6657D",
"/e.	c #B6647F",
"(e.	c #311B22",
"_e.	c #242238",
":e.	c #7F75C2",
"<e.	c #7C72C0",
"[e.	c #685EA1",
"}e.	c #7A69D7",
"|e.	c #5A4DA1",
"1e.	c #1B1732",
"2e.	c #7765DB",
"3e.	c #705DCE",
"4e.	c #6151B6",
"5e.	c #6553CD",
"6e.	c #0A0408",
"7e.	c #61244C",
"8e.	c #6F2958",
"9e.	c #65264D",
"0e.	c #11060C",
"ae.	c #602B5A",
"be.	c #AD4EA1",
"ce.	c #A24A97",
"de.	c #9F4894",
"ee.	c #000108",
"fe.	c #302A78",
"ge.	c #3B3392",
"he.	c #302973",
"ie.	c #1D1947",
"je.	c #080816",
"ke.	c #1D1946",
"le.	c #28225F",
"me.	c #2A2564",
"ne.	c #2E2970",
"oe.	c #322D79",
"pe.	c #342D7B",
"qe.	c #332D78",
"re.	c #312D75",
"se.	c #2D2868",
"te.	c #2D2968",
"ue.	c #312D6F",
"ve.	c #353177",
"we.	c #322F70",
"xe.	c #191737",
"ye.	c #2A2523",
"ze.	c #463F3B",
"Ae.	c #96877D",
"Be.	c #24201E",
"Ce.	c #746861",
"De.	c #99897E",
"Ee.	c #26221F",
"Fe.	c #37312D",
"Ge.	c #A9978D",
"He.	c #2D2826",
"Ie.	c #615650",
"Je.	c #25201B",
"Ke.	c #111421",
"Le.	c #21232F",
"Me.	c #3D4258",
"Ne.	c #33374C",
"Oe.	c #7E7C94",
"Pe.	c #6D6C83",
"Qe.	c #6B6B7D",
"Re.	c #C4C3D3",
"Se.	c #C5C4D3",
"Te.	c #6E6D7E",
"Ue.	c #6A6980",
"Ve.	c #7A798E",
"We.	c #89879F",
"Xe.	c #2E2E37",
"Ye.	c #1D2030",
"Ze.	c #181A22",
"`e.	c #33354F",
" f.	c #363854",
".f.	c #241417",
"+f.	c #B66679",
"@f.	c #AB5F73",
"#f.	c #9C566B",
"$f.	c #995669",
"%f.	c #B8647F",
"&f.	c #B56280",
"*f.	c #27151C",
"=f.	c #211E34",
"-f.	c #7B70BE",
";f.	c #8074C6",
">f.	c #685EA4",
",f.	c #6A5EA9",
"'f.	c #6C5EBC",
")f.	c #7565D1",
"!f.	c #242042",
"~f.	c #2D2655",
"{f.	c #7D68E8",
"]f.	c #6D5BCC",
"^f.	c #6151B7",
"/f.	c #6653CF",
"(f.	c #7A63F7",
"_f.	c #3E337F",
":f.	c #280F1F",
"<f.	c #742C5B",
"[f.	c #742B5A",
"}f.	c #1A0911",
"|f.	c #361935",
"1f.	c #B350A7",
"2f.	c #9B4690",
"3f.	c #AF50A3",
"4f.	c #38182D",
"5f.	c #00030E",
"6f.	c #342F83",
"7f.	c #2F2975",
"8f.	c #302A77",
"9f.	c #363084",
"0f.	c #332C7C",
"af.	c #241F58",
"bf.	c #0C0B1D",
"cf.	c #100E26",
"df.	c #151334",
"ef.	c #1C1842",
"ff.	c #242058",
"gf.	c #2B2768",
"hf.	c #35307C",
"if.	c #35307E",
"jf.	c #332E79",
"kf.	c #302A6D",
"lf.	c #2F296B",
"mf.	c #2C2863",
"nf.	c #2D2A66",
"of.	c #343073",
"pf.	c #272557",
"qf.	c #090808",
"rf.	c #CFBAAD",
"sf.	c #8C7E75",
"tf.	c #615752",
"uf.	c #F9DED0",
"vf.	c #171514",
"wf.	c #E9D3C5",
"xf.	c #B6A69B",
"yf.	c #494540",
"zf.	c #33384E",
"Af.	c #171A27",
"Bf.	c #242737",
"Cf.	c #4D4E5C",
"Df.	c #80808F",
"Ef.	c #C5C5D4",
"Ff.	c #D8D7E8",
"Gf.	c #777589",
"Hf.	c #4F4E5C",
"If.	c #202230",
"Jf.	c #242635",
"Kf.	c #343651",
"Lf.	c #333550",
"Mf.	c #28283F",
"Nf.	c #6E3F4A",
"Of.	c #C36C83",
"Pf.	c #9E576B",
"Qf.	c #9E576E",
"Rf.	c #99536B",
"Sf.	c #B86381",
"Tf.	c #B26080",
"Uf.	c #2C1820",
"Vf.	c #1A1829",
"Wf.	c #6E65AE",
"Xf.	c #685EA7",
"Yf.	c #7969D5",
"Zf.	c #4D4288",
"`f.	c #30285B",
" g.	c #7965E3",
".g.	c #6958C6",
"+g.	c #6252BA",
"@g.	c #6E5ADE",
"#g.	c #7A62F7",
"$g.	c #382D72",
"%g.	c #4B1D3B",
"&g.	c #833267",
"*g.	c #411730",
"=g.	c #110911",
"-g.	c #994591",
";g.	c #A4499A",
">g.	c #AF50A4",
",g.	c #662F5D",
"'g.	c #16143C",
")g.	c #342D81",
"!g.	c #2B266C",
"~g.	c #2C276C",
"{g.	c #2F2973",
"]g.	c #352E82",
"^g.	c #362F83",
"/g.	c #27225F",
"(g.	c #151234",
"_g.	c #020207",
":g.	c #030308",
"<g.	c #090713",
"[g.	c #0E0D22",
"}g.	c #181638",
"|g.	c #221E50",
"1g.	c #28255F",
"2g.	c #342F7A",
"3g.	c #37307D",
"4g.	c #36307A",
"5g.	c #342F78",
"6g.	c #332F76",
"7g.	c #322E73",
"8g.	c #302B6B",
"9g.	c #2F2A68",
"0g.	c #3E3A8D",
"ag.	c #39357E",
"bg.	c #14132C",
"cg.	c #211E1C",
"dg.	c #625751",
"eg.	c #514943",
"fg.	c #59504A",
"gg.	c #504943",
"hg.	c #221E1C",
"ig.	c #645A54",
"jg.	c #625853",
"kg.	c #625752",
"lg.	c #605751",
"mg.	c #69625B",
"ng.	c #665E57",
"og.	c #040100",
"pg.	c #202331",
"qg.	c #36394C",
"rg.	c #2D3142",
"sg.	c #0C0E16",
"tg.	c #0E0E14",
"ug.	c #1C1C1E",
"vg.	c #171821",
"wg.	c #1C1F2E",
"xg.	c #3D3D49",
"yg.	c #77758B",
"zg.	c #65647A",
"Ag.	c #767587",
"Bg.	c #858495",
"Cg.	c #79788D",
"Dg.	c #76748A",
"Eg.	c #51505D",
"Fg.	c #1D202D",
"Gg.	c #393B5B",
"Hg.	c #393A5A",
"Ig.	c #1C1013",
"Jg.	c #B4657A",
"Kg.	c #AE6076",
"Lg.	c #9C556D",
"Mg.	c #9F576F",
"Ng.	c #B86384",
"Og.	c #B26081",
"Pg.	c #28151E",
"Qg.	c #0F0D18",
"Rg.	c #655B9F",
"Sg.	c #8375D3",
"Tg.	c #6D61B1",
"Ug.	c #685DAC",
"Vg.	c #6B5DB7",
"Wg.	c #6F60C0",
"Xg.	c #7E6DDC",
"Yg.	c #252041",
"Zg.	c #41377C",
"`g.	c #7360D8",
" h.	c #6856C3",
".h.	c #6352BD",
"+h.	c #6C57D8",
"@h.	c #755FEA",
"#h.	c #6C58DA",
"$h.	c #10060C",
"%h.	c #712B58",
"&h.	c #6B2853",
"*h.	c #622D5E",
"=h.	c #AF4DA3",
"-h.	c #A44A9B",
";h.	c #883E81",
">h.	c #01040E",
",h.	c #2F2A78",
"'h.	c #2E2975",
")h.	c #2C276D",
"!h.	c #2B266B",
"~h.	c #2E2972",
"{h.	c #342D7F",
"]h.	c #362E83",
"^h.	c #2E276F",
"/h.	c #1F1B4C",
"(h.	c #0D0C20",
"_h.	c #0A0817",
":h.	c #11102B",
"<h.	c #1A173B",
"[h.	c #1E1A45",
"}h.	c #231F52",
"|h.	c #2A255E",
"1h.	c #2E2A6A",
"2h.	c #332E74",
"3h.	c #231F4C",
"4h.	c #22204D",
"5h.	c #171533",
"6h.	c #0B0A09",
"7h.	c #5A514C",
"8h.	c #25211E",
"9h.	c #FBE1D1",
"0h.	c #7B6D66",
"ah.	c #453E39",
"bh.	c #181513",
"ch.	c #897A72",
"dh.	c #908881",
"eh.	c #090300",
"fh.	c #272B39",
"gh.	c #666272",
"hh.	c #DAD8E3",
"ih.	c #ABAAB7",
"jh.	c #07080E",
"kh.	c #26293B",
"lh.	c #86859B",
"mh.	c #77768E",
"nh.	c #68677E",
"oh.	c #636277",
"ph.	c #7A788E",
"qh.	c #9392AD",
"rh.	c #5E5B6B",
"sh.	c #13131B",
"th.	c #2E3145",
"uh.	c #181921",
"vh.	c #1B1C2C",
"wh.	c #703E4C",
"xh.	c #C16B84",
"yh.	c #9E5670",
"zh.	c #98526C",
"Ah.	c #B76184",
"Bh.	c #B46085",
"Ch.	c #301A25",
"Dh.	c #544A88",
"Eh.	c #8677DB",
"Fh.	c #7D70CF",
"Gh.	c #7B6DCD",
"Hh.	c #796ACC",
"Ih.	c #7567C9",
"Jh.	c #8573E6",
"Kh.	c #6A5CB9",
"Lh.	c #16132C",
"Mh.	c #6353BE",
"Nh.	c #6554BF",
"Oh.	c #6755C2",
"Ph.	c #6853CE",
"Qh.	c #3A2F75",
"Rh.	c #0D0A1B",
"Sh.	c #35142A",
"Th.	c #88346A",
"Uh.	c #1B0812",
"Vh.	c #2C162C",
"Wh.	c #AA4C9F",
"Xh.	c #A34998",
"Yh.	c #A64B9D",
"Zh.	c #281122",
"`h.	c #282364",
" i.	c #332D80",
".i.	c #2C276E",
"+i.	c #2C286E",
"@i.	c #322C79",
"#i.	c #332D7E",
"$i.	c #282360",
"%i.	c #19163C",
"&i.	c #0A0917",
"*i.	c #0C0B1C",
"=i.	c #0A0A18",
"-i.	c #0E0D1E",
";i.	c #1F1B19",
">i.	c #8B7C73",
",i.	c #665C56",
"'i.	c #2B2623",
")i.	c #594E49",
"!i.	c #97867D",
"~i.	c #4D4440",
"{i.	c #23201E",
"]i.	c #635A54",
"^i.	c #84776E",
"/i.	c #2D2927",
"(i.	c #58524C",
"_i.	c #ABA397",
":i.	c #544D47",
"<i.	c #625D56",
"[i.	c #161410",
"}i.	c #13141D",
"|i.	c #434861",
"1i.	c #32354C",
"2i.	c #6C6874",
"3i.	c #6D6D75",
"4i.	c #CAC9D0",
"5i.	c #F2F0FF",
"6i.	c #151516",
"7i.	c #191A27",
"8i.	c #3C3A44",
"9i.	c #858399",
"0i.	c #78768C",
"ai.	c #8E8DA9",
"bi.	c #47454F",
"ci.	c #2C3045",
"di.	c #3D4058",
"ei.	c #282A38",
"fi.	c #060709",
"gi.	c #363653",
"hi.	c #2E3049",
"ii.	c #373959",
"ji.	c #1F1115",
"ki.	c #B2627A",
"li.	c #AB5D76",
"mi.	c #9C546E",
"ni.	c #9F5670",
"oi.	c #9E5571",
"pi.	c #98516E",
"qi.	c #B36084",
"ri.	c #B66088",
"si.	c #3E212F",
"ti.	c #342E55",
"ui.	c #494179",
"vi.	c #3B3463",
"wi.	c #2F284E",
"xi.	c #2A2448",
"yi.	c #302A55",
"zi.	c #19162D",
"Ai.	c #423880",
"Bi.	c #6958CA",
"Ci.	c #5C4CAF",
"Di.	c #6856C7",
"Ei.	c #6353BF",
"Fi.	c #634FC4",
"Gi.	c #745DE6",
"Hi.	c #45388B",
"Ii.	c #0F0D21",
"Ji.	c #6D2A56",
"Ki.	c #491A37",
"Li.	c #92428B",
"Mi.	c #A54A9A",
"Ni.	c #AE4EA4",
"Oi.	c #4E2349",
"Pi.	c #1A1744",
"Qi.	c #363089",
"Ri.	c #2C276F",
"Si.	c #2B266D",
"Ti.	c #2B276D",
"Ui.	c #2C266D",
"Vi.	c #302975",
"Wi.	c #342D7E",
"Xi.	c #302A74",
"Yi.	c #25215A",
"Zi.	c #151332",
"`i.	c #090817",
" j.	c #0B0A1B",
".j.	c #0D0C21",
"+j.	c #111028",
"@j.	c #14122E",
"#j.	c #1A173A",
"$j.	c #231F4F",
"%j.	c #2A265F",
"&j.	c #302C6B",
"*j.	c #332E71",
"=j.	c #332F71",
"-j.	c #2F2B67",
";j.	c #29275C",
">j.	c #23214D",
",j.	c #0D0C1C",
"'j.	c #0C0C0B",
")j.	c #C6B1A5",
"!j.	c #83756D",
"~j.	c #5E544D",
"{j.	c #E9D0C2",
"]j.	c #24211E",
"^j.	c #918379",
"/j.	c #B9A79B",
"(j.	c #47433E",
"_j.	c #F9F2E2",
":j.	c #453B38",
"<j.	c #C8BBAE",
"[j.	c #1F2230",
"}j.	c #454862",
"|j.	c #24283A",
"1j.	c #1A1923",
"2j.	c #E7E4F1",
"3j.	c #A4A4A9",
"4j.	c #92909C",
"5j.	c #39383D",
"6j.	c #1A1E2B",
"7j.	c #1F2028",
"8j.	c #5D5C6A",
"9j.	c #737284",
"0j.	c #8A89A0",
"aj.	c #626171",
"bj.	c #242327",
"cj.	c #080A11",
"dj.	c #33374D",
"ej.	c #222330",
"fj.	c #40425A",
"gj.	c #34364B",
"hj.	c #2F314C",
"ij.	c #30324F",
"jj.	c #3B3C5F",
"kj.	c #0E0F18",
"lj.	c #794353",
"mj.	c #BD6783",
"nj.	c #9E5671",
"oj.	c #9E5572",
"pj.	c #9E5473",
"qj.	c #96506F",
"rj.	c #B05D83",
"sj.	c #BE6490",
"tj.	c #4A2739",
"uj.	c #604FB6",
"vj.	c #6452BF",
"wj.	c #5A4BAE",
"xj.	c #6755C6",
"yj.	c #6753CB",
"zj.	c #7760EC",
"Aj.	c #5C4BBA",
"Bj.	c #201A41",
"Cj.	c #2D1224",
"Dj.	c #62254B",
"Ej.	c #7E3A77",
"Fj.	c #A74B9D",
"Gj.	c #AB4DA1",
"Hj.	c #7E3976",
"Ij.	c #06091B",
"Jj.	c #39338F",
"Kj.	c #2D2872",
"Lj.	c #2C266C",
"Mj.	c #2D276E",
"Nj.	c #302A75",
"Oj.	c #282361",
"Pj.	c #1E1A49",
"Qj.	c #171437",
"Rj.	c #26215A",
"Sj.	c #2F2A70",
"Tj.	c #322C75",
"Uj.	c #322E77",
"Vj.	c #342F79",
"Wj.	c #36307C",
"Xj.	c #36307D",
"Yj.	c #363079",
"Zj.	c #302C6D",
"`j.	c #312C6E",
" k.	c #343176",
".k.	c #363379",
"+k.	c #363378",
"@k.	c #353071",
"#k.	c #2C285E",
"$k.	c #1A1937",
"%k.	c #433C38",
"&k.	c #84776F",
"*k.	c #100E0D",
"=k.	c #2F2A27",
"-k.	c #B5A297",
";k.	c #4B443E",
">k.	c #6A5F58",
",k.	c #0F0D0C",
"'k.	c #C7B4A8",
")k.	c #72665F",
"!k.	c #776D66",
"~k.	c #C7BBAD",
"{k.	c #2A221F",
"]k.	c #4E4541",
"^k.	c #59524B",
"/k.	c #1D202E",
"(k.	c #181B2B",
"_k.	c #2A2934",
":k.	c #D2CEE7",
"<k.	c #E7E5F9",
"[k.	c #B6B4C5",
"}k.	c #5A5862",
"|k.	c #100F10",
"1k.	c #303446",
"2k.	c #2E3146",
"3k.	c #1C1F2F",
"4k.	c #10131D",
"5k.	c #1B1B23",
"6k.	c #2B2B33",
"7k.	c #383842",
"8k.	c #484752",
"9k.	c #52505E",
"0k.	c #3B3B44",
"ak.	c #242429",
"bk.	c #161723",
"ck.	c #3D4059",
"dk.	c #35384F",
"ek.	c #222338",
"fk.	c #2F1A22",
"gk.	c #B4637E",
"hk.	c #A85B76",
"ik.	c #9D556F",
"jk.	c #9D5374",
"kk.	c #975071",
"lk.	c #A95881",
"mk.	c #C56697",
"nk.	c #542C42",
"ok.	c #18142D",
"pk.	c #6E5CD1",
"qk.	c #5D4DB4",
"rk.	c #6251C2",
"sk.	c #3B2F76",
"tk.	c #030207",
"uk.	c #230D1A",
"vk.	c #592A57",
"wk.	c #AE4FA3",
"xk.	c #A34898",
"yk.	c #A14997",
"zk.	c #140811",
"Ak.	c #0F0E27",
"Bk.	c #1E1B4C",
"Ck.	c #2A266A",
"Dk.	c #312C7B",
"Ek.	c #312B79",
"Fk.	c #2D2770",
"Gk.	c #2D276D",
"Hk.	c #312A77",
"Ik.	c #342E80",
"Jk.	c #312C74",
"Kk.	c #302A71",
"Lk.	c #2E2A6D",
"Mk.	c #2E2967",
"Nk.	c #2E2B67",
"Ok.	c #322E6D",
"Pk.	c #353174",
"Qk.	c #39357A",
"Rk.	c #34306E",
"Sk.	c #1E1C40",
"Tk.	c #080811",
"                                                                                                                                                                                                                                                                                                                        .  +  @  #  $  %  &  *  =  -  ;  >  ,  >  '  >  )  !  )  )  !  ~  ,  !  {  ]  ^  -  ^  -  ;  ;  '  ~  >  /  (  _  /  !  ]  :  <  [  }  |  1  2                                                                                3  4  5  6  7  8              9  0  a                                                                                                                                                                                                     ",
"                                                                                                                                                                                                                                                                                                            b  c  d  e  f  g  h  i  _  _  j  )  h  k  l  l  ]  k  m  n  h  ;  ;  n  o  l  ]  l  ]  n  ]  =  m  l  l  l  o  p  q  r  s  {  ~  >  t  i  i  i  i  i  u  v  w  x  y  z  A                                                              B  C  7  D  E  F  G        H  I  J  K  L                                                                                                                                                                                                     ",
"                                                                                                                                                                                                                                                                                             M  N  O  P  Q  R  ^  i  i  j  -  p  q  =  S  q  s  q  T  o  =  p  m  =  k  l  o  S  r  U  s  s  s  m  n  o  =  m  p  =  o  p  S  m  S  V  p  l  n  u  u  u  ;  >  (  i  i  i  i  i  l  W  X  Y  Z  `                              .                .. +. @. #. $. %. &.       *. =. -. ;. >.                                                                                                                                                                                                       ",
"                                                                                                                                                                                                                                                                                    ,. '. ). <  g  '  (  /  {  h  -  S  !. g  ~. q  q  s  T  s  V  V  {. {. ]. T  s  g  U  *  ^. /. ~. !. V  V  (. _. (. (. {. V  !. r  r  q  T  o  n  ]  n  l  u  h  {  h  ~  ;  ;  ~  '  ,  j  i  i  i  i  >  :. X  <. [. }.          L  |. 1.             2. 3. 4. 5. 6. 7. 8. 9. 0. a. b. c. d. e.                                                                                                                                                                                                          ",
"                                                                                                                                                                                                                                                                        f. g. h. i. j. R  ]. ~. {. {. !. ~. ]. q  S  {. v  /. k. !. R  /. !. (. ^. _. r  !. r  U  v  l. :. m. n. v  ~. !. o. p. :. q. :  q. ^. U  (. (. r  s  V  q  p  p  u  o  s  u  ~  {  {  h  ;  ~  ,  ,  h  -  ~  /  i  i  i  i  i  :. r.       9. s. t.             u. v. w. x. y. z. A. B. C. D. E. F. c. G. H.                                                                                                                                                                                                          ",
"                                                                                                                                                                                                                                                                  I. J. K. <  L. M. N. O. P. L. q. U  v  Q. *  ^. :. (. ^. :  :. q. :. (. R  m. R. n. (. U  ^. l. R  (. :. :  g  :. :  S. T. f  q. m. ^. _. q. :. :. k. *  U  V  s  S  s  r  g  R  (. =  n  ^  ;  ~  h  ;  ~  !  ,  h  >  /  /  /  i  T  U.       V. W. X.             Y. d. Z. `.  + .+ ++ @+ 0. #+ $+ %+ &+ *+ =+                                                                                                                                                                                                             ",
"                                                                                                                                                                                                                                                         -+ ;+ %  >+ ,+ '+ )+ !+ ~+ N. R. (. *  l. (. (. W  {+ R. ]+ f  ^+ ^. S. W  ^+ R. /+ (+ p. ^+ {+ /+ o. _+ f  /. q. {+ /+ w  &  p. :+ &  T. :+ ,+ p. M. _+ >+ :. S. n. !. p  s  q  !. g  V  s  V  S  =  T  o  -  ^  ^  ;  {  {  >  >  i  i  /. <+       [+ }+ |+             1+ 2+ 3+ x.  +  + 4+ 5+ 6+ 7+ 8+ 9+ 0+ %. a+                                                                                                                                                                                                                ",
"                                                                                                                                                                                                                                                ,. b+ c+ o. {+ d+ )+ e+ f+ g+ h+ _+ :  S. >+ >+ m. S. _+ w  :+ o. w  i+ d+ K. j+ Q  h+ k+ P. l+ m+ n+ e  ~+ o+ p+ '+ k+ q+ :+ (+ r+ l. L. N. s+ t+ p. K. k+ s+ L. ]+ t+ L. d+ L. *  V  :+ ^+ p  p  {. k. ]+ W  Q. m  l  q  S  m  l  ]  u  ,  ^  t+ u+          v+ w+ x+          y+ 2+ z+ A+  +  + B+ C+ D+ E+ F+ G+ H+ I+ J+                            K+ L+                                                                                                                                                                                  ",
"                                                                                                                                                                                                                                       M+ N+ )+ L. U  S. X  O+ P+ Q+ [  R+ o+ m+ %  S+ P. O. l+ O. '+ [  T+ K. w  U+ V+ U+ [  p+ m+ W+ m+ [  W+ )+ Q+ P  X+ i. Y+ !+ Z+ T+ e  `+ R. >+ T. w  W  S. M.  @ .@ s+ O. +@ p+ @@ +@ ~+ o+ q+ h+ R+ T. f  /+ `+ S+ p. >+ U  g  l. v  V  ]. S  =  i  #@             $@ %@ &@          *@ I+ =@ -@  +  +  + ;@ >@ ,@ x+ '@ )@ d. !@ ~@                {@ ]@ ^@ /@ (@ _@                                                                                                                                                                                  ",
"                                                                                                                                                                                                                                 :@ O  s+ ,+ _+ s+ Z+ <@ O+ [@ ~+ n+ +@ V+ g+ i. [@ }@ #@ <@ )+ |@ 1@ O+ g+ [  #@ P  2@ U+ X  @@ N. q+ `+ 3@ l+ '+ o+ e  Y+ e  X  [  <@ 4@ O+ }@ m+ '+ M. f  /. _+ j+  @ d+ .@ p+ %  l+ @@ s+ +@ <@ Z+ i+ R+ @@ '+ %  j+ :+ T. P. K. ^+ m  /. k. :. p  i  :  I.       x+ 5@ 6@ 7@          8@ d. 9@ `.  +  +  + 0@ a@ b@ c@ d@ e@ d. f@ g@          h@ i@ j@ k@ l@ m@ n@ o@ p@                                                                                                                                                                                  ",
"                                                                                                                                                                                                                           q@ r@ `+ l. d+ X+ s@ X+ )+ Q+ !+ Y+ T+ W+ Y+ W+ g+ Z+ R+ g+ t@ u@ }  v@ d  1@ $  |@ f+ J. V+ T+ [  '+ *  ]. ^. j. j+ w  O. %  n+ #@ l+ K. m+ [@ X  i+ o+ O. ,+ S. :+ L. T. (+ M. s+ m. M. X  k+ i+ e  X  h+ k+ s+ q+ @@ @@ 3@ M. d+ h+ N. M. !. _. f  r  !. Y+ w@       x@ y@ z@ A@          B@ C@ D@ E@  +  +  +  + F@ 7  G@ H@ I@ J@ K@       L@ M@ N@ O@ P@ Q@ 5  R@ S@ T@                                                                                                                                                                                        ",
"                                                                                                                                                                                                                     U@ O+ /+ R  i+ P+ <. J. V@ !+ P  x  V+ c+ <@ Y+ o+ #@ ~+ +@ R+ P  P+ O+ W@ 1@ X@ P+ P+ 4@ $  [@ e  '+ '+ i+ L. &  N. j+ O. N. :+ `+ f  T. `+ {+ m. ]+ {+ ^. ^+ _. l  :  &  L. P. &  _+ N. L. P. e  U+ ~+ Y+ l+ h+ n+ '+ n+ p+ N. <  <  k+ i+ K. P. d+ w  r  T  Y@          Z@ `@ z@  #          .# +# 4. @#  +  +  +  + ## $# %# &# *# =#       -# ;# ># P@ 5  w. ,# '# C@ )# Z@                                                                                                                                                                                           ",
"                                                                                                                                                                                                               }. !# L. ^+ h+ J. ~# 1@ x  X+ J. f+ P  V+ !+ V@ g+ U+ 2@ X+ c+ e  [@ V@ ). <. !# P+ W@ J. x  P  c+ o+ Z+ o+ }@ _+ f  <  ,+ n. Q  <  g  m. *  ^  v  q. m. _. U  :. *  ^. /. {+ {+ L.  @ 3@ S+ O. i+ d+ %  l+ k+ s+ k+ +@ @@ @@ e  T+ @@ P. S+ h+ %  X  p+ R+  @ :. {#          ]# ^# /# (# _# :#    <# [# }# |#  +  +  +  +  + 6. c. 1#       2# 3# 4# 5  5  5# 6# 7# @# P@ c. 8#                                                                                                                                                                                                 ",
"                                                                                                                                                                                                         r. #  .@ Q  g+ !# r@ ~# W@ ). f+ W@ |@ X+ )+ P  |@ 2@ i. P  Q+ P  2@ ~+ Q+ }  e+ Q+ Y+ Q+ W@ J. V@ V+ V@ x  o+ X  O. Q. R  R  !. S. R. ^. *  R  g  g  k. R. W  n. r+ {+ >+ f  {+ L. _+ t+ t+ S+ 3@ S. :. r+ S+ <  j. :+ N. e  X  h+ m+ ~+ +@ s+ @@ R+ h+ +@ T+ s+ i+ 9#          0# a# b# c# d# .#    e# f# g# x. h#  +  +  +  + y. i# 3. j# k# l# m# C@ )@ n# 0@ 0@ o# p# q# r# s#                                                                                                                                                                                                    ",
"                                                                                                                                                                                                   t# u# q+ M. Q+ v# w# !# t@ d  4@ 1@ X@ P  P  W@ P+ $  V+ 2@ ). !+ 2@ X  +@ @@ 2@ v@ J. &  t+ e  [  '+ n+ p+ }@ N. &  f  o. :  Q. _. ^+ ^+ q. {+ W  k. v  l. n. >+ {+ p. /+ m. S. t+ t+ n. o. :+ >+ q. ^+ ,+ /+ M. }@ R+ K. &  '+ [@ c+ #@ T+ n+ h+ p+ m+ o+ #@ X  d+ +@ x#          y# z# A# g# B# C# D# E# F# }# 5.  +  +  +  +  +  + .+ G# H#    I# R@ 7. J# B+  +  + 6. K# E. L# M#                                                                                                                                                                                                       ",
"                                                                                                                                                                                             N# {# N. P. [@ #  !# v@ O# P# 1@ 1@ d  1@ O+ s@ e+ e+ J. V+ <@ x  Q+ 2@ V+ %  j+ Q+ x  .@ T. k. `+ w  {+ m. p. r+ U  q  k. R  m. l. q. _. Q. ^+ t+ _. U  g  _. ,+ p. _+ M. w  /+ {+ n. f  o. ^+ {+ t+ q+ <  T. i+ o+ X+ n+ r+ ~. p  R  &  K. T+ '+ h+ N. q+ `+ Q  S+ ,+ ]+ Q#          R# S# 5+ T# U# V# W# X# Y# G# x. h#  +  +  +  +  + Z# `#  $ =# .$ +$ @$ @# #$  +  + A+ $$ %$ &$ *$                                                                                                                                                                                                          ",
"                                                                                                                                                                                          Z  [  q+ #@ P# =$ ). X+ O# <. X@ d  d  1@ f+ 1@ t@ s@ |@ [@ ~+ P  Q+ f+ ). V+ J. W@ <. O+ d+ t+ p. :+ p. ,+ p. ]+ l. >+ f  S. m. k. Q. R  ^. *  :  ,+ v  k  q  *  p. L. j. q+ j. P. S+ <  T. j. <  t+ n. h+ l+ 3@ _+ o. o. ,+ o. o. l. q  =  {. ,+ o. r+ ^. g  (. U  R  q  s+ -$       ;$ >$ c. +$ ,$ '$ )$ *. !$ }# ~$  +  +  +  +  +  +  + B+ {$ ]$ H. ^$ 7  /$ ($  +  + `. _$ d. :$                   r. N#                                                                                                                                                                                        ",
"                                                                                                                                                                                    `  e+ `+ S+ |@ ;+ ~# u@ d  O# d  d  v@ P# 4@ |@ d  e+ s@ |@ V@ !+ 1@ <. !# t@ e+ v@ ~# <. d  m+  @ N. j. {+ p. o. R. f  (+ j. ^+ p. q+ :. ]. g  q. f  ]+ f  `+ &  /+ >+ j. q+ <  _+ `+ s+ _+ T. <  t+ t+ W  {+ T. <  j. f  {+ >+ W  S+ K. <  _+ (. h  ;  k  =  k. t+ r+ f  n. q  Y@          <$ 7  '# [$ }$    |$ 1$ 2$ 5.  +  +  +  +  +  +  +  + 3$ C@ 4$ 5$ 6$ '# 7$  +  + E@ 8$ q# 9$                   0$ ]  p. N                                                                                                                                                                                      ",
"                                                                                                                                                                                 x# }@ _+ h+ !+ d  r@ r@ r@ r@ <. t@ ~# <. e+ W@ e+ e+ s@ O+ O+ P  b+ a$ b$ W@ t@ }  !# 1@ d  d  [  S+ h+ j. L. S+ j. R. ^. `+ j. t+ P. <  W  v  *   @ i. [@ <@ X+ V@ 2@ g+ ~+ o+ Z+ '+ 3@ j. &  k+ j+ U  R  o.  @ q+ <  O. K.  @ O. @@ X  +@ T+ %  M. U  U  Q. :  `+ p. R. l. S  2@ `        c$ 5  $# c. d$    e$ f$ Q@ 5. ($  +  +  +  +  +  +  + 0@ g$ h$ M# i$ >@ j$ #$  + 7# k$ d. l$                   9# l. (  i  n  f+ f.                                                                                                                                                                               ",
"                                                                                                                                                                           t# s@ L. M. O. X+ m$ r@ r@ O# ~# t@ !# <. }  t@ }  r@ u@ P  J. 1@ f+ r@ +     n$ O# f+ d  }  O# <. f+ )+ .@ @@ l+ d+ S+ S+ f  {+ :+ Q   @ `+ S. v  ^. '+ f+ W@ f+ J. J. f+ Q+ )+ V@ )+ $  x  h+ *  _+ @@  @ :+ s+ m+ 2@ !+ c+ !+ |@ <@ Q+ X@ s@ X@ u@ 4@ ~+ (+ L. f  ]+ l. S. k+ `+ x           o$ p$ k$ q$ r$    s$ t$ u$ @# ($  +  +  +  +  +  +  +  + 0@ p$ v$    w$ g# 6. x$ y$ z$ d. A$                   0$ ^+ ~. Q. /. h  i  r+ B$                                                                                                                                                                            ",
"                                                                                                                                                                        Q# w  t+ @@ i+ x  C$ w# O# P# }  !# v@ <. t@ ~# O# O# u@ J. J. X@ }  x  v#          {# X+ !# u@ v@ }@ O. m+ m+ n+ p+ k+ h+ j+ Q  O. w  d+  @ ,+ :. ]. N. P  O+ W@ f+ |@ |@ W@ Q+ Y+ <@ P  $  ). $  k+ :+ q. p. g+ $  Q+ ). J. ~+ s+ n+ ~+ i. Q+ P  W@ P+ d  P  Y+ O. `+ R. S  '+ P  u#          D$ E$ )@ F$ 7  B  G$ H$ I$ J$ ($  +  +  +  +  +  +  +  + ## K$ 3. L$ M$ N$ O$ P$ B+ n# Q$ R$                ,. V+ {+ T  S. >+ R  :. q  i  /  [  S$                                                                                                                                                                      ",
"                                                                                                                                                                  n$ J. :+ e  e+ J. t@ h. #  O# O# !# t@ v@ !# ~# v@ ~# ~# <. W@ u@ !# <. d  ). |           T$ d  v@ ). n+ K. '+ #@ O. j+ l+ p+ p+ k+ h+ i+ @@ O. `+ o. n. M. x  x  $  X@ f+ ). J. 4@ )+ V+ Q+ x  1@ P+ f+ V@ }@ Z+ !+ 4@ x  Q+ ). ). 2@ ~+ %  s+ w  h+ |@ s@ W@ e  P. [  Y+ O.  @ r+ P. Y+ z        U$ V$ 5  W$ c. X$ Y$ Z$ 5  @#  +  +  +  +  +  +  +  +  +  + 6. `$  %    .% +% J# @% 6  2+ #%                S$ h+ u  Q. S. *  R. >+ n. (. ~. ;  i  ,+ $%                                                                                                                                                                   ",
"                                                                                                                                                               %% S+ (+ e+ O  &% w# v# #  ;+ #  v@ #  #  r@ r@ t@ P# P# X@ J. e+ ~# O# <. W@ }  }.          M+ *% J. V@ .@ q+ m+ X  /+ @@ R+ %  Q  i+ m+ h+  @ /+ :  r+ j. V@ f+ P  J. d  e+ J. 4@ |@ c+ <@ )+ P  X@ W@ J. P+ u@ v@ r@ !# u@ W@ |@ J. P+ s@ J. ). P  2@ O+ f+ s@ <  R. X+ 4@ Z+ W+ %  ]+ %%       =% -% %. ;% >% ,% '% )% G+ x. #$  +  +  +  +  +  +  +  +  + ($ !% 5+ ~% {% ]% D@ 6. ^% v. /% (%             _% j+ q  S. ^. *  (. ~. _. q. *  _. ]. u  i  u  &%                                                                                                                                                                ",
"                                                                                                                                                         :% e+ ,+ R+ m$ &% 4@ ;+ v# O# ;+ #  v@ ~# O# ~# !# X@ P+ }  <. Q+ ). P# O# P# s@ d  <% N#             [% 2@ [  }@ j+ d+ @@ '+ R+ @@  @ h+ Z+ T+ (+ ,+ r+ &  l. R+ P# |@ O+ P+ P+ X@ P+ d  f+ Y+ [@ P  O+ J. 4@ X@ 1@ d  !# &% v@ }  ~# u@ f+ f+ $  Q+ $  P+ f+ J. f+ 1@ J. n+ [  n+ m+ V@ W+ %%          }% |% !% 1% 2% 3% 4% 5% 6% #$  +  +  +  +  +  +  +  +  +  + .+ 7% 8% 9% 0% +% p# @#  $ a% b%             _% _+ i  R  ^. S. g  q  {  ,  ]  V  ]. q  {. ]. >  i  N. c%                                                                                                                                                          ",
"                                                                                                                                                      d% @@ <  f+ y  &% U+ s@ e% #  #  #  v@ !# v@ v@ v@ W@ X@ <. }  f+ s@ v@ !# P# !# ). e%                   f% j+ R+ h+ i+ K. K. +@ l+ i+ j+ g+ c+ &  &  j+ <  `+ n+ '+ V@ 4@ J. O+ X@ !# e+ 1@ f+ ). $  $  4@ P  1@ v@ ~# u@ !# ~# <. !# P# !# f+ ). 4@ $  !+ $  f+ s@ Q+ 4@ X@ U+ q. (. ~+ 3@ V+          g% Q$ h% 6. i% j% k% l%  + #$  +  +  +  +  +  +  +  +  +  + #$ m% 7  n%    o% 2$ p% )@ q% r%                r. *% B$ [.  @ S. p+ b$ u# W  q. ^. ]+ U  _  ^  :. s  i  T  c                                                                                                                                                        ",
"                                                                                                                                                   '. (+ N. O# w# e% u@ !# u# #  ~# O# r@ v@ u@ }  }  e+ d  }  <. e+ X@ r@ O# P# v@ <. O+ '.                   s% m+  @ %  n+ m+ o+ h+ Q  T. e  4@ T+ q+ d+ X  p+ R+ f+ i+ k+ J. s@ s@ t@ P# e+ 4@ O+ ). |@ 4@ d  u@ v@ #  r@ v@ v@ <. P# r@ P# d  J. O+ x  O+ x  x  W@ J. [@ i. P  P  +@ q+  @ <@ u+       t% @. u% v%  +  +  +  + #$  +  +  +  +  +  +  +  +  +  +  +  + 0@ w% }# x% y% P@ F$ z% 7  A%                               :@ r. B%       ,. C% _% t# D% X  >+ _  l  u  i  E% !+                                                                                                                                                    ",
"                                                                                                                                                s@ S. R+ !# ;+ e% ;+ #  v# #  #  #  r@ O# !# f+ P+ f+ X@ !# ~# v@ t@ d  v@ ;+ #  u@ |@ $  C%                      F% R+ 2@ V+ P  g+ h+ W+ h+ K.  @ R+ Y+ <@ )+ O+ u@ O+ i. )+ W@ d  X@ 4@ J. ~# G% z  <+ H% 1@ J. u@ v@ v@ t@ !# r@ !# P# P# v@ !# P# }  x  P  |@ V@ P  $  !+ Y+ )+ 2@ g+ T+ i. C%       r% I% u$ 5.  +  +  +  +  +  +  +  +  +  +  +  +  +  +  +  +  +  + B+ Q@ J%    K% 5  L% |% M%                                                                   a$ Y  O  o+ >  i  i  _+ -+                                                                                                                                              ",
"                                                                                                                                          c% }@ f  [  t@ C$ Y  w# #  #  r@ #  #  ;+ ~# t@ W@ O+ 1@ e+ t@ ~# ~# v@ ~# }  }  r@ !# W@ X+ P# :@                      }. f+ W+ 2@ f+ Y+ c+ |@ N. r  /+ g+ J. 4@ X@ u@ u@ d  4@ 4@ P+ X@ N% c  O% c% -$       M  Z  P% m$ $  4@ 4@ P+ }  ~# t@ }  X@ ~# r@ d  J. $  x  <@ <@ $  |@ ). P  Q+ +@ )+ c%       Q% R% +% S% #$  +  +  +  +  +  +  +  +  +  +  +  +  +  +  +  +  +  + T% 7  U% V% W% X% >@ Y%                                                                                  O% s+ ,+ i  o  U.                                                                                                                                           ",
"                                                                                                                                       Z% P. <  P# m$ `% =$ w# P# <. v@ ~# O# O# O# <. X@ u@ O# v@ ~# r@ t@ <. t@ P# #  P# }  X@ ). <.  &                   .& +&    <@ p+ e  h+ Z+ W@ g+ n+ i+ w  i. 1@ |@ e+ <. t@ u@ u# N  g. Z% B%                            q@ 9# @& b$ r@ 1@ d  ~# P# 4@ s@ ~# d  |@ J. ). X+ ). $  W@ J. $  i. J. #&          $& %& && *&  +  +  +  +  +  +  +  +  +  +  +  +  +  +  +  +  +  + B+ =& -& ;& >& u$ 5  ,& '&                                                                                        A  O# T  ~. %%                                                                                                                                        ",
"                                                                                                                                    P% t+ @@ h. O  `% Y  O# ;+ e+ $  f+ u@ P# O# P# O+ }  m$ &% r@ O# O# v@ v@ #  r@ O# P# t@ d  ). )&                      !& ~&    0$ '+ @@ o. i. W@ !+ X+ )+ c+ Q+ v@ *% F% N  ,. +  a$                                                    `  {& Y@ #  f+ f+ $  1@ t@ 4@ P  f+ O+ |@ O+ O+ f+ )+ s@ +           ]& 2+ ^& B+  +  +  +  +  +  +  +  +  +  +  +  +  +  +  +  +  +  + #$ 0@  $ /&    (& _& :& <&                                                                                                 c% [& [& }& M+                                                                                                                                  ",
"                                                                                                                           |& 1& 2& 3& ). {# O  C$ m$ O# !# f+ V+ O+ }  ~# #  w# d  W@ &% ;+ O# t@ P# #  #  v@ ;+ &% P# P# P# f+ |@  &                   4& 5& 6&    -$ P# x  +@ Q  W+ #@ W+ $  *% x# <%                                                                            N# w@ 7& {& !# 4@ t@ 1@ x  O+ J. J. Q+ V@ Q+ s@ r.          8& A. 9& A+  +  +  +  +  +  +  +  +  +  +  +  +  +  +  +  +  +  +  + y. 0& N$ L@ a& )@ b& c&                                                                                                             `  .                                                                                                                                   ",
"                                                                                                                        d& e& f& g& !# h& `% m$ m$ &% u@ [@ n+ s@ =$ C$ `% e% w# w# e% ;+ P# r@ }  ~# r@ r@ ~# ;+ ~# P# ~# }  [@ X@ -$                   i& i  j&       U. W+ P  |@ u@ Z% U@ k& B%                                                                                              n$ k& l& F% $  Y+ )+ J. )+ W+ e  c           m& n& o& |#  +  +  +  +  +  +  +  +  +  +  +  +  +  +  +  +  +  +  +  + 0@ }# p&    q& r& s&                                                                                                                                                                                                                                                       ",
"                                                                                                                     t& u& i  v& w& F% e% r@ ;+ v# m$ <. |@ d  y  C$ C$ u# Y  m$ v# O# !# !# t@ !# ~# P# ~# m$ ~# P+ e+ s@ x  }  #&                   x& y& z& A&       M  b+ d%    .                                                                                                                    .  U. O% |  |@ )+ W+ Y  :@       p@ B& @. C&  +  +  +  +  +  +  +  +  +  +  +  +  +  +  +  +  +  +  +  +  + D& 3. g%    E& F& G&                                                                                                                                                                                                                                                       ",
"                                                                                                                  H& I& i  J& K& L& e% r@ ;+ w# G% Y  v# H% N% G% =$ v# ;+ w# #  r@ P# X@ e+ v@ <. <. #  #  1@ <@ O+ P+ 4@ i. y                       M& N& O& P& .                                                                                                                                                  #& -+ -+ M+          Q& v. /$ y.  +  +  +  +  +  +  +  +  +  +  +  +  +  +  +  +  +  +  +  + #. R& S& T& 7@ U& V&                                                                                                                                                                                                                                                          ",
"                                                                                                                  W& X& Y& Z& x# `& v@ P# u@ ;+ v# #  ;+ w# &% Y  G% Y  O# #  &% w# O# 1@ 1@ d  1@ P+ ~# 1@ Q+ ). X@ 1@ s@ Q+ x#                    * .* +* @* #* $*                                                                                                                                                                   %* |% &* @%  +  +  +  +  +  +  +  +  +  +  +  +  +  +  +  +  +  +  +  +  + 6. 5  **    =* -*                                     ;* y% >* ,* '* s. )* &#                                                                                                                                                                                                 ",
"                                                                                                               !* ~* {* ]* ^* /* g+ v@ x  O+ r@ r@ P# O# Y  w# &% m$ v# w# &% ;+ w# O# &% P# u@ <. r@ 1@ 4@ d  t@ }  <. ). P# .                    (* _* :* <* [* }*                                                                                                                                                                |* 1* 2* A+  +  +  +  +  +  +  +  +  +  +  +  +  +  +  +  +  +  +  +  +  + #$ i# 3. 3* 4* 5* 6*                      7* 8* m& 9* 0* a* [$ 5  I$ P@ g# 5  b* c* d* (%                                                                                                                                                                                        ",
"                                                                                                            e* f* g* h* i* j* k* d  <@ Y+ O# v@ u@ <. &% ~# !# G% h. ;+ &% Y  &% #  w# &% u@ ). O+ O+ P  t@ s@ <@ f+ J. ;+ #&                      l* g* m* n* o* p*                                                                                                                                                             q* r* }# 5.  +  +  +  +  +  +  +  +  +  +  +  +  +  +  +  +  +  +  +  +  +  + y. 7. s* 8* t* u*          ;$ q* v* w* x* y* z* A* }# B* )@ C* D* E* p# k% D* F* c. g# G* H* I*                                                                                                                                                                                  ",
"                                                                                                            J* K* L* M* N* O* P* u@ U+ P+ ;+ P# }  #  v# &% w# G% =$ m$ v# e% Y  #  v@ P+ P  X+ Q+ P+ w# f+ O+ x  2@ #@ {#                      Q* R* S* T* U* V* W*                                                                            =% ;$                                                                         X* Y* C@ m%  +  +  +  +  +  +  +  +  +  +  +  +  +  +  +  +  +  +  +  +  +  +  + Z* 3. `*           = .= += @= #= 5% Q@ 5  Q@ $= %= T% p# 0@ 0@ #$ #$  + ($ #$ 0@ .+ &= }#  $ *= == -= ;=                                                                                                                                                                         ",
"                                                                                                         >= ,= '= )= M& != ~= {= f+ P+ O# O# &% =$ Y  &% v# v# v# Y  C$ &% w# ;+ v@ X@ u@ ~# 2@ d  =$ w# u@ e+ X+ T+ [  b$                      ]= ^= /= (= _= := <=                                                                c@ [= }= |= 1= 2= 3= 4= 5= 6=                                                             7= 2+ J# 0@  +  +  +  +  +  +  +  +  +  +  +  +  +  +  +  +  +  +  +  +  +  +  + !% 8= 9= 0= 1+ a= b= Q@ 5  4. 7. c= i# d= 3$ 0@ ## y. #$  +  +  +  +  +  +  +  +  + y. B+ &= )@  $ e= f= g= h= i=                                                                                                                                                                ",
"                                                                                                   ,. j= k= l= z& m= n= o= p= q= ~+ f+ w# ;+ &% =$ C$ P# t@ e% u# v# O# v@ d  }  u@ 1@ 4@ t@ !# <. d  s@ e+ W@ p+ !# z                          r= s= t= u= v= w= x=                                                    ;& y= z= A= B= 7. P@ 5  u$ Q@ +$ Q@ w. C= D= E= F=                                                 G= 2+ H= .+  +  +  +  +  +  +  +  +  +  +  +  +  +  +  +  +  +  +  +  +  +  +  +  + p# 6% I= J= p$ Q@ C* K= h# 0@ B+ 0@ ($  +  +  +  +  +  +  +  +  +  +  +  +  +  + ($ #$  + 0@ A+ #$ 9@ Q@ 5  L= B= M= N=                                                                                                                                                          ",
"                                                                                                   O= P= Q= R= S= T= U= V= W= [@ Q+ C$ e% w# w# e% G% O# r@ w# &% O# O# &% t@ O+ W@ P# P+ f+ G% t@ P  g+ X+ H% G% f.                         :% X= Y= Z= `=  - .- +-                                        I* @- #- $- %- &- B* 5  )@ *- =- -- 0@ 0@ -- ;- >- w. Q@  $ ,- '- )- !-                                     ~- >@ {- `.  +  +  +  +  +  +  +  +  +  +  +  +  +  +  +  +  +  +  +  +  +  +  +  +  +  + 3$ ]- ^- /- .+ ## #$ ($  +  +  +  +  +  +  +  +  +  +  +  +  +  +  +  + ($ x$ h% (- _- k% :- h# <- v% [- }- )@ 7  |- 1- 2- 3- 4-                                                                                                                                              ",
"                                                                                                      5- +* 6- 7- 8- 9- 0- a- }  `% O  Y  m$ C$ m$ ~# v# ;+ #  #  #  m$ e% w# d  ~# #  w# ;+ d  $  X  w  [&                                  b- c- d- _* e- f- g- h-                               i- j- k- l- 2* 2$ c. m- @$ n- y. 6. 0@  +  +  +  +  +  + 0@ 6. 0@ o- F* p$ g# p- q- 9.                            r- s- 2$ 5.  +  +  +  +  +  +  +  +  +  +  +  +  +  +  +  +  +  +  +  +  +  +  +  +  +  +  + x$ ## ## x$ x$ x$ x$ x$ x$ x$ x$ x$ x$ x$ x$ x$ x$  +  +  +  +  +  +  + t- u- v- w- x- y- z- A- B- 7. @$ C- -- -- c= u$ `$ D- E- F- G-                                                                                                                                        ",
"                                                                                                   H- I- J- K- L- M- N- O- P- w# w# h. Y  ;+ `% G% r@ O# v# G% Y  w# #  #  !# r@ v@ <. 1@ f+ x  X@ e+ Y@                                     Q- R- S- T- U-    V- W-                      X- Y- Z- `- 3. g# )@  ; ;- 3$ 0@ #$ h#  +  +  +  +  +  +  +  +  +  +  +  +  + y. m% K= 2$ +% .; +; a&                   @; #; q# $; h#  +  +  +  +  +  +  +  +  +  +  +  +  +  +  +  +  +  +  +  +  +  +  +  + x$ x$ x$ x$ x$ x$ x$ x$ x$ x$ x$ x$ x$ x$ x$ x$ x$ x$ x$ x$ x$ x$ x$ x$ x$ x$ x$ %; &; *; =; -; ;; >; ,; '; ); !; w. P@ P@ )@ ~; {; F* {$ X% ]; ^; /; (;                                                                                                                               ",
"                                                                                                   _; :; <; [; }; |; 1; 2; 3; ~# O# C$ G% Y  Y  v# ;+ w# u# G% &% ;+ ;+ t@ P# t@ J. 4@ W@ )+ d  #&                                           4; 5; 6; 7; 8;    9; 0;             a; b; c; d; e; 5  f; n- 3$ m% 0@  +  +  +  +  +  +  +  +  +  +  +  +  +  +  +  +  +  +  +  + y. ;@ g; o& 7  h; i; N=             w* q# ^& 0@  +  +  +  +  +  +  +  +  +  +  +  +  +  +  +  +  +  +  +  +  + x$ x$ x$ x$ x$ x$ x$ x$ x$ x$ x$ x$ x$ x$ x$ x$ x$ x$ x$ x$ x$ x$ x$ x$ x$ x$ x$ x$ x$ x$ x$ j; x$ k; ]-  + %- l; m; n; o; p; q; r; s; t; u; C* Q@ g# +$ 2$ 4. v; w; x; y; L                                                                                                                       ",
"                                                                                                   z; i  A; B;    C; D; E; F; !# m$ C$ e% #  <. &% H% `% e% m$ e% ;+ P# v@ !# P+ ). V@ P  N+ A                                            G; H; I; J; K;    L; M; N;    O; P; Q; R; 3. c. 7% !% #. #$ #$  +  +  +  +  +  +  +  +  +  +  +  +  +  +  +  +  +  +  +  +  +  +  +  +  + ($ .+ [- {$ C@ S; T; U; x+    V; P@ o#  +  +  +  +  +  +  +  +  +  +  +  +  +  +  +  +  +  + x$ x$ x$ x$ x$ x$ x$ x$ x$ x$ x$ W; W; W; W; W; W; W; W; W; W; W; W; W; W; W; W; W; W; x$ x$ x$ x$ x$ x$ x$ x$ x$ j; X; ~; '# w. Y; Z; `;  > .> +> @> #> +> $> %> &> *> => o& -> ;> e@ >> ,> *# '>                                                                                                             ",
"                                                                                                )> !> i  ~> {>    ]> ^> /> }  Y  G% &% P# O# e% C$ e% e% C$ v# m$ O# ~# u@ P+ Q+ &% O% @&                                                 (> _> :> <> [>    }> |> 1> 2> 3> )@ 4> L= 5> 0@ @% #$  +  +  +  +  +  +  +  +  +  +  +  +  +  +  +  +  +  +  +  +  +  +  +  +  +  +  +  +  +  + ($ m% 6> A- 3. e@ 7> 8> Q@ D& #$  +  +  +  +  +  +  +  +  +  +  +  +  +  +  + x$ x$ x$ x$ x$ x$ x$ W; W; W; W; 9> 9> 9> 9> 9> 9> 9> 9> 9> 9> 9> 9> 9> 9> 9> 9> 9> 9> 9> 9> 9> 9> 9> 9> 9> 9> W; W; W; W; x$ x$ ($ ## x$ $$ 0> 5% 2$ g# a> b> c> d> e> f> g> m& h> i> j> k> l> m> >@ C@ n> o> p> q>                                                                                                    ",
"                                                                                             r> I. s> t> u> v> w> x> y> z> A> ~# t@ P# <. G% `% C$ u@ <. r@ ;+ w# r@ ~# d  }  `% ,.                                                       B> i  i  C> D> E> F> G> H> c. G# $$ 3$ .+ y.  +  +  +  +  +  +  +  +  +  +  +  +  +  +  +  +  +  +  +  +  +  +  +  +  +  +  +  +  +  +  +  +  +  +  +  + y. I> 5% J> K> 7. y$  +  +  +  +  +  +  +  +  +  +  +  +  + x$ x$ x$ x$ x$ x$ x$ x$ W; W; 9> 9> 9> 9> 9> 9> 9> 9> 9> 9> 9> 9> 9> 9> 9> 9> 9> 9> 9> 9> 9> 9> 9> 9> 9> 9> 9> 9> 9> 9> 9> 9> 9> 9> W; W; x$ x$ x$ ($ ## L> ($ %; M> F* u$ p$ g# '# Z; N> O> P> V& Q> R> S> T> U> V> W> X> Y> Z> [= `>                                                                                           ",
"                                                                                           , ., +, @, #, $, %, &, *, =, -, ;, >, <. u# G% v# e% Y  ;+ m$ w# O# ~# !# }  ~# <+                                                             ,, ', ), |* !, 4> 3. A- ~, g; #. 0@ ($  +  +  +  +  +  +  +  +  +  +  +  +  +  +  +  +  +  +  +  +  +  +  +  +  +  +  +  +  +  +  +  +  +  +  +  +  +  + ($ 9+ {, ], ^, O$ ($  +  +  +  +  +  +  +  +  +  +  + x$ x$ x$ x$ x$ x$ x$ W; W; 9> 9> 9> 9> 9> 9> 9> 9> 9> /, /, /, /, /, /, /, /, /, /, /, /, /, /, /, /, /, /, /, /, /, /, 9> 9> 9> 9> 9> 9> 9> 9> 9> 9> 9> W; W; W; x$ ($ ($ ## y. (, k% 0& A- 5% %# 4. )@ _, :, <, [, }, |, 1, 2, 3, 4, 5, 6, 5= 7,                                                                                     ",
"                                                                                       8, 9, 0, a, b, c, d, e,       f, g, h, i, `% y  v# v@ C$ h. `% H% h. X@ O+ j, <% r.                                                                k, l, m, n, G+ o, #. @% 0@ ($  +  +  +  +  +  +  +  +  +  +  +  +  +  +  +  +  +  +  +  +  +  +  +  +  +  +  +  +  +  +  +  +  +  +  +  +  +  +  +  +  + #$ >- p, q, #$ &=  +  +  +  +  +  +  +  +  +  + x$ x$ x$ x$ x$ x$ x$ W; W; 9> 9> 9> 9> 9> 9> 9> 9> /, /, /, /, /, /, /, /, /, /, /, /, /, /, /, /, /, /, /, /, /, /, /, /, /, /, /, /, /, 9> 9> 9> 9> 9> 9> 9> 9> 9> 9> W; W; x$ x$ x$ x$ j; &; ## @% 0@  + E* 9+ 0& r, {$ L= L= B- 0& ## s, t, u, v, w, x, y, z, 0.                                                                         ",
"                                                                                       A, B, C, D, E, F, G, H,       I, J, K, L, G% C$ C$ u# `% u# G% u# w# s@ h. 2                                                                    M, N, O, P, Q, .+ 3$  +  +  +  +  +  +  +  +  +  +  +  +  +  +  +  +  +  +  +  +  +  +  +  +  +  +  +  +  +  +  +  +  +  +  +  +  +  +  +  +  +  +  +  +  + 0@ R, S, T, U, K=  +  +  +  +  +  +  +  +  + x$ x$ x$ x$ x$ x$ W; W; 9> 9> 9> 9> 9> 9> 9> /, /, /, /, /, /, /, /, /, /, V, V, V, V, V, V, V, V, V, V, V, V, V, V, V, /, /, /, /, /, /, /, /, /, /, 9> 9> 9> 9> 9> 9> 9> 9> 9> W; W; x$ x$ x$ x$ x$ x$ x$  + ($ #$ #$ P$ P$ y. J# (, X; &= W, 0& X, Y, 2$ 5  Z, `,  ' .' +' @' 0= 3- h@ #' [+                $' %'                            ",
"                                                                                       &' *' C, =' -' ;' >' ,'       '' )' !' ~' C$ h. *% N% u# =$ #  }  v# Z  :@                                                                {' ]' ^' /' (' _' .+  +  +  +  +  +  +  +  +  +  +  +  +  +  +  +  +  +  +  +  +  +  +  +  +  +  +  +  +  +  +  +  +  +  +  +  +  +  +  +  +  +  +  +  +  +  +  + :' {$ <' [' }' |'  +  +  +  +  +  +  +  + x$ x$ x$ x$ x$ W; W; 9> 9> 9> 9> 9> 9> 9> /, /, /, /, V, /, /, V, V, 1' 1' 1' 1' 1' 2' 1' 1' 1' 1' 1' 1' 1' 1' 1' 1' 1' 2' 1' 1' 1' V, V, /, /, V, V, /, /, /, /, 9> 9> 9> 9> 9> 9> 9> 9> W; x$ x$ x$ x$ x$ x$ x$ x$  +  +  +  +  +  +  +  + #$ ## 0@ 0@ ## #$ k% 0& {$ 2$ 3' Q@ `$ E  4' 5' 6' 7' 8' 9' s& 0' a' b' c'                            ",
"                                                                                    d' e' f' g' h' i' j' k' l'       m' n' B$ o' u# e% C$ u# v# #  h& D% l&                                                                   p' q' r' s' t' u' v'  +  +  +  +  +  +  +  +  +  +  +  +  +  +  +  +  +  +  +  +  +  +  +  +  +  +  +  +  +  +  +  +  +  +  +  +  +  +  +  +  +  +  +  +  +  +  +  + ($ w' x' y' F* p#  +  +  +  +  + x$ x$ x$ x$ x$ x$ W; W; 9> 9> 9> 9> 9> 9> /, /, /, /, /, V, V, 1' 1' 1' 1' 1' 2' 2' 2' 2' 2' 2' 2' 2' 2' 2' 2' 2' 2' 2' 2' 2' 2' 2' 2' 2' 2' 2' 1' 1' 1' 1' 1' V, V, /, /, /, /, /, /, /, 9> 9> 9> 9> 9> W; W; W; x$ x$ x$ x$ x$ x$  +  +  +  +  +  +  +  +  +  +  +  +  +  + ## 0@ m% 6% 6# =@ f; Q@ 2+ z' z' >@ A' B' C' N= $'                            ",
"                                                                                    D' f' E' F' G' H' I' J'          K' L' D% M' G% C$ `% v# v@ F% S$                                                                      N' O' P' Q' R' S'  +  +  +  +  +  +  +  +  +  +  +  +  +  +  +  +  +  +  +  +  +  +  +  +  +  +  +  +  +  +  +  +  +  +  +  +  +  +  +  +  +  +  +  +  +  +  +  +  + #$ i# T' U' V' W' y.  +  +  + x$ x$ x$ x$ x$ x$ W; 9> 9> 9> 9> 9> /, /, /, /, /, V, X' 1' 1' 1' 2' 1' 1' 2' 2' 2' Y' Y' Y' Y' Y' 2' Y' Y' Y' Y' Y' Y' Y' Y' Y' Y' Y' 2' Y' Y' Y' Y' 2' 2' 2' 2' 1' 2' 2' 1' 1' X' /, V, /, /, /, /, /, 9> 9> 9> 9> 9> 9> W; W; x$ x$ x$ x$ x$ x$ x$  +  +  +  +  +  +  +  +  + #$ 0@ m% k% a@ '# Q@ g# z+ Z' `'  ) =+                                           ",
"                                                                                    .) +) @) #) $) B, %) &)          *) =) -) ;) u# Y  ~# e% w@ M+                                                                      >) ,) ') )) !) ~) 6>  +  +  +  +  +  +  +  +  +  +  +  +  +  +  +  +  +  +  +  +  +  +  +  +  +  +  +  +  +  +  +  +  +  +  +  +  +  +  +  +  +  +  +  +  +  +  +  +  + y. $$ {) ]) ^) /) y.  +  +  + x$ x$ x$ x$ x$ W; 9> 9> 9> 9> /, /, /, /, /, /, 1' 1' 1' 2' 2' 2' 2' 2' 2' Y' Y' Y' Y' Y' Y' Y' Y' () () _) _) _) _) _) _) _) _) _) () () () Y' Y' Y' Y' Y' Y' Y' 2' 2' 2' 2' 2' 1' 1' 1' 1' V, /, /, /, /, /, 9> 9> 9> 9> 9> W; W; x$ x$ x$ x$ x$ x$ x$  +  +  +  + #$ y. #$ :) w% $= g# 5  4. <) [) }) |) p@                                                    ",
"                                                                                    1) 2) 3) 4) 5) 6) 7) 8) 9) 0) a) b) c) d) v# C$ p= I. q@                                                                      e) f) g) h) i) j) k)  +  +  +  +  +  +  +  +  +  +  +  +  +  +  +  +  +  +  +  +  +  +  +  +  +  +  +  +  +  +  +  +  +  +  +  +  +  +  +  +  +  +  +  +  +  +  +  +  +  +  + #$ l) m) n) 6> 9+ #$  + x$ x$ x$ x$ W; W; 9> 9> 9> 9> /, /, /, /, V, V, 1' 1' 2' 1' 2' 2' Y' Y' Y' Y' Y' () () _) () _) _) _) o) o) o) o) o) o) o) o) o) o) o) o) o) o) _) o) _) _) _) _) _) () () Y' Y' Y' Y' 2' 2' 2' 2' 2' 1' 1' X' /, /, /, /, /, /, 9> 9> 9> 9> W; W; x$ x$ x$ x$ j; 0@ m% h# }- 5% P@ 3. p) q) 3= r) s) &@                                                                ",
"                                                                                    t) u) v) w) H- x) y) z) A) B) C) D) E) F) N% G) N#                                                                         H) I) J) K) L) M) N)  +  +  +  +  +  +  +  +  +  +  +  +  +  +  +  +  +  +  +  +  +  +  +  +  +  +  +  +  +  +  +  +  +  +  +  +  +  +  +  +  +  +  +  +  +  +  +  +  +  +  +  + #$ 5% O) P) Q) #$  + x$ x$ x$ x$ x$ 9> 9> 9> 9> 9> /, /, /, V, V, 1' 1' 1' 2' 2' 2' Y' Y' Y' Y' Y' () () _) _) _) _) o) o) o) o) o) o) R) R) o) o) R) R) o) o) o) R) o) o) o) o) o) o) _) _) _) _) _) () Y' Y' Y' Y' Y' 2' 2' 2' 2' 1' 1' V, /, /, /, /, /, 9> 9> 9> 9> S) T) y. &; p# U) w. g# 5  V) W) X) Y) Z) `)                                                                            ",
"                                                                                        ! .! +! @! #! $!          [% %! p= !'  &                                                                         &! *! =! -! ;! >! ,! '!  +  +  +  +  +  +  +  +  +  +  +  +  +  +  +  +  +  +  +  +  +  +  +  +  +  +  +  +  +  +  +  +  +  +  +  +  +  +  +  +  +  +  +  +  +  +  +  +  +  +  +  +  + F$ 4. )! !! g# B+ x$ x$ x$ x$ W; 9> 9> 9> 9> /, /, /, /, 1' 1' 1' 2' 2' 2' 2' Y' Y' Y' _) _) _) _) _) o) o) o) o) R) R) ~! ~! ~! {! {! {! {! {! {! {! {! {! {! {! {! {! {! {! ~! ~! ~! R) R) o) o) o) o) _) _) _) () () Y' Y' Y' 2' 2' 2' 2' 1' 1' 1' V, /, /, ]! ^! /! 9> (! _! :! 3. <! [! }! |! 1! 2! 3! 4! 5! 6! 7! 8!                                                                      ",
"                                                                                       9! i  0! i  a! b!          c! u+ M+                                                                            d! e! f! g! h! i! j! v'  +  +  +  +  +  +  +  +  +  +  +  +  +  +  +  +  +  +  +  +  +  +  +  +  +  +  +  +  +  +  +  +  +  +  +  +  +  +  +  +  +  +  +  +  +  +  +  +  +  +  +  +  + #$ R, k! l! m! n! ## x$ x$ x$ W; 9> 9> 9> 9> /, /, /, V, V, 2' 2' 2' Y' Y' Y' Y' o! () _) o) o) o) o) o) o) R) ~! ~! {! ~! {! {! {! p! p! q! q! q! q! q! q! q! q! q! q! q! q! q! {! {! {! ~! ~! ~! ~! o) o) o) o) _) _) _) _) () o! Y' Y' r! s! s! t! u! v! w! x! y! z! A! B! C! D! E! F! G! Y$ H! I! J! K! L! P@ 5  )@ 1* M! N! O!                                                                ",
"                                                                                    z) P! Q! R! S! T! U!                                                                                        V! W! X! Y! Z! `!  ~ ~)  +  +  +  +  +  +  +  +  +  +  +  +  +  +  +  +  +  +  +  +  +  +  +  +  +  +  +  +  +  +  +  +  +  +  +  +  +  +  +  +  +  +  +  +  +  +  +  +  +  +  +  +  +  +  + m% Q@ .~ +~ @~ L= ## x$ W; W; 9> 9> 9> 9> /, /, /, X' 1' 1' 2' 2' 2' Y' Y' () () _) _) _) o) o) #~ ~! ~! ~! ~! p! q! p! q! q! $~ $~ $~ $~ $~ $~ $~ $~ $~ $~ $~ $~ $~ $~ $~ $~ $~ $~ $~ q! p! q! q! q! ~! ~! ~! #~ R) o) o) o) o) _) () %~ &~ *~ =~ -~ ;~ ;~ >~ ,~ '~ )~ !~ ~~ {~ z, ]~ B@ ^~ /~ (~ _~ :~ <~ l% [~ #$ A+ m% 7% %. }~ |~                                                             ",
"                                                                                    1~ 2~ 3~ 4~ 5~ 6~ 7~                                                                                  8~ 9~ 0~ a~ b~ c~ d~ k) '! 6>  +  +  +  +  +  +  +  +  +  +  +  +  +  +  +  +  +  +  +  +  +  +  +  +  +  +  +  +  +  +  +  +  +  +  +  +  +  +  +  +  +  +  +  +  +  +  +  +  +  +  +  +  +  +  + m% g# e~ =% f~ u$ g~ x$ W; 9> 9> 9> 9> /, /, /, V, 1' 1' 1' 2' 2' Y' Y' Y' () _) _) _) o) o) o) {! ~! ~! {! h~ p! q! q! i~ q! $~ $~ j~ k~ j~ j~ j~ j~ j~ j~ j~ j~ j~ j~ j~ k~ j~ $~ $~ q! i~ q! q! q! h~ h~ {! ~! R) o) o) o) o) _) l~ m~ n~ o~ p~ q~ r~ s~ t~ u~ g> v~ w~ x~ y~ z~ A~ B~ C~ D~ E~ F~ G~ H~ v. ~; o# Z# ## I~ 3$ m-  $ J~ K~                                                       ",
"                                                                                    L~ M~ N~ O~ P~ Q~ R~                                                                               S~ T~ U~ V~ W~ X~ S' Y~  +  +  +  +  +  +  +  +  +  +  +  +  +  +  +  +  +  +  +  +  +  +  +  +  +  +  +  +  +  +  +  +  +  +  +  +  +  +  +  +  +  +  +  +  +  +  +  +  +  +  +  +  +  +  +  +  + ($ L% }# w*    Z~ g# g~ W; 9> 9> 9> /, /, /, /, V, 1' 1' 2' 2' Y' Y' () _) _) _) o) o) R) R) ~! {! {! q! q! q! q! j~ j~ j~ k~ k~ k~ k~ k~ k~ `~ `~ `~ `~ `~ `~ `~ `~ `~ `~ `~ `~ k~ k~ k~ k~ j~ j~ j~ j~ $~ q! q! q! {! {! ~! ~! R) R) o)  { .{       +{    @{ #{ ${ %{ &{ *{ ={ A! -{ ;{ >{ ,{ (! '{ ){ !{    ~{ +% 5  %= {{ X, 9+ 4+ _- 3. ]{ N! ^{                                                 ",
"                                                                                    /{ ({ _{ :{ <{ [{ }{                                                                            |{ 1{ 2{ 3{ 4{ 5{ 6{  +  +  +  +  +  +  +  +  +  +  +  +  +  +  +  +  +  +  +  +  +  +  +  +  +  +  +  +  +  +  +  +  +  +  +  +  +  +  +  +  +  +  +  +  +  +  +  +  +  +  +  +  +  +  +  +  +  +  + #$ T' 2$ 7{    8{ g# 9{ 0{ 9> 9> /, /, /, 1' 1' 1' 1' 2' Y' Y' () _) _) o) o) o) R) ~! {! p! q! q! $~ j~ j~ j~ k~ k~ `~ `~ a{ a{ b{ b{ b{ b{ b{ c{ c{ c{ c{ c{ c{ c{ c{ c{ c{ b{ b{ b{ b{ a{ a{ a{ `~ `~ k~ k~ j~ j~ j~ q! q! q! q! {! #~ d{ e{ f{          g{ h{ i{ j{ k{ l{ m{ n{ T) o{ 0{ 9> p{ W; -{ q{ r{ 8* s{ t{ u{ v{ w{ 2$ 3' g# 4. x{ y{ z{ A{                                              ",
"                                                                                    B{ i  C{ i  i  D{ N#                                                                      E{ F{ G{ H{ I{ J{ K{ 6>  +  +  +  +  +  +  +  +  +  +  +  +  +  +  +  +  +  +  +  +  +  +  +  +  +  +  +  +  +  +  +  +  +  +  +  +  +  +  +  +  +  +  +  +  +  +  +  +  +  +  +  +  +  +  +  +  +  +  +  + #$ L{ g# x,    M{ :! N{ O{ 9> /, /, /, V, 1' 1' 2' 2' Y' Y' Y' _) o) o) o) o) ~! ~! {! p! q! $~ j~ j~ k~ k~ k~ `~ a{ a{ P{ P{ P{ Q{ c{ c{ c{ c{ c{ R{ R{ R{ S{ R{ R{ R{ R{ c{ c{ c{ c{ c{ b{ b{ b{ b{ a{ `~ `~ k~ k~ j~ j~ $~ q! q! p! p! T{ U{ V{ W{ X{       Y{ Z{ `{ k{  ] .] m{ +] @] /, /, /, 9> ^! #] $] %] b; &] *] =] -] ;] >] ,] '] )] !] ~] {] ]] ^] x+                                     ",
"                                                                                 /] (] _] :] <] [] }] |] 9) 1] 2] 3] 4]                                                    5] 6] 7] 8] 9] 0] a]  +  +  +  +  +  +  +  +  +  +  +  +  +  +  +  +  +  +  +  +  +  +  +  +  +  +  +  +  +  +  +  +  +  +  +  +  +  +  +  +  +  +  +  +  +  +  +  +  +  +  +  +  +  +  +  +  +  +  +  +  +  + ($ b] :! c]    d] e] f] T) /, /, /, 1' 1' 2' 2' Y' Y' () _) _) o) R) ~! {! {! p! q! $~ $~ j~ k~ k~ g] h] i] i] j] b{ k] l] l] m] n] R{ o] o] o] o] p] q] q] q] r] q] q] q] q] q] q] S{ S{ S{ S{ S{ R{ c{ c{ b{ b{ a{ a{ k~ k~ j~ j~ j~ $~ q! s] t] u] v] w] x]          y] z] A] B] C] m{ D] @] /, /, /, T) E] F] G] H] I]                      J] K] L] M] `* N]                                     ",
"                                                                                 O] P] Q] R] S] T] U] V] W] X] Y] Z] `]                                               ^ .^ +^ @^ #^ $^ Y~  +  +  +  +  +  +  +  +  +  +  +  +  +  +  +  +  +  +  +  +  +  +  +  +  +  +  +  +  +  +  +  +  +  +  +  +  +  +  +  +  +  +  +  +  +  +  +  +  +  +  +  +  +  +  +  +  +  +  +  +  +  +  + x$ ($ z$ Q@ %^    &^ *^ =^ -^ /, V, V, 1' 2' 2' Y' Y' () _) _) o) R) ~! {! {! {! ;^ >^ ,^ '^ )^ !^ ~^ {^ ]^ ^^ /^ /^ /^ (^ _^ :^ U{ :^ U{ <^ [^ }^ |^ 1^ 2^ 3^ 4^ 5^ 6^ 7^ 6^ 6^ r] r] r] q] q] S{ S{ S{ S{ R{ c{ c{ c{ b{ a{ `~ `~ k~ k~ j~ j~ q! 8^ 9^ 0^ a^ b^ c^ d^          e^ f^ g^ h^ i^ j^ o{ O{ @] /, 9> k^ l^ @^ m^ ]& ;&                            n^ o^                                     ",
"                                                                              p^ q^ r^ s^ t^ u^ v^ w^ x^          y^ z^ A^                                        B^ C^ D^ E^ F^ G^  +  +  +  +  +  +  +  +  +  +  +  +  +  +  +  +  +  +  +  +  +  +  +  +  +  +  +  +  +  +  +  +  +  +  +  +  +  +  +  +  +  +  +  +  +  +  +  +  +  +  +  +  +  +  +  +  +  +  +  +  +  +  +  +  + x$ x$ y. H^ I^       J^ ={ K^ /, 1' 1' 2' 2' Y' Y' () _) o) o) R) {! h~ ;^ L^ M^ j~ 0^ N^ O^ P^ Q^ ^^ R^ k] S^ T^ U^ V^ W^ X^ Y^ Z^ `^  / ./ +/ @/ #/ $/ %/ &/ */ =/ -/ ;/ >/ ,/ '/ '/ )/ 4^ 4^ !/ !/ !/ r] q] q] S{ S{ R{ c{ c{ b{ a{ `~ k~ k~ j~ $~ q! ~/ {/ ]/ ^/ // (/ _/ H.       :/ </ [/ }/ >~ |/ 9> ^! 0{ /, p{ k^ 1/ 2/ 3/ 4/                                                                   ",
"                                          A                                5/ 6/ 7/ 8/ 9/ 0/ a/ b/ c/ d/ p^       e/ f/ g/                                        h/ i/ j/ k/ ($  +  +  +  + ($  + L%  +  +  +  +  +  +  +  +  +  +  +  +  +  +  +  +  +  +  +  +  +  +  +  +  +  +  +  +  +  +  +  +  +  +  +  +  +  +  +  +  +  +  +  +  +  +  +  +  +  +  +  +  +  +  +  +  +  + x$ x$ x$ l/ m/ n/ o/    (; p/ q/ r/ 1' 2' 2' Y' () _) _) o) o) ~/ ~/ s/ t/ u/ v/ _! q/ w/ x/ y/ z/ A/ B/ C/ D/ E/ F/ G/ H/ I/ J/ I/ J/ I/ J/ K/ L/ M/ N/ O/ P/ Q/ R/ S/ T/ U/ V/ W/ W/ X/ Y/ Z/ ,/ `/ `/ 5^ 4^ !/ r]  ( q] S{ S{ c{ c{ c{ b{ b{ `~ k~ j~ $~ j~ q! .( 9^ +( @( #( $( %( &(       H  *( =( -( ;( D~ >( ,( '( p{ )( 9{ B* !( ~( H                                                              ",
"                                       ,. @                                {( ]( ^( E' /( (( _( :( <( [( }(       |( 1( 2(                                     3( 4( 5( 6( 7(  +  +  +  +  + #$ W, n- ($  +  +  +  +  +  +  +  +  +  +  +  +  +  +  +  +  +  +  +  +  +  +  +  +  +  +  +  +  +  +  +  +  +  +  +  +  +  +  +  +  +  +  +  +  +  +  +  +  +  +  +  +  +  +  +  + x$ x$ x$ x$ 9> 8( H^ 9(       0( ;( a( 2' 2' Y' () _) o) b( s] ~! c( d( 7. w. e( f( g( h( i( j( k( l( m( n( o( p( q( r( s( t( u( v( w( x( x( y( z( A( B( C( D( E( E( F( G( H( I( J( K( L( M( N( W/ O( X/ P( Q( R( S( T( 4^ 4^ !/ q] q] S{ S{ R{ c{ b{ b{ a{ k~ k~ j~ j~ q! .( U( V( W( X( Y( Z( `(           _ </ ._ B! +_ V~ @_ q/ y! #_ $_ %_ &_ 1!                                                          ",
"                                       m$ e+                            *_ =_ 1( -_ ;_ >_ ,_ '_ )_ ;_ !_ ~_    N# {_ ]_ d/                                     ^_ /_ (_ _'  +  +  +  +  + 0@ $# __ :_ <_  +  +  +  +  +  +  +  +  +  +  +  +  +  +  +  +  +  +  +  +  +  +  +  +  +  +  +  +  +  +  +  +  +  +  +  +  +  +  +  +  +  +  +  +  +  +  +  +  +  +  +  +  +  +  + x$ x$ x$ x$ W; /, [_ q{ }_       |_ }/ 1_ 2_ Y' 3_ 4_ 5_ o) 6_ A- 7_ B- 8_ 9_ 0_ a_ b_ c_ d_ e_ f_ g_ h_ i_ j_ k_ l_ m_ n_ n_ o_ p_ p_ q_ r_ r_ s_ t_ t_ t_ u_ u_ u_ v_ w_ x_ y_ z_ A_ B_ C_ D_ E_ F_ G_ H_ I_ J_ K_ L_ M_ N_ ,/ ,/ !/ !/ q] q] q] S{ c{ c{ a{ `~ `~ `~ k~ $~ q! q! O_ P_ c( Q_ X( R_ S_ T_ U_       V_ W_ X_ Y_ Z_ `_  : .: +: '{ @: Q$ #: $:                                                    ",
"                                    -$ )+ 0$                            %: &: *: =: -: ;: >: ,: ': *: ): !:       ~: {: ]: p^                               ^: /: (: _: 6{  +  +  +  + #$ &= :: <: [: }:  +  +  +  +  +  +  +  +  +  +  +  +  +  +  +  +  +  +  +  +  +  +  +  +  +  +  +  +  +  +  +  +  +  +  +  +  +  +  +  +  +  +  +  +  +  +  +  +  +  +  +  +  +  +  + x$ x$ x$ W; W; 9> p{ |: 1: 2:    3: 4: -~ 5: 6: _) 7: 8: 9: 0: a: b: c: d: e: f: c_ g: h: i: j: k: l: m: n: o: p: p: p: q: r: r_ s: s: t: t: t: u: u: u: u: v: w: x: x: y: z: A: B: C: D: E: F: G: H: I: J: K: L: M: N: O: M_ P: ,/ 4^ 4^ !/ Q: q] S{ S{ R{ c{ b{ a{ `~ k~ j~ $~ q! h~ {! b( R: S: T: #( U: V: W: X: Y:          Z: `:  < .< +< @< #< $< %< &< c'                                                 ",
"                                    h. )+                               f, ^( *< =: =< ;: -< ;< >< ,< '< &!       y) 7/ )< !<                               ~< {< ]< ^< /<  +  +  +  + .+ F* (< _< :< $$ ($  +  +  +  +  +  +  +  +  +  +  +  +  +  +  +  +  +  +  +  +  +  +  +  +  +  +  +  +  +  +  +  +  +  +  +  +  +  +  +  +  +  +  +  +  +  +  +  +  +  +  +  + x$ x$ x$ x$ x$ 9> 9> 9> 9> k^ << [<       }< |< 1< 2< 3< f; 4< 5< 6< 7< 8< 9< 0< a< b< c< d< j: e< f< n: n: o: p: q: r: r: s: s: t: s: u: u: v: v: y: g< g< g< h< i< j< k< l< m< n< o< o< p< q< r< s< t< u< v< w< x< y< z< A< B< C< D< D< P: E< ,/ 4^ Q: F< G< H< S{ c{ c{ b{ b{ `~ k~ j~ q! q! {! ~! b( I< J< K< L< M< ;~ N< O< P< Q<                      [+ R< S< T<                                                 ",
"                                 N# @@  @ #&                            U< V< ^( W< [( X< Y< Z< `<  [ .[    3] K'    +[ -: @[                               #[ $[ %[ k)  + ($ P$ 0@ 0@ h# m- &[ *[ 5% *&  +  +  +  +  +  +  +  +  +  +  +  +  +  +  +  +  +  +  +  +  +  +  +  +  +  +  +  +  +  +  +  +  +  +  +  +  +  +  +  +  +  +  +  +  +  +  +  +  +  +  +  +  + x$ x$ x$ x$ W; 9> 9> 9> /, p{ =[ -[ ;[    >[ ,[ '[ )[ ![ ~[ {[ ][ ^[ /[ ([ _[ _[ :[ <[ [[ }[ }[ f< n: o: o: p: q: r: s: s: t: t: u: u: v: y: g< g< h< h< h< h< |[ 1[ 2[ 3[ 4[ 5[ 6[ 7[ 8[ 9[ 0[ a[ b[ c[ d[ e[ f[ g[ h[ i[ j[ k[ l[ k[ m[ D< D< E< n[ o[ p[ q[ r[ s[ t[ R{ c{ c{ a{ k~ k~ j~ $~ q! p! ~! R) R) _) u[ v[ w[ x[ y[ z[ A[ B[ C[ ^] D[                                                                      ",
"                                 O% ]+ (+ {#                            E[ F[ G[ H[ I[ J[ K[ L[ M[ v)    N[    O[ P[ Q[ R[ 4]                            S[ T[ U[ V[ W[ -- (, T' ++ '# >@ C@ d* X[ $= .+  +  +  +  +  +  +  +  +  +  +  +  +  +  +  +  +  +  +  +  +  +  +  +  +  +  +  +  +  +  +  +  +  +  +  +  +  +  +  +  +  +  +  +  +  +  +  +  +  +  +  +  + x$ x$ x$ x$ W; 9> 9> 9> /, /, V, a( Y[ Z[       `[  } .} +} @} #} $} %} &} *} =} -} ;} }[ f< n: n: o: o: p: q: r: s: t: u: u: v: v: g< h< h< >} >} >} ,} '} '} )} !} ~} {} ]} ^} /} (} _} :} <} [} }} |} 1} 2} 3} 4} 5} 6} 6} 7} 8} 9} 0} 0} k[ k[ a} b} c} d} e} f} g} h} i} j} S{ c{ b{ a{ k~ k~ j~ $~ p! {! ~! o) o) _) S: k} r! l} C] }/ m} '{ n} o}                                                                   ",
"                                 ~+ /+ N. Y@                            p} B, q} r} s} t} u} v} w} x} y} z} A}    B} C}                                  D} E} F} G} e; p$ P@ )@ H} I} J} K} L} M} N} #$  +  +  +  +  +  +  +  +  +  +  +  +  +  +  +  +  +  +  +  +  +  +  +  +  +  +  +  +  +  +  +  +  +  +  +  +  +  +  +  +  +  +  +  +  +  +  +  +  +  +  + x$ x$ x$ x$ x$ W; 9> 9> 9> /, /, 1' s! O} k{ P} Q} R} h_ S} T} U} %} V} W} X} =} -} ;} [[ f< n: Y} Y} p: p: r: r_ s: t: u: v: v: g< g< h< >} >} ,} ,} )} )} )} )} Z} `} Z}  | .| +| @| #| $| %| &| *| =| -| (} ;| >| >| ,| 4} 4} 6} '| )| 9} 9} 0} 0} 0} !| ~| {| ]| ^| /| (| _| :| <| [| R{ b{ `~ k~ j~ j~ q! q! {! R) R) o) o) Y' Y' }| || r/ 1| 2| 3| 4|                                                                   ",
"                              B$ ^. %  :+ h.                            .  5| 6| 7| 8| 9| 0| a| b| c| d| i  e| x+ f| i  g|                            h| i| j| k| l| m| n| o| p| q|       r| s| 4> --  +  +  +  +  +  +  +  +  +  +  +  +  +  +  +  +  +  +  +  +  +  +  +  +  +  +  +  +  +  +  +  +  +  +  +  +  +  +  +  +  +  +  +  +  +  +  +  +  +  +  +  + x$ x$ x$ x$ W; 9> 9> /, /, V, 1' 2' t| u| c( v| w| x| y| z| A| V} V} X} X} =} -} [[ }[ f< n: o: o: q: q: r: s: t: u: v: y: g< h< h< >} ,} )} )} Z} Z} B| B| B| B| C| D| D| D| E| F| G| H| I| J| K| L| M| N| O| P| -| Q| R| S| T| ,| ,| 4} '| 6} )| )| 9} U| V| W| X| Y| Z| `|  1 .1 +1 @1 #1 R{ b{ b{ `~ k~ j~ j~ q! {! {! o) o) _) _) Y' 2' 2' r! $1 %1 &1 *1                                                                ",
"                              R+ f  }@ :. h.                                     =1 -1 ;1 >1 ,1 '1 )1 !1 ~1 i  {1 ]1 ^1 /1 (1                            _1 :1 <1             [1 }1 |1 11 21 31 41 P$  +  +  +  +  +  +  +  +  +  +  +  +  +  +  +  +  +  +  +  +  +  +  +  +  +  +  +  +  +  +  +  +  +  +  +  +  +  +  +  +  +  +  +  +  +  +  +  +  +  +  +  + x$ x$ x$ W; 9> 9> 9> /, /, 1' 1' 2' t| 51 61 0< 71 81 91 01 V} W} a1 =} =} -} ;} }[ f< Y} p: q: p: r: r: t: t: u: v: g< g< h< >} >} ,} )} Z} Z} B| B| C| D| D| D| b1 b1 b1 c1 c1 d1 d1 e1 f1 g1 h1 i1 j1 k1 l1 m1 n1 o1 p1 o1 q1 r1 r1 s1 t1 4} 6} u1 )| )| 9} v1 w1 x1 y1 z1 0. A1 B1 C1 D1 E1 F1 i] b{ k~ k~ j~ $~ q! h~ R) o) _) _) Y' Y' Y' 2' r! G1 H1 I1                                                                ",
"                           <+ ,+ R+ ,+ V  O                                      J1 i  K1 L1 M1 N1 O1 P1 Q1 R1 S1 T1 U1 i  V1 W1 X1 Y1 Z1 `1  2 .2 +2 @2 #2 $2 %2 &2 *2 =2 -2 ;2 >2 i  ,2 '2 )2 !2 #$  +  +  +  +  +  +  +  +  +  +  +  +  +  +  +  +  +  +  +  +  +  +  +  +  +  +  +  +  +  +  +  +  +  +  +  +  +  +  +  +  +  +  +  +  +  +  +  +  +  +  + x$ x$ x$ W; W; 9> 9> /, /, V, 1' 2' 2' Y' ~2 {2 ]2 ^2 91 01 V} W} a1 X} =} -} [[ }[ f< n: o: q: q: r: s: t: t: v: g< h< >} >} '} )} )} Z} B| C| D| b1 b1 c1 c1 c1 c1 /2 /2 /2 (2 (2 (2 (2 (2 (2 _2 :2 <2 d1 [2 }2 |2 }2 12 22 32 42 52 62 72 R| T| ,| 4} 4} 82 6} )| 92 02 a2 b2 c2 d2    e2 f2 g2 h2 i2 j2 k2 `~ k~ j~ $~ q! {! ~! o) o) _) Y' Y' 2' 2' l2 i^ m2 n2                                                             ",
"                           O# S. s+ >+ !. O                                      o2 p2 q2 r2 s2 t2 u2 v2 w2 x2 y2 z2 A2 B2 C2 D2 E2 F2 G2 H2 I2 J2 K2 L2 M2 N2 O2 P2 Q2 Q2 C2 R2 S2 D2 T2 U2 n! .+  +  +  +  +  +  +  +  +  +  +  +  +  +  +  +  +  +  +  +  +  +  +  +  +  +  +  +  +  +  +  +  +  +  +  +  +  +  +  +  +  +  +  +  +  +  +  +  +  +  +  + x$ x$ x$ x$ 9> 9> 9> 9> /, V, 1' 2' 2' V2 W2 X2 Y2 Z2 `2 01 V} V} X} =} =} -} <[ }[ n: n: o: q: q: s: s: s: v:  3 .3 i< >} +3 @3 |[ #3 B| C| $3 b1 c1 /2 /2 /2 (2 (2 (2 %3 %3 %3 %3 %3 &3 &3 &3 &3 &3 %3 %3 *3 :2 =3 _2 -3 ;3 >3 ,3 '3 )3 !3 52 ~3 {3 ~3 T| s1 ,| 82 u1 )| 9} ]3 ^3 /3 (3 _3    :3 <3 [3 }3 |3 13 a{ 23 33 )^ $~ q! p! ~! R) o) _) _) Y' Y' 1' 43 53 63                                                             ",
"                        `  O. &  M. R. q. 4@ M+                                  73 p2 83 93 03 a3 b3 c3 d3 b3 e3 f3 g3 h3 i3 j3 k3 l3 l3 l3 C2 m3 n3 o3 p3 q3 r3 s3 t3 u3 v3 w3 x3 y3 z3 A3 B3 B+  +  +  +  +  +  +  +  +  +  +  +  +  +  +  +  +  +  +  +  +  +  +  +  +  +  +  +  +  +  +  +  +  +  +  +  +  +  +  +  +  +  +  +  +  +  +  +  +  +  +  + x$ x$ x$ x$ 9> 9> 9> 9> /, V, 1' 2' 2' 6: C3 D3 E3 F3 G3 01 V} V} X} =} =} ;} }[ f< n: Y} o: q: r: s: s: H3 I3 J3 K3 L3 Z} M3 N3 O3 e1 #3 P3 Q3 D| c1 /2 /2 /2 (2 (2 %3 %3 %3 %3 %3 &3 R3 &3 &3 &3 &3 %3 %3 %3 %3 %3 (2 S3 T3 U3 V3 W3 X3 Y3 Z3 `3  4 .4 +4 @4 ,| 4} 82 )| )| #4 $4 %4 &4 *4 =4 -4    ;4 >4 ,4 '4 )4 !4 ~4 {4 ]4 .( 8^ ~! R) o) _) _) Y' Y' 2' || -~ ^4 `1                                                          ",
"                        H% m. k+ T. ^. <  '+ 0$                                  /4 c| (4 _4 :4 <4 [4 <4 <4 }4 |4 14 24 34 44 54 64 74 84 94 04 04 a4 b4 c4 d4 e4 e4 f4 g4 u3 w3 Q2 h4 i4 /^ j4 x$  +  +  +  +  +  +  +  +  +  +  +  +  +  +  +  +  +  +  + (,  +  +  +  +  +  +  +  +  +  +  +  +  +  +  +  +  +  +  +  +  +  +  +  +  +  +  +  +  +  + x$ x$ x$ W; W; 9> 9> 9> /, /, X' 1' 2' Y' k4 l4 m4 n4 o4 A| V} W} X} =} =} [[ [[ f< n: Y} p: q: r: t: u: u: p4 q4 r4 s4 t4 u4 v4 f1 w4 x4 y4 z4 A4 B4 (2 C4 g1 g1 %3 &3 &3 R3 R3 R3 D4 D4 E4 E4 E4 E4 D4 D4 D4 R3 R3 R3 &3 &3 %3 *3 =3 F4 G4 H4 I4 J4 K4 L4 M4 N4 ~3 T| ,| 4} 6} )| 9} U| ]3 O4 P4 Q4 R4       S4 T4 U4 V4 W4 X4 Y4 Z4 `4 O_  5 k4 l~ _) () Y' Y' .5 l} +5 @5                                                          ",
"                        }@ f  n+ /+ R  3@ O. O+                                  #5 p2 (4 $5 %5 &5 *5 =5 :4 *5 -5 =5 $5 ;5 >5 j3 j3 j3 ,5 ,5 '5 '5 )5 !5 !5 !5 u3 u3 u3 u3 g4 ~5 {5 ]5 ^5 G# G^  +  +  +  +  +  +  +  +  +  +  +  +  +  +  +  +  +  + A+ B- 7. .+ ($  +  +  +  +  +  +  +  +  +  +  +  +  +  +  +  +  +  +  +  +  +  +  +  +  +  +  +  + x$ x$ x$ W; 9> 9> 9> /, /, /, 2' 2' Y' 3_ /5 3< (5 _5 G3 01 V} a1 X} =} ;} }[ }[ f< Y} p: q: r: s: u: u: :5 <5 [5 }5 |5 15 25 35 45 55 65 75 85 95 05 a5 b5 05 c5 d5 e5 f5 E4 E4 E4 E4 E4 E4 g5 g5 E4 E4 E4 E4 E4 E4 D4 D4 R3 &3 &3 &3 %3 h5 i5 j5 k5 l5 m5 K4 n5 o5 ~3 T| ,| 4} 6} )| )| #4 p5 q5 r5 s5 t5 u5 v5 w5 x5    y5 z5 A5 B5 C5 D5 E5 F5 G5 H5 H5 3_ Y' Y' I5 ,~ J5                                                          ",
"                     }& W  .@ Q  q. q+ W+ <  c+ }.                               K5 p2 L5 M5 -5 -5 -5 -5 -5 -5 -5 >5 44 N5 j3 j3 O5 ,5 '5 '5 '5 )5 !5 !5 u3 u3 u3 u3 u3 u3 P5 Q5 R5 S5 T5 U5 ##  +  +  +  +  +  +  +  +  +  +  +  +  +  +  +  +  + @% 9@ V5 W5 7% 3$  +  +  +  +  +  +  +  +  +  +  +  +  +  +  +  +  +  +  +  +  +  +  +  +  +  +  +  + x$ x$ x$ 9> 9> 9> 9> /, /, 1' 2' 2' Y' I< X5 >( Y5 Z5 `5 V} W} =} =} ;} }[ f< f< n: p: q: r: s: u:  6 g< h< .6 +6 @6 #6 $6 %6                &6 *6 =6 -6 ;6 >6 ,6 '6 )6 !6 g5 ~6 {6 g5 ]6 ]6 ]6 ]6 ]6 ]6 ]6 ]6 ]6 ]6 g5 g5 g5 E4 E4 E4 R3 &3 &3 =3 ^6 /6 (6 _6 :6 O| <6 [6 ~3 s1 ,| 4} 6} )| )| 0} q5 }6 |6 16 26 36 46 56          66 76 86 96 06 a^ a6 b6 c6 d6 r! 2_ e6 f6 s{                                                       ",
"                     d  l. j+ W  p. x  e  ^. `+ b+                               g6 h6 i6 54 >5 44 >5 >5 >5 >5 >5 N5 j3 j6 O5 ,5 ,5 '5 '5 '5 )5 )5 !5 !5 u3 u3 u3 u3 u3 u3 u3 Q2 k6 l6 P^ v' h#  +  +  +  +  +  +  +  +  +  +  +  +  +  +  +  + *& ^& 4> m6 n6 5  X, 1%  +  +  +  +  +  +  +  +  +  +  +  +  +  +  +  +  +  +  +  +  +  +  +  +  +  + x$ x$ x$ W; 9> 9> 9> 9> /, /, 1' 2' Y' () 4_ o6 p6 q6 r6 A| W} a1 =} -} [[ f< n: Y} o: q: r: s: t: u: g< h< >} s6 t6 u6 v6 w6 x6 y6 z6                         A6 B6 C6 D6 E6 F6 F6 G6 H6 I6 J6 K6 L6 M6 M6 M6 M6 M6 ]6 ]6 ]6 ]6 g5 g5 E4 E4 R3 R3 &3 N6 S3 O6 P6 Q6 R6 S6 o5 R| ~3 s1 T6 4} 6} 6} 9} 0} p5 U6 V6 W6 X6 Y6 Z6 `6  7             .7 +7 @7 #7 $7 @( %7 &7 *7 =7 -7 ;7                                                       ",
"                  2  h+ w  P. {+ l+ O+ h+ L.  @ Z+ C%                            >7 ,7 '7 )7 j3 j6 j3 j3 j3 j3 j3 j6 O5 ,5 ,5 '5 '5 '5 '5 )5 !5 !5 !5 !5 u3 u3 u3 u3 u3 !7 ~7 {7 ]7 ^7 /7 A+  +  +  +  +  +  +  +  +  +  +  +  +  +  +  +  +  + B+ u$ (7       _7  $ ;@  +  +  +  +  +  +  +  +  +  +  +  +  +  +  +  +  +  +  +  +  +  +  +  +  + x$ x$ x$ W; W; 9> 9> /, /, /, 1' 2' Y' Y' _) o) :7 <7 [7 }7 V} X} =} -} ;} }[ n: |7 o: p: r: s: u: u: g< >} >} )} Z} 17 27 37 47 57 67 77 87                      97 07 a7 b7 c7 d7 e7 f7 g7 h7 i7 j7 k7 f7 f7 f7 f7 f7 f7 f7 K6 M6 ]6 ]6 ]6 ]6 g5 g5 E4 R3 &3 l7 m7 n7 o7 p7 K4 q7 r7 ~3 T| ,| ,| 4} )| )| 0} s7 t7 u7 v7 w7 x7 y7 z7 A7 B7 x+                C7 D7 E7 F7 h^ G7 H7 I7 J7                                                    ",
"                  D% {+ %  k+ {+ l+ R+ K. w  l+ w  G)                            K7 L7 M7 N7 O5 O5 O5 O5 O5 ,5 ,5 ,5 ,5 '5 '5 '5 '5 '5 )5 !5 !5 !5 u3 u3 u3 u3 u3 u3 u3 O7 P7 Q7 R7 S7 T7 ##  +  +  +  +  +  +  +  +  +  +  +  +  +  +  +  + ($ U7 +$ V7 W7 X7 Y7 Z7 `7 @%  +  +  +  +  +  +  +  +  +  +  +  +  +  +  +  +  +  +  +  +  +  +  +  + x$ j; g; [~ 0{ 9> 9> /, /, 1' 1' 2' Y' () 4_  8 }' .8 +8 %} W} =} =} [[ }[ f< Y} o: q: q: s: t: v: g< h< @8 '} B| C| #8 $8 %8 &8 *8 =8 -8 ;8                      >8 ,8 '8 )8 !8 ~8    {8 ]8 ^8 /8 (8 _8 :8 <8 [8 }8 }8 }8 f7 j7 j7 f7 f7 f7 I6 M6 ]6 g5 E4 D4 |8 18 28 38 48 58 68 78 o5 ~3 ~3 T| ,| 4} )| 9} k[ k[ 88 98 `3 08 a8 b8 c8 d8 e8 f8 g8 &( h8          i8 j8 k8 l8 -7 m8 n8                                                    ",
"                  2@ r+ @@ }@ `+ Q  .@ j. ,+ p+ Q  !# .                          o8 p8 q8 r8 ,5 ,5 ,5 ,5 ,5 ,5 ,5 '5 '5 '5 '5 '5 s8 )5 !5 !5 !5 !5 u3 u3 u3 u3 u3 u3 u3 P5 ;1 t8 u8 H^ h#  +  +  +  +  +  +  +  +  +  +  +  +  +  +  +  +  + B+ 5% v8 w8 x8 y8    z8 4> #$  +  +  +  +  +  +  +  +  +  +  +  +  +  +  +  +  +  +  +  +  +  +  +  + A8 i% B8 U7 || 9> /, /, /, 1' 1' 2' Y' _) C8 8: D8 E8 F8 G8 X} =} -} }[ }[ n: o: p: r: r: u: u: g< g< >} )} )} Z} B| $3 H8 I8 J8 K8 L8 M8 N8                               O8 P8 Q8 <8 R8       S8 T8 U8 V8 W8 i7 X8 <8 j7 }8 }8 j7 j7 j7 f7 f7 K6 M6 ]6 ]6 g5 E4 D4 Y8 Z8 `8  9 .9 w6 +9 @9 R| ~3 T| ,| 6} )| 9} 0} a} D< #9 $9 %9 &9 *9 =9 -9 ;9 >9 ,9 '9 ;=                )9 !9 ~9 {9 ]9                                                 ",
"               a$ N. j+ n+ R+ p+ .@ &  q+ k+ d+ (+ Y+                            ^9 /9 (9 r8 '5 '5 '5 '5 '5 '5 '5 '5 '5 '5 )5 )5 )5 !5 !5 !5 u3 u3 u3 u3 u3 u3 u3 u3 _9 r3 :9 <9 [9 $= P$  +  +  +  +  +  +  +  +  +  +  +  +  +  +  +  +  + g~ 5  }9    |9 19    29 g# 39 ##  +  +  +  +  +  +  +  +  +  +  +  +  +  +  +  +  +  +  +  +  +  + S) X; 49 59 69 79 89 /, V, 1' 1' 2' Y' _) l~ 99 9: 09 a9 b9 *} X} -} ;} }[ f< o: p: q: c9 t: u: v: h< >} '} Z} B| D| D| c1 d9 e9 f9 g9 h9 i9 j9 k9                            l9 m9 n9 P8 V8 o9 p9 q9 {8    r9 s9 t9 u9 v9 w9 x9 <8 }8 }8 }8 }8 j7 j7 f7 f7 M6 ]6 g5 g5 g5 Y8 v4 y9 z9 A9 m5 K4 B9 C9 ~3 T| ,| 4} )| 9} 0} k[ E< D9 E9 F9 G9 H9 I9 J9 K9 L9 M9 N9                      O9 P9 Q9                                                 ",
"               p= p. O. }@ O. j+ '+ o. K. h+ d+ Q  V@ f.                         R9 S9 T9 U9 '5 '5 '5 '5 '5 '5 '5 '5 s8 )5 )5 !5 !5 !5 !5 !5 u3 u3 u3 u3 u3 u3 u3 u3 V9 h6 W9 X9 Y9 Z9 y.  +  +  +  +  +  +  +  +  +  +  +  +  +  +  +  + #$ `9 p$  0 .0 +0 @0 #0 x+ $0 %0 o#  +  +  +  +  +  +  +  +  +  +  +  +  +  +  +  +  +  +  +  +  +  + -^ &0 *0 =0 -0 ;0 n{ /, V, 1' 2' 2' Y' _) >0 ,0 '0 )0 +8 !0 X} =} ;} [[ f< n: p: r: r_ s: t: v: g< >} >} )} B| C| b1 b1 /2 ~0 {0 ]0 ^0 /0 (0 _0 :0                            <0 [0 }0 |0 10 20 30 40 50 60 70 >8 80 90 00 a0 b0 c0 d0 e0 X8 }8 }8 j7 j7 f7 K6 ]6 ]6 ]6 ]6 E4 d5 v4 f0 g0 h0 i0 `3 j0 k0 R| ,| 4} 6} )| 0} 0} m[ D< D< l0 m0 n0 o0 p0 q0 r0 s0 t0                            u0 k#                                              ",
"               W@ t+  @ l+ p+ }@ M. f  @@ }@ m+ '+ /+ h.                            v0 w0 x0 y0 '5 '5 '5 '5 s8 s8 )5 )5 )5 !5 !5 !5 !5 u3 u3 u3 u3 u3 u3 u3 u3 u3 g4 z0 p2 A0 B0 V~ #$  +  +  +  +  +  +  +  +  +  +  +  +  +  +  +  +  + y. g$ C0 D0 E0 F0 G0 H0    I0 >@ J0 ($  +  +  +  +  +  +  +  +  +  +  +  +  +  +  +  +  +  +  +  + S) X; K0 L0 M0 N0 ;0 O0 /, 1' 1' 2' 2' Y' _) P0 Q0 R0 S0 T0 U0 X} =} [[ }[ n: n: p: r: s: t: u: g< h< >} '} B| C| D| c1 c1 (2 %3 h5 V0 W0 X0 Y0 Z0 `0 &!                         A  *% @@  a .a    +a @a #a $a v9 %a &a *a    =a s9 -a ;a a0 >a ,a e0 'a }8 j7 j7 f7 M6 M6 M6 g5 g5 E4 h5 )a !a ~a {a K4 47 N4 N4 ,| 82 6} )| 0} k[ m[ D< P: 4^ ]a ^a /a (a _a :a <a                                                                               ",
"            :@ .@ L. i+ +@ R+ }@ W  W  j+ U+ '+ j+ /+ C$                            [a h6 }a |a )5 )5 )5 )5 )5 )5 )5 !5 !5 !5 !5 !5 !5 u3 u3 u3 u3 u3 u3 u3 u3 u3 1a 2a 3a 4a 5a %0 0@  +  +  +  +  +  +  +  +  +  +  +  +  +  +  +  +  + ## 7. 6a [+ 7a 8a 9a 0a aa ba ca E  .+  +  +  +  +  +  +  +  +  +  +  +  +  +  +  +  +  +  +  +  + -^ da ea fa ga ha ia K= @] 1' 5: ja X2 () 4_ ka {$ la ma na X} X} -} }[ }[ n: o: q: r: s: t: u: g< h< '} Z} B| D| b1 c1 c1 (2 %3 oa pa qa ra sa ta ua &!                            M+ ;+ o+ &%       va wa xa ya za Aa Ba Ca 07    c7 Da Ea Fa ;a Ga w9 'a Ha f7 f7 K6 K6 M6 ]6 g5 g5 D4 Ia Ja Ka z9 La Ma Na Oa Pa Qa 6} )| 9} k[ k[ D< E< ,/ Ra j} Sa Ta /a _} Ua Va Wa                                                                         ",
"            f% _+ `+ d+ p+ m+ O. M. <  s+ Z+ n+ k+ w  W@ B%                         Xa Ya x3 c4 !5 !5 !5 !5 !5 !5 !5 !5 !5 !5 u3 u3 u3 u3 u3 u3 u3 u3 u3 u3 u3 u3 Za i  `a  b .b +b ($  +  +  +  +  +  +  +  +  +  +  +  +  +  +  +  +  + y. u$ @b    #b $b %b &b *b    =b 4> G^  +  +  +  +  +  +  +  +  +  +  +  +  +  +  +  +  +  +  + x$ '( -b ;b >b >b ,b 'b )b r! k} !b ~b {b ]b #~ F* ^b /b (b _b =} =} ;} f< f< o: p: r: s: u: v: y: >} ,} )} Z} D| c1 /2 _2 %3 &3 &3 d5 :b <b [b }b |b 1b                                  N+ i. |              2b 3b 4b 5b 6b 7b 8b 9b 0b ab    bb cb db eb b0 fb gb 'a Ha [8 f7 K6 ]6 g5 g5 R3 R3 Ja hb k5 ib jb kb lb mb nb 6} )| U| 0} a} D< E< 4^ !/ S{ ob pb qb rb sb tb ub vb                                                                   ",
"            ;+ *   @ d+ p+ [  k+ i+ p+ R+ O. 3@ n+ p+ S+ }&                         wb xb yb zb Ab !5 !5 !5 !5 !5 !5 !5 u3 u3 u3 u3 u3 u3 u3 u3 u3 u3 u3 u3 u3 e4 Bb Cb Db Eb Fb m%  +  +  +  +  +  +  +  +  +  +  +  +  +  +  +  +  +  + (, +$ Gb    Hb Ib Jb Kb Lb    Mb p$ Nb ##  +  +  +  +  +  +  +  +  +  +  +  +  +  +  +  +  +  + '( Ob Pb Qb Rb Sb Tb +] Ub Vb Wb Xb Yb Zb `b  c .c +c @c #c *} =} -} [[ f< n: p: q: r_ u: v: y: g< >} '} Z} B| b1 /2 /2 %3 &3 R3 R3 g5 $c %c &c *c =c -c ;c                               +  e% :@                >c ,c 'c )c !c ~c {c ]c za ^c 90 /c    (c _c :c u9 W8 <c [c j7 }c I6 ]6 g5 E4 R3 &3 N6 S3 |c 1c 2c 3c 4c 5c 6c )| )| 0} k[ m[ E< ,/ 4^ q] S{ c{ h] 7c j~ 8c 9c 0c ac bc cc                                                          ",
"            X  n. '+ '+ o+ n+ %  q+ %  T+ &  k.  @ Q  n+ k&                            dc i  u3 g4 u3 u3 u3 u3 u3 u3 u3 u3 u3 u3 u3 u3 u3 u3 u3 u3 u3 u3 u3 u3 w3 h6 ec fc gc v; ##  +  +  +  +  +  +  +  +  +  +  +  +  +  +  +  +  +  + !% e; hc ic jc kc lc mc nc oc    pc )@ .+  +  +  +  +  +  +  +  +  +  +  +  +  +  +  +  +  + x$ -^ qc rc Rb sc tc uc vc wc 2_ }| ~2 xc yc zc Ac Bc Cc Dc _b Ec =} [[ }[ n: o: q: r: t: v: g< g< h< '} )} B| D| c1 /2 (2 %3 &3 E4 E4 ]6 Fc L6 Gc Hc Ic Jc Kc                                  f. :%                   .[ Lc Mc Nc Oc Pc Qc Rc Sc Tc Uc Vc Wc       Da 60 Xc Yc Zc `c :8 K6 g5 E4  d |8 .d %3 +d @d #d $d %d Na &d *d =d 9} 0} k[ D< P: ,/ r] q] c{ b{ b{ k~ 33  5 -d ;d ^/ >d ,d ;=                                                    ",
"         G) t+ j+ }@ R+ g+ m+ N. /+ m+ s+ ]+ p. N. h+ Y+ [. N#                         'd )d !d w3 u3 u3 u3 u3 u3 u3 u3 u3 u3 u3 u3 g4 e4 _9 ~d P5 ~d {d u3 ]d ^d d| /d (d H^ _d  +  +  +  +  +  +  +  +  +  +  +  +  +  +  +  +  +  + #$ _- 5% :d <d [d }d |d 1d 2d 3d    4d >@ D&  +  +  +  +  +  +  +  +  +  +  +  +  +  +  +  +  + S) +b 5d 6d 7d 8d 9d 0d ad bd k} cd 51 dd ed fd gd hd id jd =} =} ;} }[ f< o: p: r: s: u: kd h< h< >} )} Z} D| b1 /2 (2 %3 &3 R3 g5 g5 M6 M6 f7 ld md nd od pd                                                                qd rd sd td ud vd ud wd xd yd zd Ad Bd Cd       Dd Ed Fd Gd Hd Id Jd Kd Ld Md &3 Nd $3 Od Pd Qd Rd Sd |} 6} Td 9} k[ a} E< P: 4^ r] S{ b{ b{ k~ k~ $~ .( Ud Vd Q_ Wd Xd Yd                                                 ",
"         {# ^. h+ m+ [  T+ T+ ~+ )+ l+ S+ K. :+ O. Y+ g+ ~# M                             Zd i  `d Za f4 e4 e4 e4 e4 e4 f4  e }a .e s3 x3 (9 +e yb C2 l3 @e C2 i  #e $e %e p$ 0@  +  +  +  +  +  +  +  +  +  +  +  +  +  +  +  +  +  + ## v; &e *e =e -e ;e >e ,e 'e )e    !e %# ~e .+  +  +  +  +  +  +  +  +  +  +  +  +  +  +  +  + -^ {e ]e ^e /e (e _e :e <e [e }e |e 1e 2e 3e 4e 5e 6e 7e 8e =} -} ;} [[ f< o: p: r: s: u: kd h< >} '} Z} B| b1 c1 (2 %3 &3 R3 E4 g5 ]6 K6 f7 j7 9e 0e ae be ce                                                                   de ee fe ge Pc he wd vd Pc ie je ke le me ne oe       pe qe re se te ue ve we xe ye ze Ae Be Ce De Ee Fe Ge )| 0} k[ D< E< 4^ !/ S{ c{ b{ a{ k~ j~ q! {! b( R: He Ie Je                                                 ",
"         x  >+ @@ o+ Z+ n+ n+ t@ r@ %  .@ K. <  p+ U+ m+ w#                               Ke Le i  Me Ne Oe Pe Qe Re l3 Q2 Q2 l3 Se Te Ue Ve We Xe Ye Ze `e  f .f +f !e @f #f 3$  +  +  +  +  +  +  +  +  +  +  +  +  +  +  +  +  +  + 0@ {$ $f %f &f *f =f -f ;f >f ,f 'f    )f c. 6.  +  +  +  +  +  +  +  +  +  +  +  +  +  +  +  + W; -b !f ~f {f ]f _e ^f /f (f _f :f <f [f }f |f 1f 2f 3f X} -} -} [[ f< n: p: q: s: t: v: h< >} '} )} B| D| c1 /2 %3 &3 R3 E4 E4 ]6 M6 f7 j7 }8 4f %a 5f 6f 7f                                                                      8f 9f 0f af !c bf he he vd Pc cf df ef ff gf hf if jf       kf lf mf nf of pf qf rf sf tf uf vf wf xf yf zf Af U| m[ D< ,/ 4^ q] R{ c{ b{ a{ j~ $~ p! ~! o) Bf Cf }<                                                 ",
"      :% N. _+ T+ #@ }@ [  <@ P% s@ K. Q  s+ k+ 2@ i. S+ W@ 2                                Df Ef Ff Gf Hf If Jf Kf Lf Mf Nf Of Pf Qf Rf Sf Tf Uf          5$ Vf    Wf 1* L% #$  +  +  +  +  +  +  +  +  +  +  +  +  +  +  +  +  +  + #. o& Xf Yf Zf `f  g .g +g @g #g $g    %g +$ _- y.  +  +  +  +  +  +  +  +  +  +  +  +  +  + &g 49 *g =g -g (e ;g >g ,g 'g )g !g ~g {g ]g ^g /g (g _g a1 X} -} ;} }[ f< n: p: r: s: t: y: >} ,} )} Z} C| b1 c1 /2 %3 &3 E4 E4 g5 M6 K6 f7 j7 }8 ld d0 :g <g [g }g                                              |g                         1g 2g 3g !c he bf he he 4g 5g 6g 7g 8g 9g 0g ag bg cg dg eg fg gg hg ig jg kg lg mg ng og pg qg rg sg tg ug 02 U6 T( ,/ r] S{ S{ b{ a{ k~ j~ q! {! R) o) vg wg                                                 ",
"      f% r+ :+ U+ X  .@ i. X+ r@ e  n. T. L. e  1@ M. q+ )+ c                                   xg yg zg Ag Bg Cg                      Dg Eg Fg Gg Hg Ig Jg Kg Lg Mg Ng c. B+  +  +  +  +  +  +  +  +  +  +  +  +  +  +  +  +  +  +  + #. G# Og 2# Pg `f Qg ;e Rg Sg Tg Ug Vg [+ Wg m- .+  +  +  +  +  +  +  +  +  +  +  +  +  +  + Xg Yg Zg `g  h .h +h +h @h #h $h %h &h ]g *h =h -h ;h V} X} =} ;} f< f< f< o: q: r: t: u: g< >} )} Z} B| b1 c1 (2 (2 &3 D4 g5 g5 g5 f7 f7 j7 }8 ld >h ,h 'h Ic )h !h                                        ~h {h ]h                            ^h /h (h _h :h bf he he <h [h }h |h 1h 2h 3h 4h 5h 6h 7h 8h 9h 0h ah    r| bh ch dh eh fh gh hh ih jh kh lh W| mh nh oh ph q] c{ b{ k~ k~ q! p! ~! k4 %7 qh &^                                              ",
"      ;+ W   @ Z+ T+ '+ X  e  Z+  @ W  j+ %  f+ e+ (+ s+ U+ |                                                  rh sh th uh vh    wh xh yh zh q$ `$ u$ P@ 4. {] Ah Bh Ch o& #.  +  +  +  +  +  +  +  +  +  +  +  +  +  +  +  +  +  +  + 0@ Q@ Dh Vg Eh 8a Fh Gh Hh Ih Jh Kh Lh    Mh 7  {,  +  +  +  +  +  +  +  +  +  +  + Z# &; ## {e -b Nh Oh Ph ]f +h +h Qh Rh Sh Th Uh Vh Vh =h 91 V} V} X} =} ;} f< f< f< o: q: r: t: u: g< >} )} Z} B| b1 c1 (2 (2 &3 E4 g5 ]6 M6 f7 f7 j7 }8 ld >h ,h Wh Xh Yh Zh                                  `h  i .i +i                                  @i #i $i :h Qc bf he he %i &i *i =i -i ;i >i ,i 'i )i !i ~i {i ]i ^i    /i (i _i :i <i [i &] }i |i 1i 2i 3i 4i 5i Na 6i @1 #1 k2 )^ k~ q! p! ~! k4 7i 8i 9i                                     2        ",
"      |@ W  e  m+ R+ n+ i+ U+ #@ j+ `+ W+ t@ P# v@ `+ <  s+ e% t#                                              0i ai bi ci di    ei fi gi hi ii &= L% J# ji u$ =b ki li @_ 6.  +  +  +  +  +  +  +  +  +  +  +  +  +  +  +  +  +  +  +  + P@ mi ni oi -e pi qi ri si ti t3 ui    vi wi @$ 0@  +  +  +  +  +  +  +  + Z# &; p# xi yi zi Ai Bi sc 8d ]f +h +h Ci Di Ei Fi Gi Gi Hi =h 91 V} W} =} =} [[ }[ n: |7 p: r: s: u: v: h< ,} Z} B| C| c1 /2 (2 %3 R3 E4 ]6 ]6 L6 f7 j7 }8 ld >h Ii ,h Ji ~c Z0 Ki                               Li Mi Ni Oi                                        Pi Qi Ri Si Qc bf he Ti Ui Vi Wi Xi Yi Zi `i  j .j +j @j #j $j %j 3:    &j *j =j -j ;j >j ,j       x+ 'j )j !j ~j %9 {j ]j ^j '^ /j (j q! {! k4 _j :j <j                                  $  h+       ",
"   .  Z+ ,+ +@ X  [  #@ T+ i. T+ N. K. f+ v# #  #  M. j. Y+ 2@ }&                                              [j }j |j 1j       2j 3j 4j 5j 0@ #$ ($  + ($ >% e; 6j 7j A. :) #$  +  +  +  +  +  +  +  +  +  +  + i%  +  +  +  +  + #$ 8j Q@ 9j 0j aj bj cj qi dj ej fj !7 gj hj    ij Q@ 6.  +  +  +  +  +  + ($ jj +b kj yi /< lj mj nj oj pj .h +h +h Ci Ci Di qj qj Gi Hi =h rj 01 W} a1 =} -} }[ f< n: o: q: s: t: v: g< >} )} Z} B| D| c1 /2 %3 &3 E4 g5 ]6 K6 K6 j7 j7 ld >h Ii sj tj uj vj wj xj                         yj zj Aj Bj Aj Cj                                           Dj Ej Fj Gj Hj bf he Ij &i Jj Kj Lj Mj Zi `i Nj Oj Pj Qj Rj Sj Tj       Uj Vj Wj Xj Yj Zj `j  k .k +k @k    #k $k %k &k *k =k -k ;k ~/ s] T{ >k ,k 'k                            A  C$ i  v  2     ",
"   r. q+ T. d+ '+ W+ o+ '+ U+ n+ 3@ o+ u# &% v@ w# i. @@ ). V+ d%                                              )k !k ~k B#       {k ]k ^k /k  +  +  +  + #$ W, 4> (k    ,- $= @%  +  +  +  +  +  +  +  +  +  +  + _k i% ($  +  +  + #$ :k <k [k }k |k 1k 2k 3k -e 4k 5k $b _9 6k    7k p$ 8k #$  +  +  +  + &; T) &0 9k 0k ak bk ck Bi dk (e .h ]f +h +h Ci Di Di ek qj Hi Hi =h 91 01 W} X} -} -} }[ f< n: o: q: s: t: y: g< >} Z} B| fk Q3 gk g1 (2 R3 E4 ]6 M6 f7 f7 }8 }8 ld >h Ii sj tj hk ik jk kk                   lk mk nk ok pk qk rk sk                                              &! tk uk vk Pc bf cf wk xk yk zk Ak Zi Bk `i Nj Ck Dk Ek Fk Gk Hk 1. Ik Jk -j Kk Lk Mk Nk Ok Pk Qk Rk Sk Tk       Uk Vk Wk Xk Yk Zk `k  l .l +l @l                         2  s+ ^  o  Q. #l    ",
"   Q# _+ j+  @ N. e  h+ R+ [  q+ O. <. y  w# v# m$ V+ V+ V@ )+ }&                                              $l %l &l *l       =l -l ;l /k  +  +  +  + 6. g# >l ,l 'l )l C@ /- ($  +  +  +  +  +  +  +  + i% g; !l ~l k% ($  +  + y. W' {l ]l ^l {d /l (l _l F0 :l <l [l ]d }l    |l 1l 2l 0@  +  +  + jj 3l 4l 5l 6l 7l 8l nj 9l 0l 0l .h .h ]f +h +h Ci Di Di qj Gi Hi =h =h 91 V} a1 X} -} ;} f< n: p: p: q: s: u: g< h< '} al bl b1 B4 cl dl el f5 ~6 M6 f7 f7 }8 }8 ld >h Ii sj wd wd fl gl hl kk             il jl kl ll ml nl ol pl ql                                                       rl sl tl Pc wd Ij xk ul vl wl xl Zi `i Nj yl zl Al Bl    Cl Uk    Dl El Fl Gl Hl Il Jl Kl Ll Ml P4 Nl Ol             Pl Ql Rl Sl 0c Tl Ul                            -$ {+ j  _. U  h.    ",
"   &% t+ i+ p+ (+ e  p+ o+ T+ w  m+ &% h. C$ =$ Y  +@ R+ i. Y+ v@ A                                         &! Vl Wl Xl Yl       Zl `l  m /k  +  +  + ($ d= c. .m +m @m #m $m %m @%  +  +  +  +  +  +  +  + g; k% &m *m &= #$  +  + y. 7_ =m -m ;m {d >m ,m 'm bj )m !m ~m {m ]m ^m    X[ c. .+  +  + jj /m (m _m :m <m [m }m |m 1m 1m .h .h .h ]f +h +h Ci Ci Di qj Gi Hi Hi rj 91 V} X} X} -} [[ f< n: o: p: r_ u: u: w: 2m '} N3 3m 4m 5m cl 6m 7m 8m !6 9m K6 j7 j7 4f ld >h Ii sj wd Ti 0m Fa am bm       cm dm em fm gm hm im jm km lm mm                                                          nm om pm qm tj rm sm tm um vm Zi Bk `i wm xm ym zm       .[       Am Bm Xj Cm Dm Em Kl Fm Gm Hm Im Jm Km                   J9 Lm Mm Nm                               Y  u  r  p  ).    ",
"   W@ r+ s+ R+ @@ }@ R+ }@ %  %  +@ Y  b+ u# *% P+ n. K. o+ X  J. S$                                        r| Om Pm Qm Rm       Sm Tm Um /k  +  +  + 0@ Vm Wm Xm Ym i  Zm `m @. m%  +  +  +  +  +  +  +  + |'  n .n +n 9+ P$  +  + ## o& @n 7* #n v3 $n %n $n &n *n =n -n ;n s3 >n    ,n @. 'n #$ )n !n 9k ~n {n ]n ^n /n (n 1m 1m 1m .h .h ]f ]f +h +h Ci Di Fi Gi Gi =h =h 91 01 V} X} =} ;} }[ n: Y} p: r: _n :n :5 <n [n }n |n 1n 2n 3n 4n 5n 6n 7n 8n 9n 0n 'a 4f ld >h Ii Ii sj wd an bn cn dn ;c en fn gn hn in jn kn ln mn nn on pn                                                             qn rn sn tn wd un vn wn um xn xl Zi `i `i .j yn zn An             Bn Cn Dn En Fn Gn Hn In 0} k[ Jn Kn Ln Mn                         k#                               :@ Y+ V  ;   @    ",
"   x  W  j+ T+ [  h+ k+ i+ s+ j+ T+ =$ c  N% c  h+ ]  ,+ w  e  U+ b$                                        Nn On Pn Qn          Rn Sn Tn Un  +  +  + @% 5% Vn    Wn i  Xn Yn Zn `n :) k% P$  +  +  +  +  + K= ^&  o .o n# P$  +  + ## }# +o    @o #o %n $o %o &o *o =o -o ;o >o ,o 'o Z1 )o I$ !o ~o yi {o ]o ^o /o (o (n 1m 1m 1m 1m .h .h ]f ]f +h Ci Ci Di qj Gi Gi =h -h 91 01 W} X} =} [[ }[ n: o: _o :o <o [o }o |o 1o 2o 3o 4o                   5o 6o 7o 'a ,a >h >h Ii sj wd he Ti 8o 9o 0o    ao bo co do eo fo go ho io jo ko lo                                                             x+ mo no oo po %i qo ro so um vm Zi Bk `i to uo vo wo             x+ xo yo zo Ao Bo Co zf U| 0} m[ Do 08 Eo Fo                                                          u# V  o  W  f. ",
":% R+ f  Q  ~+ i+ K. d+ 3@ h+ .@ g+ h& c  c  `% m. (. p. p. ~+ V+ r@ `                                      Nn Go Ho Io          Jo Ko Lo J# ($  +  + #$ c. Mo    No d| Oo Po Qo Ro '@ ## L% ($  +  +  +  + &= So To Uo 9+ P$  +  + h# c. Vo Wo Xo {m $o Yo Zo `o  p .p +p @p #p Ue $p    !{ q{ %p &p *p =p -p ;p (n (n (n 1m 1m 1m 1m .h ]f ]f +h +h Ci Di Fi qj Gi Hi Hi 91 01 01 W} =} -} }[ f< >p ,p 'p )p !p ~p {p ]p                                  ^p /p (p e0 %a Ii sj sj wd he td _p :p <p    [p }p |p 1p 2p ho ho 3p 4p 5p 6p                                                    .     S$ x# 7p 8p 9p 0p |c ap bp sm cp dp ep xl Zi Bk `i fp gp hp ip             jp kp lp mp np op pp 9} 0} a} 88 qp rp sp                                                    .  @  o+ l. g  ]. <% ",
" & .@ <  S+ l+ d+ <  `+ p+ ~+ h+ T+ {# '. P% 2@ /. t+ %  n+ U+ V@ x  #l                                     Nn tp up vp          wp xp yp zp v'  +  + T% 3. Ap    Bp @e Re Cp Dp Ep Fp Gp 5>  +  +  +  +  + <_ I= Hp Ip W, P$  + #$ 6# g# Jp Kp Lp |k Mp Np Op Ib Pp Qp Rp Sp Tp Up Vp       Wp Xp Yp Zp `p ;p (n (n (n (n 1m 1m 1m 1m .h ]f ]f +h +h Ci Di Fi qj Gi Hi =h rj 01 V} W} =} -} [[  q .q +q @q #q $q                                              ^p %q &q *q =q sj sj wd an -q ;q >q ,q    'q )q !q ~q 2p ho {q ]q ^q /q (q                                           B% _% x# `% {# H% <. _q :q <q [q }q |q 1q 2q 3q 4q =i 5q Zi Zi `i 6q 7q vo 8q             S4 9q 0q aq bq cq dq =d 9} k[ D< eq g} fq                                              S$ #& =$ l+ q+ o. l. o  H% ",
"<% w  l+ %  d+ q+ o. 3@ [@ ~+ d+ k+ |@ e+ $  %  r+ (+ n+ }@ )+ !+ $  1@ }&                                  Nn gq hq iq          jq kq lq mq Y~  + #$ 2< nq oq    pq l3 qq rq sq tq +b uq @% _k  +  +  + ($ 2< *; j> p# W, P$  + #$ <_ B- vq wq xq yq Np zq zq Aq 2d Bq Cq Dq Eq s3 Fq Gq    Hq Iq Jq Kq ;p Lq (n (n (n (n 1m 1m 1m 1m .h ]f ]f +h Ci Ci Di qj qj Gi Hi =h rj 01 V} a1 =} Mq Nq Oq Pq Qq Rq                                                       Sq w9 Tq *q tj wd he Uq Vq Wq Xq Yq    Zq `q  r .r 2p go fo +r @r #r                                        N# u+ F% !# e+ 1@ 1@ e+ #  $r %r &r *r    =r -r ;r >r ,r 'r )r Zi Zi Bk `i fp !r ~r {r             ]r ^r    /r (r Hn _r :r k[ D< <r [r }r                                           k& u@ W@ m+ p+ O. _. (. T  #  ",
"'. L. e  d+ s+ t+ w  o+ i. [  +@ +@ #@ X  Q  k+ S+ :+ e  o+ Y+ V+ 4@ [@ }  a$                               |r 1r 2r 3r          4r 5r 6r 7r Y~  + #. 4. 8r 9r    0r @e f4 m3 ar br cr dr er ]- @%  +  + ($ f; fr &[ gr _k ($  + 0@ hr |' ir jr kr lr mr nr nr or pr qr rr sr tr ur T9 vr       wr xr yr (n (n (n (n (n 1m 1m 1m 1m .h ]f ]f +h +h Ci Ci Di qj Gi Hi Hi 91 91 01 W} a1 zr Ar Br Cr Dr                                                                Er Fr Gr Hr he he Uq Ir Jr Kr       Lr Mr Nr Or Pr Qr Rr Sr Tr Ur                                         & }  X@ t@ t@ ~# ~# r@ ;+ t@ W@ Vr Wr Xr    Yr Zr `r  s .s )r +s Zi Zi `i yl @s #s $s             %s &s       *s =s -s ;s p5 m[ D9 >s ,s &^                                  ,. O% O+ V+ X@ Y+ L. P  .@ :  l  P  ",
"m$ L. X  `+ j+ w  %  e  X  ~+ [  R+ p+ k+ k+ j+ O. p+ V+ ~+ i+ V@ f+ g+ 2@ v# A                             Nn 's )s !s          |0 ~s {s ]s Y~  + $^ g# ^s       /s l3 >o h6 (s _s .l :s <s (- ##  +  + ($ A- [s q, F* L%  +  + 0@ 5% }s [+ |s 1s lr 2s 3s 3s 3s 4s 'e 5s 6s 7s 8s 9s 0s       as bs cs ds (n (n (n (n 1m 1m 1m 1m .h ]f ]f +h +h Ci Ci Di qj Gi Hi Hi 91 01 V} es fs gs hs is js                                                                      ks ls Ti Qc bf :h ms ns os       ps qs rs Qr ss ts us vs ws                                           N+ X@ P# O# v@ r@ O# ~# v# P# J. J. T+ P  &!    xs ys zs As Bs +s Zi Zi Bk Nj Ck Cs Ds             Es Fs Gs       Hs Is Js Ks V| 88 >s Ls Ms                            `  O% W@ )+ ). }  e+ O+ h+ c+ @@ f  m  n+ ",
"<@ _+ '+ n+ l+ O. %  +@ p+ Z+ n+ N. #@ m+ i. k+ S+ V+ %  :+ p+ )+ X+ )+ X+ 4@ @&                            r| Ns Os Ps             Qs Rs ^k P$ ($ (, Q@ Ss       Ts l3 _9 Us Vs Ws Xs Ys Zs h% n- ($  + h# =& `s  t 5% h#  +  + 0@ )@ .t    +t r3 yq @t #t $t %t &t ,f Sp *t =t #g u3 -t Ws       ;t >t ,t (n (n (n (n 1m 1m 1m 1m .h ]f ]f +h +h Ci Ci Di qj Gi Hi =h rj 01 't a1 )t !t ~t                                                                               {t Tc Pc bf ]t ^t /t (t    _t :t <t [t }t }t |t 1t 2t 3t                                        a$ ~# t@ ;+ O# r@ w# ;+ r@ !# X@ d  X@ p+ %  0$       4t 5t 6t 7t 8t +s Zi Zi `i 9t 0t at bt          {8 ct  .          dt et ft gt ht V6 it jt                         <+ 1@ Y+ x  W@ s@ !# e+ ~# P+ j. n. t+ (. &  ",
"Z+ R. l+ }@ '+ s+ l+ +@ l+ p+ O. l+ e  W+ Z+ o+ @@ k+ j+ N. ~+ c+ )+ [@ P  2@ e% f.                         &! kt lt mt             nt ot pt qt #$ rt m-  )       st Re e4 tt D2 ut vt wt y' xt yt ($  + d= zt At Bt m- J#  +  + 3$ 2$ Ct    Dt Et |k Ft Gt Gt Ht It e4 Jt Kt Lt Mt Mt m3 Nt       Ot Pt Qt Rt (n (n (n 1m 1m 1m 1m .h ]f ]f +h +h Ci Ci Di qj Gi Hi =h 91 St Tt Ut Vt Wt                                                                                  Xt 3g Yt wd Zt `t  u .u    +u @u #u $u %u $u &u *u =u                                           [. $  #  &% #  ~# !# P# !# ~# u@ O# e+ O+ |@ V+ -u       ;u >u ,u 'u +s )u Zi `i Nj !u ~u {u                               ]u ^u /u (u -| _u :u                   w@ `% X+ 2@ |@ s@ e+ P+ e+ t@ !# !# s+ n. n. q. f  ",
"T+ L. '+ i+ l+ s+ l+ p+ Z+ k+ h+ o+ +@ #@ e  [  k+ O. #@ U+ T+ T+ Y+ i. ). W@ )+ P% .                          <u [u 5$             }u |u 1u 2u #$  ; 3u 4u    5u 6u Qe g4 ~d 7u 8u 9u 0u au bu cu  +  + d= du == eu o& J#  +  + 3$ }# '-    fu gu lr hu iu iu hu !7 ju ku lu !7 mu 2d 9s nu ou       pu qu ,t (n (n (n 1m 1m 1m 1m .h ]f +h +h +h Ci Di Fi Gi Gi Hi =h St ru su tu k#                                                                                        uu vu Qc wu xu yu       zu Au Bu Cu Du Eu Fu Gu Hu                                        ,. }  e+ P# O# #  <. <. e+ 4@ r@ e% P# X@ d  1@ V@ <@ }.       Iu Ju As 8t +s Zi `i `i Ku Lu Mu Nu                               Gs Ou Pu V6 Qu Yd             @& Y  i. e  P  O+ W@ 1@ 1@ W@ 1@ <. v@ m$ Y+ L. o. W  >+ ",
"K. s+ i. s+ @@ .@ o+ X  n+ T+ l+ '+ m+ e  Z+ [  K. l+ !+ e  +@ R+ c+ }  W@ 1@ ~# ~# U@                         Ru Su x+             Tu Uu Vu Wu j% 7. v8 9.    Xu Yu Zu !7 Za `u  v .v +v @v #v $v 0@  + i% %= %v &< '# y.  +  + 3$ Q@ &v    *v =v lr -v ;v ;v >v v3 ,v 'v s3 -v )v mu !v ~v {v       ]v ^v /v Rt (n (n 1m 1m 1m 1m .h ]f +h +h +h Ci Di Fi Gi Hi (v _v :v <v [v                                                                                              }v |v 1v 2v 3v 4v    5v 6v 7v 8v 9v Cu 0v av bv                                           D% |@ !# d  t@ !# P# P# X@ W@ W@ !# r@ d  t@ }  }  f+ H% :@    cv dv ev fv +s )u Bk `i wm gv hv iv                                  jv kv lv mv `>       q@ p+ N. c+ ). |@ $  O+ 1@ X@ f+ W@ X@ }  v@ ~# Q+ @@ K. q. *  ",
"t+ p+ !+ M. %  '+ c+ X  .@ X  j+ %  +@ +@ R+ N. d+ s+ i. W+ '+ T+ W+ Y+ )+ s@ C$ w# Y  _%                      nv ov                   pv qv rv sv B~ tv       uv vv m3 >o wv xv D2 yv zv Av Bv /< Cv ## K= Dv Ev Fv F* P$  +  + 3$ Q@ Gv    Hv Iv lr Jv Kv mu |k {d Lv Mv z0 Nv Ov Pv z0 Qv Rv          Sv Tv ,t (n 1m 1m 1m 1m 1m .h ]f +h +h +h Ci Di qj Gi (v Uv Vv Wv Xv                                                                                                 &6 Yv Zv `v  w       .w +w @w #w #w $w %w &w *w                                        #& u@ P+ u@ e+ <. d  t@ s@ |@ P+ Q+ W@ w# ;+ v@ P# e+ s@ ). f%       =w -w ;w >w )u Zi `i Nj ,w 'w )w 7,                                     !w ~w          Y@ k  h+ 4@ W@ 4@ J. W@ s@ P+ |@ 1@ !# d  ~# J. g+ o+ P. *  v  ",
"`+ n+ W+ 3@ Q  n+ ~+ p+ h+ X  s+ @@ l+ d+ m+ k+ S+ L. '+ R+ R+ +@ Z+ c+ g+ ~# G% ;+ u@ p=                      {w ]w                   ^w /w (w _w Q@ :w          <w i  z0 Za e4 [w }w |w 1w 2w [) %# y$ 3w 4w 5w 6w 2< P$  +  + 3$ 7w 8w    9w 0w aw Pv Pv Jv bw cw dw ew s3 fw gw zb w3 h6 hw          iw jw kw ds 1m 1m 1m 1m 1m .h +h +h +h Ci Di Di qj lw mw nw ow pw                                                                                                       qw rw sw tw    uw vw ww xw yw zw Aw Bw Cw                                           U. [@ e+ !+ Q+ X@ d  }  1@ 1@ J. P  s@ r@ &% O# v@ X@ }  e+ O# -+       Dw Ew Fw +s Zi `i Nj Gw Hw Iw Jw                                     Kw Lw          z  N. [  x  J. d  e+ e+ d  P+ f+ e+ #  t@ P# }  s@ :+ &  R. ]+ ",
"h+ i+ V+ %  k+ +@ l+ n+ T+ R+ @@ X  i+ M. .@ @@ i+ 3@ S+ s+ n+ m+ [  [  J. e+ t@ w# e% u@ #l                   Mw Nw                   Ow Pw Qw  n G# Rw          7* Sw i  Tw Uw s3 Vw Ww Xw Yw Zw N$ |' r, `w  x x$ $$ #$  +  + 3$ :! .x    +x Qv yq @x Pv Nv #o #x $x %x &x *x =x =x -x h6 ;x          x+ >x ,x ,t 1m 1m 1m 1m 1m .h +h +h +h Ci Di Fi 'x lw )x !x ~x                                                                                                          {x $i ]x ^x    /x (x _x :x <x [x }x |x                                           N# *% ). 1@ g+ e  f+ <. f+ e+ }  J. |@ f+ X@ e+ ~# u@ e+ P# }  4@ e+ q@    1x 2x 3x 4x Zi `i Nj 5x 6x 7x 8x                                                       v@ [  $  P  W@ t@ e+ u@ 1@ s@ }  !# ;+ e+ #  ;+ (+ ,+ R. f  ",
" @ R+ X@ p+ k+ %  O. p+ k+ i+ p+ N. i+ N. O. }@ p+ O. S+ :+ /+ n+ T+ +@ g+ $  #  &% v# r@ ~# `                 9x 0x                   ax bx u$ cx 41 A%             dx ex fx w3 e4 p2 gx .m hx ix jx A- w. kx lx mx n# #$  +  + 3$ Q@ nx ox px R2 yq qx rx Ov v3 sx tx ux vx wx 1a 1a wx Qe xx yx          zx Tv 1m 1m 1m 1m 1m .h ]f +h +h +h Ci Di Ax Bx Cx Dx Ex                                                                                                             Fx Gx |v Hx Ix Jx Kx Lx Mx Nx Ox Px Qx                                           s% O+ 4@ O+ 2@ <@ e+ 1@ O+ P+ |@ P  d  <. d  P# O# X@ e+ !# !# }  $  D%       Rx Sx Tx Ux `i `i Vx Wx Cs Xx             `  :%                                     G) 2@ Q+ 4@ X  X@ u@ e+ X@ X@ !# !# &% s@ !# ~# K. <  q. q. ",
"(+ X  P  e  P. n+ X  '+ i+ '+  @ `+ @@ e  #@ o+ %  i+ O. :+ R  k+ V+ p+ l+ O+ #  r@ P# e% !+ J.  &             Yx Zx                   |0 `x  y .y +y .#                @y ;1 #y $y %y &y *y =y -y ;y Q@ L= >y ,y 'y _- #$  +  + 3$ Q@ )y !y ~y n3 Mt {y {y rx {d ]y ^y /y !v #o O7 O7 #o (y _y :y          <y [y }y |y 1m 1m 1m .h ]f +h +h +h Ci Ci 1y 2y 3y 4y                                                                                                                   ud 5y    6y 7y 8y 9y 0y ay by cy                                              N% #@ J. 4@ ). u@ f+ $  X@ f+ x  s@ v@ P# !# w# P# P# #  v@ }  u@ }  1@ dy    ey fy gy hy Bk `i Vx iy Cs jy             0$ Y@                                        W@ [@ P+ W@ u@ O+ W@ X@ X@ P# r@ P# 1@ d  O# 3@ ,+ k. _+ ",
" @ R+ X+ m+ Q  @@ o+ +@  @ }@ !+ q+ @@ T+ s+ n+ [  e  j+ i+ l. >+ %  w  h+ <@ e+ v@ !# r@ 2@ (+ 4@             ky ky                      ly my ny oy py                   qy d| V9 z0 ry sy ty uy vy 4> o& wy xy 5% ^& #$  +  + 3$ I$ yy zy Ay By wx v3 1a >o g4 Cy Dy Ey Fy w3 {d {d v3 Gy Hy Iy          Jy Ky Ly Rt 1m 1m 1m .h ]f +h +h +h Ci My Ny Oy Py                                                                                                                      Qy Ry Sy Ty Uy Vy 9y Wy Xy Yy                                              [% $  m+ x  <. 1@ J. $  1@ X@ P+ e+ #  }  s@ X@ u@ P# v@ ;+ !# W@ s@ s@ P+ ;+ :%    Zy `y  z .z `i Nj +z ym @z             <+ s@ e% c%                               B$ [@ V+ J. P# <. f+ 4@ e+ d  }  !# ~# }  J. ~# j+ *  (.  @ ",
"}@ +@ g+ +@ .@ p+ T+ Q  (+ X  #  %  N. c+  @ W+ i. p+ i+ <  q. m  L. @@ [  o+ ). d  e% e% 4@ Q  2@ }.                   l& Z% N#          #z $z %z &z *z                   =z -z ;z -x p2 >z ,z 'z )z W% >@ !z ~z o& i% ($  +  + 3$ I$ {z ]z ^z /z #o _9 O7 1a u3 (z _z :z Oe V9 e4 e4 >o <z [z }z             |z ^v Lq 1m 1m 1m .h 1z 2z ;g Ci My 3z 4z 5z                                                                                                                         6z    7z 8z 9z 0z az }x bz cz                                           2  G% <@ X@ t@ s@ W@ x  O+ }  X@ u@ !# #  <. 1@ s@ <. #  <. P# d  4@ O+ 4@ ~# X@ P% dz ez fz gz hy `i 6q hz iz jz                O  U+ B$                            c+ o  .@ X+ O+ W@ W@ O+ 1@ }  u@ e+ X@ !# t@ P+ <. w  _. l. K. ",
"c+ +@ U+ m+  @ @@ R+ /+ _+ p+ }@ [  Z+ '+ o+ $  X+ #@ .@ _+ R  l  /+ R+ [  n+ ~+ ). <. e+ 4@ [  g+ j, N#                {# x  N#          kz lz mz nz oz                      pz Re w3 +e qz rz sz    tz z' uz vz m- P$  +  +  + 3$ I$ wz xz yz zz Az e4 {d v3 Bz Cz Dz Ez zz V9 !7 !7 _9 Fz Gz Hz             Iz Jz 1m 1m 1m Kz Lz Mz Nz Oz Pz Qz Rz Sz                                                                                                                               Tz Uz Vz Wz Xz Yz Zz `z                                              1  Z+ J. 1@ u@ e+ W@ s@ s@ s@ X@ <. <. #  O# d  P+ P# O# v@ !# r@ P# |@ X@ P# !# Q+  A    .A +A @A Bk #A $A %A &A             n$ u@ .@ R+ {#       .  v@ i. n+ '+ K. /  k. s+ i+ Q+ }  O+ $  d  }  X@ u@ t@ e+ d  W@ e+ g+ ^. /. j. ",
"c+ O. ~+ X  k+ %  @@ d+  @  @ +@ <@ l+ n. e  ). g+ }@ %  t+ m. {+ M. %  U+ [  X  ~+ o+ [@ 2@ ~+ #@ W+ b$             S$ s@ <.                *A =A -A $:                   ;A >A Se _9 s3 ,A 'A )A    !A ~A {A ]A m- 0@  +  +  + 3$ I$ ^A /A (A (9 >o e4 e4 _9 _A :A <A [A }A v3 g4 g4 _9 |A 1A 2A             3A jw Kz 1m 4A 5A 6A 7A 8A 9A 0A aA bA                                                                                                                                  cA dA eA fA gA i  hA                                                 [& V+ J. X@ f+ e+ s@ e+ }  X@ u@ e+ 1@ O# v@ 4@ s@ v@ ~# v@ P# d  u@ |@ O+ X@ <. P+ e+ iA jA kA lA mA nA @j oA                M+ {# >+ P. W+ v@ [& G% 3@ n. l  ~  l  (. f  P. l+ P  d  O+ O+ 1@ }  W@ !# O# O# i. [  ). X  /. _. N. ",
"[  n+ +@ p+ @@ n+ s+ %  R+ .@ d+ [  X  (+ Y+ !+ W+ @@ m+ n+ P. t+ l+ U+ Z+ c+ n+ X+ o+  @ #@ s@ m+ i. D% M           b  e  i. <+             pA qA rA Z1                   O] sA Qe _9 Uw @e tA uA vA wA xA yA zA L= 0@  +  +  + 3$ I$ AA BA CA Oe v3 g4 g4 e4 DA EA FA GA +e v3 g4 g4 _9 Sp Re HA             IA JA KA LA MA NA OA PA    QA RA SA >8                                                                            TA UA                                              cz VA WA XA YA i  ZA                                                 f% O. n+ u@ }  v@ P# |@ e+ O# t@ u@ X@ X@ O# t@ J. 4@ <. #  r@ <. e+ s@ J. |@ 4@ 1@ <. 4@ `A     B .B +B @B #B $B                   h. :  +@ [@ <  q+ <@ i+ S. g  r  (. ^. S. W  n. }@ u@ W@ P+ P+ <. u@ t@ P# N% p+ ^+ T+ w  !. {+ Y+ ",
"i+ i+ p+ +@ [  +@  @ h+ .@ h+  @ Y+ P  T+ m+ o+ V+ e  [  O+ ~+ L. N. !+ +@ }@ n+ P  2@  @ X  w# 4@ )+ m$ &% n$       _% g+ +@ =$ S$          &! %B &B *B                   =B -B Se e4 v3 Pe ;B >B ,B 'B )B !B ~B w. @%  +  +  + 3$ I$ {B ]B ^B p3 v3 g4 g4 Za /B (B _B :B +e ~d g4 g4 e4 Sp @e <B          Ex [B }B |B 1B 2B x+             3B 4B                                                             Hx 5B 6B 7B 8B 9B 0B aB                                              bB ,1 cB dB i  eB fB                                                 h& (+ X  X+ W@ <. <. O+ t@ !# u@ e+ s@ <. e+ t@ f+ $  }  r@ e+ P+ e+ s@ X@ u@ ~# !# e+ <. X@ gB hB iB jB kB lB mB                   |@ /. K. Y+ O. k+ Y+ S+ _. {. S  Q. :. :  m. l. Y+ u@ 1@ d  1@ }  P# t@ u@ C$ W+ r+  @ N. (. >+ Z+ ",
"d+ .@ p+ +@ }@ e  %  %  m+ T+ N. ). x  %  R+ )+ e  N. o+ #@ )+ '+ j+ n+ %  @@ }@ )+ }@ X  T+ J. e% 4@ m+ }@ b$       `% '+ Y+ x  k&             nB oB pB                      qB m3 e4 ~d rB 1A sB tB uB r| vB wB A- 0@  +  +  + 3$ I$ xB yB zB (9 v3 g4 g4 _9 |A AB BB CB /z v3 u3 u3 e4 DB 7u EB          FB |y GB HB                   IB JB                                                 KB LB MB NB OB PB QB RB SB i  i  TB                                              UB VB WB XB i  YB ZB                                                 C% [  %  V@ '+ e  v@ s@ x  }  u@ X@ t@ O+ s@ d  !# f+ 4@ W@ }  d  f+ W@ X@ X@ v@ u@ V@ }  J. P+ `B     C 0g .C +C @C                   f% 3@ K. |@ m+ +@ p+ `+ R. ^. r  R  Q. R  {+ :+ o+ e+ u@ s@ X@ e+ s@ ). }  `% m+ m. l+ i+ _. :  m+ ",
"o+ %  @@ n+ l+ U+ p+ R+ R+ T+ l+ [  c+ d  [  ). R+ j. )+ R+ l+ O. p+ X  n+ '+ )+ 2@ o+ +@ S+ g+ O# G% 4@ )+ P  :%    $  m+ 2@ m+ O%             #C $C %C                   &C *C Se e4 Uw wv h6 =C -C ;C >C ,C 'C A- 0@  +  +  + 3$ }# )C !C ~C {C v3 g4 g4 e4 ]C ^C /C (C Oe _9 u3 u3 e4 _C :C <C       k# [C }C             |C (> 1C 2C 3C 4C 5C                                           6C 7C 8C 9C i  i  i  SB 0C X& i  aC                                                 bC cC dC eC fC gC                                                    {# 3@ [@ [  @@ c+ e+ f+ W@ W@ J. e+ s@ X+ $  O+ t@ d  J. P+ t@ u@ }  }  P+ ). u@ |@ 2@ u@ )+ X@ hC iC jC kC lC mC                         P  l+ c+ X+ <@ W+ V+ `+ {. :  _. l. W  l. Q. /. #@ v@ X@ e+ P+ O+ J. !# e+ Q  _+ k+ r+ *  r  ~+ ",
"V@ l+ d+ +@ T+ X  Z+ n+ O. X  [@ '+ U+ b+ <@ '+ i+ i+ n+ }@ %  }@ o+ [  Z+ W+ e  }@ '+ +@ c+ J. ~# &% 4@ )+ o+ O% M+ d  X+ )+ d+ P+             nC oC pC                   qC rC Qe e4 wv V9 @e sC tC uC vC wC xC A- 0@  +  +  + 3$ 2$ yC zC AC R2 _9 u3 u3 g4 vx BC CC DC vx g4 wv e4 $y EC yb FC                      GC HC IC JC KC LC MC NC OC                                        PC QC i  RC SC TC UC VC WC XC i  YC                                                    ZC ,1 i  `C  D                                                    b$ g+ J. X+ %  o+ P  f+ e+ u@ P+ J. P+ x  2@ ). O+ u@ d  d  u@ X@ 1@ u@ r@ X@ X+ W@ 1@ f+ P  d  !# Y+ .D +D @D #D $D                      B% 2@ }@ .@ m+ f+ ). X+ c+ :. p  :. m. &  r+ r+ {. S+ G% d  X@ e+ s@ O# &% Z+ :+ p.  @ L. R  m. %  ",
"T+ R+ .@ }@ X  }@ +@ %  k+ .@ Z+ e  $  e% T+ !. 3@ [  j+ W+ c+ Z+ +@ #@ [  W+ !+ n+ %  n+ [@ !# ~# W@ J. 2@ Y+ V+ u@ $  Y+ [@ V+ |@ #&             &! %D                   &D *D =D Za u3 _9 o3 -D ;D >D ,D 'D )D @$ 0@  +  +  + 3$ G# !D ~D {D R2 ~d u3 u3 !7 Pe ]D ^D Et ^d g4 >o 5s @e i  /D (D             :% _D :D <D [D }D |D 1D 2D 3D 4D 5D 6D                                  7D 8D i  9D VC 0D 0D aD bD cD i  dD                                                    eD Xy i  fD gD                                                       v@ i+ V+ n+ P  s@ 4@ $  }  f+ f+ d  W@ X+ !+ O+ <. d  1@ P# P+ }  u@ X@ e+ s@ P  O+ <. W@ 1@ O# W@ o+ hD iD jD kD    lD 1  <+ k&    a$ w@ y  W+ V+ c+ U+ P  $  !+ 2@ l+ :  >+ Q. g  {+ :+ L. t+ o+ <. [@ U+ ~# d  X+ h+ Q  S  M. [  (. &  O. ",
"k+ #@ +@ }@ N. ~+ X  @@ #@ m+ '+ T+ !+ J. @@ `+ %  %  ~+ #@ #@ m+ e  p+ Z+ V@ #@ O. T+ j+ #@ f+ ). V+ P+ X+ P  s@ $  U+ Z+ [@ <@ }@ mD                                     nD oD pD _9 u3 !7 ]C qD rD sD tD uD }# 0& ##  +  +  + y. P@ vD wD xD R2 ~d u3 u3 _9 Re yD zD m3 AD  e BD i  CD DD             ED FD GD HD ID <D JD KD LD MD ND OD PD QD RD SD                               TD i  UD VD WD aD aD bD XD i  YD                                                       ZD i  `D                                                          2  K. :+ (+ s+ m+ !+ P+ 4@ 4@ V+ $  d  e+ g+ g+ e+ X@ X@ X@ d  f+ t@ P+ )+ [@ P  V+ )+ s@ $  v@ t@ x  V@ #@  E .E +E @E #E f+ 4@ ). %% r@ P  x  X+ V+ V@ Y+ Y+ J. O+ c+ c+ '+ W  S. k. :. g  w  `+ &  #@ K. +@ 4@ d+ R. l+ M. {  i+ i. ^. ^+ @@ ",
"i+ Z+ R+ )+ d+ i+ U+ e  W+ X  m+ R+ R+ V@ X  '+ %  j. Q  P. #@ m+ O. #@ 2@ U+ o+ i+ S+ T+ *% <@ o+ V@ !+ U+ c+ J. d  W+ [  Z+ U+ T+ e% :%                                  $E %E pD Za u3 g4 DA &E *E =E -E ;E P@ g; ($  +  +  + p# P@ >E &! ,E Re 'E u3 u3 u3 Se )E !E ~E q8 i  {E [] ]E          ^E /E (E _E :E <E [E }E |E |E |E MD MD 1E 2E LD NC 3E                            4E i  5E 6E 7E aD aD 8E 9E i  0E                                                       aE i  bE cE                                                       N# e% ]  m. >+ q. ^. r+ @@ s@ Q+ V+ J. P+ s@ 2@ P  W@ J. s@ P+ s@ s@ s@ P+ U+ '+ $  Q+ !+ U+ Y+ t@ d  Q+ <@ #@ dE    eE e  2@ f+ s@ x  )+ 2@ ). Q+ [@ i. W+ U+ l+ g+ )+ Y+ )+ K. q. R. m. n. n. ,+ d+ j+ {+ N. P. &  `+ w  h+ o. ]+ o+ h+ f  R. O. ",
"}@ T+ '+ [@ @@ P. e  2@ T+ N. o+ i+ Q  c+ K. P. k+ T. t+ %  e  %  s+ e  Y+ m+ U+ +@ '+ Y+ v# Z+ %  V@ U+ X+ h+ g+ $  [  o+ g+ V+ ~+ @@ T$                                  fE gE hE Za u3 u3 g4 o3 iE jE    kE g# 3$  +  +  + #$ n- I$ lE    mE @e Za wv v3 hE nE oE pE i  qE rE sE          tE uE vE wE xE <E yE zE AE ND |E |E |E MD 1E 1E BE CE DE EE FE                      GE HE IE JE 7E aD aD 8E KE i  LE                                                       ME NE OE PE                                                          2  R. ]. :  ^. >+ l. {. f  [@ Q+ |@ $  X@ d  |@ X+ P+ s@ $  J. W@ W@ $  e+ !+ ~+ $  e+ W@ P+ <@ X+ W@ O+ |@ <@ r@ l& QE f+ 4@ 4@ !+ }  d  4@ 4@ [@ .@ R+ M. '+ .@ j+ W+ 2@ Q+ j+ (+ f  l. r+ {+ /+ T. (+ `+ k+ :+ Q. _+ Y+ (+ P.  @ `+ S. o. .@  @ ",
".@ c+ }@ .@ k+ k+ e  c+ X  i+ d+ j+ T+ s+ ,+ T. P. Q  }@ i+ +@ #@ +@ R+ i. W+ [  ~+ V+ V+ m+ !+ c+ Y+ @@ i. <@ !+ Z+ `+ O. )+ [@ U+ #@ U.                                  RE SE S2 Za g4 g4 v3 TE Q2 UE    VE u$ --  +  +  + #$ 2% P@ WE    XE Re 'E Uw YE i  ZE `E i   F .F          +F @F #F $F %F &F [E *F AE AE AE ND |E |E |E MD 1E 1E BE BE =F -F ;F >F                ,F 'F i  )F 7E 7E aD VC TC i  !F                                                          ~F {F ]F                                                             a$ g  u  ^+ ^. W  /+ m. (+ [  Y+ #@ Q+ g+ ). f+ x  d  f+ 4@ 4@ P+ 1@ $  e+ d  d  4@ $  d  }@ @@ P+ s@ 1@ J. ). `% P# x  P# t@ J. 2@ V+ 4@ W@ s@ g+ %  e  s+ S+ [@ _+ p+ 1@ !+ Z+ S+ r+ n. :. Q. R. f  j. o. <  w  ,+ 3@ }@ `+ j+ _+ R. l. `+ e  o. ",
"d+ m+ ~+ j+ .@ Q  O. [  +@ h+ i+ O. o+ /+ K. s+ q+ P. N. j+ i+ O.  @ @@ +@ 2@ R+ d+ i. [  @@ P+ x   @ e  g+ |@ X+ l+ M. O. W+ g+ e  R+ z                                   ^F /F q3 w3 q3 Oe (F h6 _F :F <F w; 5% 0@  +  +  + 0@ ~; [F }F r| |F m3 Za 1F 2F 3F 4F 5F 6F          7F 8F 9F 0F aF bF cF dF AE AE AE AE AE ND |E |E |E MD 1E 1E BE BE eF fF gF hF                iF i  jF VD 7E 7E kF lF i  mF nF                                                                                              d& oF pF qF rF sF tF             M+ |@ ;  ^. *  /. R. ^. m. T+ .@ _. U+ ). W@ 4@ J. X@ 4@ d  J. 1@ W@ O+ u@ |@ d  W@ s@ X+ k. ^. J. v@ W@ X@ w# v@ |@ e+ P# u@ f+ )+ #@ X@ x  V@ U+ }@ Z+ h+ M. ~+ W  Y+ ). c+ <@ w  W  &  W  _. f  Q  Q  :+ o. _+ S+ j+ k+ S+ f  o. m. :+ w  K. W  ",
".@ _+ X  d+ i+ k+ M. O. l+ `+ '+ n+ j+ _+ T. j+ '+ @@ &  <  :+ K. k+ i+ %  U+ N. w  X  c+ o+ o+ o+ s+ g+ !+ V+ X  '+ [  O. n+ c+ #@ s+ U.                                  uF T9 vF wF xF yF zF AF BF    CF 5> @$ 0@  +  +  + 0@ B- DF EF FF GF Iv $y 1A i  HF             IF JF KF LF MF NF [E *F OF AE AE AE AE AE AE ND |E |E |E MD 1E 1E BE BE PF QF RF SF TF          UF ^1 XC VF 7E 7E VF WF i  XF YF                                                                                  ZF `F  G .G +G @G #G $G +* %G &G *G                   ~+ i  E% /. m. U  Q. j. r+ Q. (+ J. R+ #@ }  x  |@ v@ W@ W@ g+ Q+ s@ x  O+ |@ t@ c+ r  _. K. X  T+ O+ t@ s@ e+ O+ }  ~# s@ |@ s@ X+ i. [  g+ m+ n+ '+ <  /+ j. !+ P  m+ 2@ o+ /+ f  T. n. T. %  _+ K. j+ ]+ M. p+ N. <  T. <  r+ }@ 3@ :  o. ",
"n+ :  N. %  .@ e  h+ j. k+ *  m. h+ w  w  :+ q+ (+ O. Q  q+ S+ s+ l+ }@ 3@ k+ '+ [@ %  Y+ U+ l+ e  e  T+ [  i+ 3@ <  l+ n+ n+ n+ k. R. w@                                  =G T9 -G ;G >G ,G 'G )G !G    ~G L= C- #$  +  +  + G^ )@ {G    ]G ^G c| ;1 /G (G          _G :G <G [G }G zE [E *F AE AE AE AE AE AE AE AE AE ND |E |E |E MD 1E BE BE BE PF |G 1G 2G 3G 4G    5G 6G ^1 JE UC 7E VD 7G i  8G 9G                                                                               0G aG bG cG dG i  i  eG fG i  gG hG dA iG                   N# P+ U  E% !. Q. S. m. (. {+ p. f  *  V+ )+ k+ u@ u@ X@ !+ W+ P+ 1@ s@ f+ Y+ 2@ %  /. /+ <  R. ^+ V@ W@ X@ t@ t@ 1@ P# 4@ X+ $  X+ [@ '+ T+ ~+ P  !+ l+ 3@ p+ V@ |@ 2@ 4@ V+ O. f  n. j. p. ^+ L. 3@ P. <  Y+ 4@ L. (+ @@ [  #@ T+ h+ >+ :+ ",
"o+ <  o+ s+ k+ X  l+ d+ (+ q. :. d+ Q   @ s+ <  `+ .@ :+ N. Q  @@ g+ d+ (+ %  [@ P  e  '+ [  V@ o+ @@ X  X  N. m. g  W  h+ p+ j+ {. m. <%                                  jG Qe w0 kG lG mG nG oG pG    qG 5  :) #$  +  + ($ h# c. ['    rG @e sG tG uG       vG wG xG yG zG AG yE AE OF AE AE AE AE AE AE AE AE AE AE ND |E |E |E MD 1E BE BE BE PF |G BG CG DG EG FG GG HG i  IG JG VD KG i  LG MG                                                                                  NG i  i  eG OG PG QG RG i  SG    TG dA UG                         <+ m. t  {. _. _. (. o. :. (. Q  J. e  [  }  W@ ). )+ W@ v@ 1@ J. 1@ O+ j. !. >+ S. v  R. O. f+ !# O# t@ ~# }  s@ P  ). g+ 2@ U+ e  m+ [  4@ f+ g+ #@ )+ |@ f+ X+ s@ ~# ). r+ /. W  S. {+ t+ R. q. q+ @@ V+ Y+ T. (+ Y+ d  g+ <  P. Q  ",
"c+ (+ #@ 3@ p+ '+ N. T+ .@ f  f  k+ d+ <  o. n. w  %  S. q. f  s+ #@ @@ T+ Y+ e  X  g+ <@ #@ .@ P. l+ n+ +@ +@ <  m. q  k. j+ h+ }@ l+ <+                                  VG T9 C2 WG XG YG ZG `G  H    .H c. (, #$  +  + y. ;- 5  #-    +H @H #H       4] $H vE %H &H cF *H AE AE AE AE AE AE AE AE AE AE AE AE AE AE ND |E |E |E MD 1E BE BE BE PF |G BG =H -H ;H >H    ,H 'H )H !H JE ~H {H ]H                                              @k          !:                      ^H /H ^1 (H _H :H <H [H }H |H 1H 2H 3H 4H 5H                            -+ j. k  r  {. ^. l. ]. ^+ Y+ Q+ i. Q+ X+ 4@ V@ $  s@ x  V@ c+ T+ 2@ U  i  v  >+ V  R. e+ P+ x  U+ P+ $  4@ d  ). d  ). ~+ e  s+ k+ [  O+ x  e  2@ P  x  P+ 4@ $  w# 1@ W  j. {+ :  P. P. :  (+ `+ U  o+ =$ m. m. V@ Y+ j+ :+ f  P. ",
"x  K. %  (+ l+ '+ h+ n+ X  K. l. M. S+ ,+ ^+ m. T. d+ r+ ,+ S+ _+ i+ '+ X  c+ }@ %  g+ i. %  k+ O. +@ #@ p+ S+ M. j. V  R  X  m+ #@ O  B%                                  6H m3 Zu 7H 8H 9H 0H aH bH    cH 4. P$  +  +  + 7# g$ >@ dH    Fo          eH fH gH %F *F [E AE AE AE AE AE AE AE AE AE AE AE AE AE AE AE AE ND |E |E MD MD BE BE BE BE PF |G BG BG hH iH jH kH    lH i  UD mH i  nH                                           oH pH qH          rH sH H.                tH uH i  vH wH <H _H xH i  yH zH AH BH CH DH                               P# E% {. U  r  m  m  S. )+ s+ o+ X@ Q+ Q+ )+ |@ 4@ V@ !+ N. (+ S. m  ;  o  l. q. p. %   @ P. [  u@ V+ }  W+ %  }  +@ Y+ O. ]+ O. x  $  W+ <@ e+ O+ !+ J. P+ e+ P# e+ 3@ &  ]+ f  q+ _+ r+ `+ t+ v  R+ Q+ _. S+ ;+ Z+ j. R+ W   @ ",
"X@ T. o+ _+ _+ [  N. d+ T+ X  d+ t+ p. R  >+ ]+ ,+ M. ^+ w  p+ '+ K. (+ m+ W+ p+ R+ 2@ R+ n+ '+ +@ e  V@ '+ M. w  j+ o. :+ W+ U+ U+ 9#                                     EH m3 FH GH HH IH JH KH LH MH NH $v y.  + y. S% ~, A# OH PH          QH RH SH TH AE [E AE AE AE AE AE AE AE AE AE AE AE AE AE AE AE AE AE AE ND |E |E MD MD BE BE BE BE |G UH BG VH WH XH YH ZH `H     I i  i  .I                                              +I @I #I          $I %I &I                   *I i  =I -I <H ;I i  >I    ,I 'I )I !I ~I                               |  ]. {. o  {  (. m. !. .@ o+ m+ !+ O+ V@ !+ J. P+ s@ e  /+ @@ R. /. l. *  :  m. (. R. j. p. 2@ #@ o+ G% ~+ T+ o+ /+ x  !+ R+ X  s@ x  T+ J. r@ d  W@ 1@ e+ }  !# ;+ @@ W  &  K. P. ^. `+ R. f  r+ `+ :+ h+ v# !# e  U+ S+ _+ m+ ",
"*% >+ j+ W  S+ o+ S+ q+ s+ h+ T+ .@ L. g  /. S. S. t+ n. ^+ >+ `+  @ <  /+ i+ X  i. @@ }@ R+ %  h+ R+ o+  @ (+ N. d+ O. +@ [  Q+ W@ Q#                                     {I ]I ;z ^I /I (I _I :I    <I I$ 3+ y. 6. !% @. b. [I K+       }I |I 1I 2I 3I cF zE AE AE AE AE AE AE AE AE AE AE AE AE AE AE AE AE AE AE AE |E |E |E MD 1E BE BE BE PF |G UH VH WH WH 4I 5I 6I 7I 8I 9I 0I aI                                              bI cI dI &!          eI fI gI hI                   iI i  jI kI }H lI mI nI oI pI qI rI sI                                  }@ '  {  k. K. /+ p  s+ <@ p+ [@ X@ 2@ 2@ P+ P+ 4@ 3@ n. {+ r+ ^. :  3@ h+ <  q  k. (+ `+ j. _+ T. g+ O# 2@ e  ). !+ .@ ~+ J. P# O+ ~+ O+ X@ s@ X@ X@ !# <. X@ P# T+  @ p+ T. r+ :. N. T. o. w  <  T. J. y  <@ i. <@ W  ,+ Z+ ",
"b$ ]+ W  >+ w  +@ R+ '+  @ P. @@ R+ (+ /. U  ]. R  Q. ^. ~. !. q+ s+ :+ ^+ L. p+ #@ W+ g+ @@ o+ k+ n+ T+ j+ :+ d+ N. N. i. N. e  <. 0$                                     tI uI p3 rB vI wI xI yI    zI p$ p# C& w. |% AI BI       CI DI EI FI GI HI *F ND AE AE AE AE AE AE AE AE AE AE AE AE AE AE AE AE AE AE AE ND |E |E MD MD 1E BE BE BE PF UH BG VH WH II JI KI LI MI NI OI PI QI                                           RI gy SI TI &!          UI VI WI XI YI {8             ZI `I  J .J i  +J @J #J $J %J &J *J =J                                  Q# T  q. ]+  @ O. ,+ o+ c+ c+ V@ J. O+ X+ P+ !# c+ v  ^+ :+ ~. r+ t+ :+ <  n. q. S. M. P. p. ]+ :. S+ <. m+ N. .@ [@ U+ )+ C$ O# 2@ !+ J. |@ e+ X@ d  P# ~# d  ~# 1@ c+ s+ >+ T. /+ M. L. P. R. T. 3@ ). #  c+ [@ V@ Q  j. g+ ",
"u+ :+ o. j. q+ [  d+ %  ~+ +@ .@ .@ '+ :+ Q. q. ~. S  k. W  q. t+ f  w  S+ &  P. n+ m+ p+ }@ T+ n+ K. S+ %  i+ i+ #@ !+ g+ V+ V@ W@ x#                                        -J c| @p C2 ;J >J ,J    'J o& &= +% )J !J ;=       ~J {J ]J ^J *H yE AE AE AE AE AE AE AE AE AE AE AE AE AE AE AE AE AE AE AE AE AE AE ND |E |E MD MD BE BE BE |G |G BG BG VH WH II /J (J _J :J <J [J                                              }J |J 1J 2J 3J &!          4J 5J 6J 7J 8J 9J                0J i  aJ bJ    cJ dJ eJ fJ gJ hJ iJ                                  .  !# l+ .@ l+ Z+ e  <@ e  e  2@ W+ i. $  <@ |@ l+ ,+ R. _. g  w  j+ `+ L. :. ^+ /+ >+ _+ k+  @ s+ p+ l+ d+ _+ N. O# u@ s@ &% P+ V@ x  O+ W@ e+ x  X@ <. O# P# &% v# Q+ W  r+ k+ 3@ :. g+ m+ v  q+ O. V+ <@ 2@ i. W@ l+ ,+ |@ ",
"G) S+ T. k+ O. +@ p+ Q  h+ h+ Q  j+ d+ :+ ]. S. _. u  *  ,+ W  ]. *  T. r+ ^+ :. j. s+ 3@ m+ Z+ }@ w  {+ w  h+ %  '+ Q+ f+ t@ e+ w# a$                                        _B w0 jJ t3 i  kJ    lJ xt 2+ +$ mJ nJ       oJ pJ qJ rJ AE [E *F ND AE AE AE AE AE AE AE AE AE AE AE AE AE AE AE AE AE AE AE AE AE AE ND |E |E MD MD BE BE BE |G |G BG BG VH II JI (J sJ tJ uJ vJ wJ xJ                                        yJ zJ AJ BJ *j CJ             DJ EJ FJ GJ HJ IJ                JJ KJ i  LJ MJ NJ OJ PJ fJ QJ RJ SJ                                     c  o. T+ +@ i. e  #@ g+ ~+ 2@ [  '+ X  T+ T+ .@  @ Q  q. ]+ k+ S+ ]+ O. (+ {+ l+ t+ ^+ N. k+ w  l+ R. m. n+ $  !# 1@ X@ 1@ d  4@ P  |@ u@ e+ 1@ d  <. v# r@ 1@ #  ~# N. &  (+ P. t+  @ T. M. &  .@ W+ K. U+ 4@ P  O. ^+ J. ",
",. 3@ <  @@ j+ K. #@ d+ %  [  k+ P. j. l. /. ~. (. T  m  *  w  L. l. _+ ]+ {+ q. R  >+ w  @@ T+ p+ P. S+ q+ p+ +@ %  }@ e+ O# W@ y                                            TJ UJ VJ WJ BD XJ YJ ZJ U& `J  K          .K +K @K #K [E zE AE AE AE AE AE AE AE AE AE AE AE AE AE AE AE AE AE AE AE AE AE AE AE ND ND |E |E MD MD 1E BE PF PF |G |G BG VH WH II /J sJ sJ $K uJ %K &K *K                                     =K -K ;K >K ,K 'K )K             !K ~K {K ]K ^K /K                   (K _K :K <K [K }K |K fJ 1K 2K 3K                                     {# g  3@ Z+ X+ V+ [  [@ Q+ 2@ '+ X  W+ r+ k+ S+ k. M. <  r+ m. m. ^+ Q  K. N. p. R  *  Q  l+  @ r+ ,+ M. g+ 1@ s@ 1@ J. V@ P+ O+ P  W@ }  d  <. }  P# v@ !# v@ s@ e% i. d+ m+ d+ d+ ^+ q+ k+ t+ e  !+ h+ )+ x  o. j. /+ O  ",
"B% %  /+ N. K. N. Z+ m+ p+ o+ X  '+ .@ R. r  R  o  l  g  *  `+ n+ T. t+ R. d+ d+ ,+ r  n. S+ j+ l+ X  k+ M. w  '+ e  2@ J. u@ w# w@                                              4K D2 AD BD 5K 6K 7K 8K 9K       0K aK bK cK *H *H AE AE AE AE AE AE AE AE AE AE AE AE AE AE AE AE AE AE AE AE AE AE AE AE ND ND ND |E MD MD MD 1E BE PF PF UH UH BG VH WH /J /J sJ sJ $K uJ $K dK eK                                     fK gK hK iK jK kK lK             mK nK oK pK 8J qK                      rK sK tK uK vK |K wK xK yK zK                                     `  c+ S+ X+ Q+ U+ h+ W+ ~+ i. Q  j+ Z+ M. +@ ,+ R. n. ^+ f  W  r+ l. n. L. :+ R. W  f  K. n+ 3@ m. :+ [@ e+ 4@ f+ J. Q+ f+ e+ O+ |@ d  P# P+ 4@ 1@ P+ X@ r@ m$ }  O# i. O+ ~# i+ .@ g+ %  _+ L. i. f+ p+ <@ 3@ q. j+ j. %% ",
"M  '+ :  Q  l+ T+ m+ R+ W+ o+ m+ Z+ :+ ^+ n. !. m  !. !. Q. {+ f  /+ _+ _+ (+ P. /+ ^+ q. (+ j+ %  h+ j+ p. m. <  i+ [  4@ O+ 0$                                                 AK BK CK w0 DK [+ EK       FK GK HK IK JK KK AE AE AE AE AE AE AE AE AE AE AE AE AE AE AE AE AE AE AE AE AE AE AE AE AE AE ND ND |E |E MD MD 1E BE BE PF |G UH UH VH WH II JI /J sJ sJ $K LK MK NK OK                                     PK QK RK SK TK kK UK             VK WK XK YK 8J ZK                      `K  L .L +L vK |K @L #L $L %L                                         & .@ l+ Y+ c+ l+ i+ s+ c+ c+ }@ p+ #@ K. ^. n. t+ {+ _+ f  /+ S+ t+ S. o. {+ o. O.  @ .@ d+ <  #@ d  1@ X@ W@ 4@ ). e+ t@ s@ P  e+ ~# d  |@ d  $  d  ~# !# t@ O# f+ ;+ r@ V+ S+ e  Z+ `+ @@ X  }@ Z+ Z+ R  w  s+ :+ 9# ",
"   V+ R  s+ '+ }@ +@ O. e  e  k+ S+ ]+ N. Q  ]. S  S  {. q. (+ _+ N. S+ S. f  Q  P. j+ 3@ o. N. p+ N. l+ &  q. Q. &  R+ 4@ P+ @&                                                 &L *L ;1 i  =L          -L ;L ]J >L ,L (E OF AE AE AE AE AE AE AE AE AE AE AE AE AE AE AE AE AE AE AE AE AE AE AE AE AE AE |E |E |E |E MD MD BE BE PF |G |G UH BG VH WH II JI (J sJ $K $K LK 'L )L !L                                     ~L {L ]L SK ^L /L (L             _L :L <L [L }L |L                   *, 1L 2L 3L vK vK |K 4L 5L 6L 7L                                        }. S+ (+ o+ e  h+ L. l+ Z+ )+ o+ o+ l+ j. n. *  o. :. W  ,+ ]+ Q  q+ r+ (+ S+ P. <  q+  @ <  V+ X+ !+ P+ t@ f+ x  s@ J. }  u@ Q+ s@ ~# !# t@ W@ J. r@ ~# !# P# #  v@ ~# r@ }  p+ [  #@ :+ )+ }@ <  <@ f  >+ T+ :+ r+ q@ ",
"   P# :. q+ @@ O. e  Z+ '+ l+ P. K. +@ %  j. l. V  ]  g  S. f  j. q+ <  S. j. K. j. &  `+ /+ S+ f  l+ u@ '+ >+ *  (+ '+ X  O# M+                                                    8L i  9L 0L       aL bL cL zE [E OF AE AE AE AE AE AE AE AE AE AE AE AE AE AE AE AE AE AE AE AE AE AE AE AE AE AE AE ND |E |E |E |E MD 1E BE BE PF |G UH VH VH WH WH JI (J sJ sJ $K dL eL fL )L gL                                     hL AJ ]L SK ^L /L iL             jL kL lL mL nL oL                   pL qL rL sL vK vK vK tL uL vL H&                                        t# J. 3@ O. s+  @ N. +@ X  m+ #@ U+ N. t+ &  _+ Q. ^. `+ s+ `+ m. d+ (+  @ q+ M. P. R. o. .@ Y+  @ e  d  W@ V@ 2@ |@ 4@ !# u@ f+ <. ~# !# d  P+ <. ;+ O# #  v@ O# ;+ 4@ 4@ 4@ @@ W@ (+ >+ <. Z+ '+ m+ L. q+ %  (+ }@ S$ ",
"   P% W  t+ O. %  +@ i+ Q  w  S+ @@ }@  @ K. ,+ n. :. /. R. r+ <  ,+ >+ T. N. 3@ P. >+ ]+ S+ P. :+ j+ O+ #  s+ r  &  ~+ T+ b$                                                       wL xL yL    zL AL BL CL KK zE OF AE AE AE AE AE AE AE AE AE AE AE AE AE AE AE AE AE AE AE AE AE AE AE AE AE AE AE AE |E |E |E |E MD DL EL FL GL HL IL BG VH VH WH II /J (J sJ $K $K dL eL fL )L JL                                     KL LL ML NL OL PL QL             RL SL TL UL 8J VL                   WL XL YL ZL vK vK vK 4L `L  M .M                                           Z% <  3@ @@ l+ h+ [  W+ m+ g+ m+ <  t+ p. t+ t+ L. p. <  ^+ *  K. P. T. T. `+ (+ f  (+ [  Q  j+ J. }  ). P  $  Q+ J. |@ Z+ Q+ O# !# v@ W@ P+ #  ~# #  O# !# &% #  x  2@ <@ m+ x  t+ <@ t@ i+ n+ }@ l+ n+ Q  >+ s@    ",
"   [& &  M. .@ n+ n+ 3@ N. k+ %  [  n+ i+ K. ,+ f  i+ t+ f  t+ L. k+ Q  W  K. '+ O. j. /+ (+ W  R. n. p+ ~# #@ ]+ <  [  h. A                                                                 +M @M #M OF cF AE AE AE AE AE AE AE AE AE AE AE AE AE AE AE AE AE AE AE AE AE AE AE AE AE AE AE AE AE AE AE |E $M %M &M *M =M -M ;M >M ,M 'M )M VH WH II JI /J (J !M $K MK dL ~M {M ]M ^M                                     /M (M _M NL OL :M <M             RL SL TL [M }M |M                   1M 2M 3M +L vK vK vK 4M 5M 6M 7M                                           w@ S+ T. l+ i+ p+ W+ W+ n+ [  %  <  m. n. t+ f  L. M. ]+ k. S. o. <  s+ P. Q  o. o. X  P. k. O. X@ X@ $  O+ s@ P+ u@ !# 2@ x  v@ t@ r@ }  1@ #  m$ r@ e+ P# ~# !# X@ J. W+ P  o+ <  &% J. %  '+ '+ d+ Z+ 3@ >+ `%    ",
"   w@ h+ P. k+ R+ :+ K. %  '+ T+ #@ '+ T+ #@ N. p. q+ {+ M. K. /+ k+ c+ d+ j. %  n+  @ L. p. Q. n. t+ ,+ h+ P+ Y+ Q  +@ }&                                                                8M LF 9M [E (E AE AE AE AE AE AE AE AE AE AE AE AE AE AE AE AE AE AE AE AE AE AE AE AE AE AE AE AE AE AE ND 0M KD aM bM cM dM eM fM gM hM iM jM kM lM WH JI /J (J !M $K dL dL {M mM nM oM pM                                     qM rM sM tM uM vM wM             xM yM zM AM BM CM                   DM EM FM +L vK vK vK GM HM IM                                                 $  R  K. +@ m+ W+ }@ S+ .@ q+ :+ T. ,+ r+ n. n. R. >+ f  ]. ]. _+ j. j. K. &  3@ +@ :+ o. T. Q+ e+ |@ 4@ O+ ). 1@ }  f+ !# r@ ~# P# <. <. ;+ O# s@ u@ r@ ~# W@ }  P  h+ P  X+ V@ #  f+ U+ T. /+ V+ W+ i+ j+ 9#    ",
"   f. m+ >+ j+  @ P. `+ @@ p+ o+ [  T+ V+ P  m+ [  `+ m. Q  h+ h+ w  O. @@  @ ]+ L. O. ]+ m  /. Q  f  :. _+ <. [@ ,+ g+ M                                                           7L JM KM LM MM *F AE AE AE AE AE AE AE AE AE AE AE AE AE AE AE AE AE AE AE AE AE AE AE AE AE AE AE AE zE NM OM PM QM RM SM TM UM VM WM XM YM ZM *, `M  N .N +N /J /J sJ !M $K dL dL {M @N nM #N $N                                        %N &N *N =N -N ;N             >N ,N 'N )N !N ~N                   {N ]N ^N +L vK vK vK /N (N _N                                                 G) _+ o. m+ m+ m+ h+ k+ O. (+ ]+ _+ &  m. S. f  R. :  W  _. k. r+ t+ w   @ @@ +@ l+ M. r+ {+ #@ u@ |@ O+ 4@ Q+ f+ W@ x  !# v@ t@ t@ }  v@ d  u@ P# s@ e+ r@ P  d  Z+ #@ !+ ~+ P# ~# f+ g+ q+ 3@ x  P  +@ T+ #&    ",
"      X+ W  (+ M. j+ i+ o+ X  T+ }@ @@ h+ |@ ). c+ O. /+ ,+ %  %  Q  j. d+  @ T. :+ /+ q. /. v  M. 3@ >+ f  Z+ Y+ (+ Y+                                                          :N <N [N }N [E AE AE AE AE AE AE AE AE AE AE AE AE AE AE AE AE AE AE AE AE AE AE AE AE AE AE AE *F cF NM |N +K 1N 2N 3N 4N 5N 6N 7N 8N 9N 0N aN bN cN dN eN fN gN /J sJ sJ $K $K dL hN {M iN jN kN lN                                           mN nN oN pN qN &!          rN sN tN uN vN wN                   xN yN zN +L vK vK AN BN CN DN                                                 f. d+ ]+ O. '+ h+ n+ n+ `+ (+ :+ >+ ]+ n. >+ {+ j. :  ]. k. ^. V  ^. j+ Q  h+ h+ .@ $  #@  @ _+ Z+ W@ |@ J. x  W@ |@ J. <. !# 4@ e+ <. f+ s@ <. d  d  !# P+ 4@ 4@ '+ P+ [@ %  V@ O# O. K. m+ q+ g+ )+  @ P  :%    ",
"      O  :+ S+ i+ K. }@ o+ p+ l+ [  l+ K. p+ [  R+ +@ q+ o. _+ s+ h+ Q  o. <  @@ n. k. &  ^+ ]. `+ R+ W  >+ <@ c+ w  <%                                                    EN FN GN HN IN (E AE AE AE AE AE AE AE AE AE AE AE AE AE AE AE AE AE AE AE AE AE AE AE AE AE (E *H JN GI KN LN MN oG NN ON 8- PN QN RN SN TN UN VN WN XN YN ZN `N  O .O /J sJ !M MK dL dL {M +O @O jN kN #O                                              $O %O &O *O &!          =O -O ;O >O                         ,O 'O )O +L vK vK !O ~O {O ]O                                                    N% ,+ w  k+ }@ h+ 3@ _+ s+ K. M. m. _. <  (+ _+ *  U  V  S  k  (. d+ j+ i+ .@ T+ 4@ |@ c+ q+ W+ W@ $  1@ |@ f+ f+ e+ <. }  f+ f+ 1@ 4@ P+ <. u@ 1@ s@ x  u@ W@ )+ !+ n+ #@ c+ 4@ K. T+ w  N. !+ Y+ `+ &%       ",
"      Z  q+ S+ +@ n+ R+ o+ @@ K. }@ m+ n+ R+ d+ (+ Q+ '+ j+ `+  @ .@ '+ t+ s+ #@ Q. ^. w  ^+ u  ]+ l+ N. _+ <  p+ <. M                                                  ^O /O (O _O :O OF AE AE AE AE AE AE AE AE AE AE AE AE AE AE AE AE AE AE AE AE AE AE AE AE NM *H <O cK [O }O |O 1O 2O e* 3O 4O 5O 6O 7O 8O 9O 0O aO bO cO dO eO fO gO hO iO sJ jO $K MK dL {M {M +O +O kO lO mO                                                 nO oO pO             qO rO sO                            tO uO vO +L vK vK !O wO xO yO                                                    p= R  K. n+ '+ l+ s+ 3@ K. i+ `+ _. ^. f  L. f  *  *  V  u  S  R. L. M. _+ :+ X+ $  g+ 3@ R+ d  W@ 1@ 1@ 4@ f+ $  f+ }  ). |@ X@ u@ e+ e+ e+ <. 4@ V@ x  4@ |@ ;+ e  i+ <@ ). X+ ). c+ @@ h+ [  }@ M. b$       ",
"      :@ X  T. %  .@ '+ #@ @@ '+ o+ o+ }@ e  p+ j. e  o+ j+ @@ /+ S+ Z+ %  K. [  j+ K. h+ <  T  q. r+ p. _+ S. @@ U.                                                 zO AO BO CO *H OF AE AE AE AE AE AE AE AE AE AE AE AE AE AE AE AE AE AE AE AE AE DO *F [E NM }G cL bL EO FO GO -$ HO IO JO KO LO MO NO OO PO QO RO SO TO UO VO WO XO YO ZO `O _J jO $K  P dL {M .P +O +O +P @P #P                                                    $P %P Ur        . &P *P                               =P -P ;P >P vK vK >P ,P 'P )P                                                    @  ]+ 3@ @@ c+ X  l+ k+ (+ (+ {+ *  k. ^+ >+ &  S. Q. S  >  p  R  m. _+ /+ ]+ ~+ )+ [  W+ Q+ f+ U+ f+ u@ P+ $  W@ f+ O+ W@ s@ t@ P# P# t@ f+ P+ O+ g+ P  X+ P  e+ X  2@ J. %  2@ O+ h+ c+ i+ R+ p+ e  `        ",
"         W+ S+ s+ 3@ k+ Z+ R+ c+ Z+ Z+ U+ T+ p+ h+ .@ $  .@ .@ q+ j. '+ T+ K. s+ e  '+ j+ d+ ^+ ~. W  :+ M. _. i. q@                                              !P ~P {P ]P ^P OF AE AE AE AE AE AE AE AE AE AE AE AE AE AE AE AE AE AE AE AE AE *F *H AE /P _E (P _P :P <P [P }P |P 1P 2P 3P 4P 5P 6P 7P 8P 8P 9P bO 0P aP bP cP dP eP fP gP hP jO $K $K dL hN .P +O iP jP kP lP mP nP                                                    oP pP       4o                                     qP rP sP >P vK vK +L tP uP vP                                                       ~# k+ T+ X  S. j. [  i+ M. o. :. n. {+ m. n. W  _. ]  ^  (. :. ^+ ,+ *  S  _+ )+ }@ [@ 4@ f+ #@ $  X@ $  $  v@ W@ $  ~# ~# <. !# P+ s@ O+ s@ J. i. )+ !+ s@ i. g+ X  $  N. q+ '+ #@ o+ '+ 2@ h+ !#          ",
"         <. O. h+ k+ #@ T+ X  T+ #@ W+ X  X  i+ h+ #@ i. k+  @ k+ T. j+ T+ l+ i+ l+ s+ n. L. t+ v  R.  @ j. V  1@                                              wP xP yP zP JN OF AE AE AE AE AE AE AE AE AE AE AE AE AE AE AE AE AE AE AE AE *F *H *F AP BP }N CP DP EP .& FP GP HP IP JP KP LP MP NP OP PP 9P 9P bO 0P aP QP RP SP TP UP VP WP XP $K MK dL fL {M +O +O jP jP YP ZP `P  Q                                                                                                       .Q +Q @Q vK vK vK #Q $Q %Q &Q                                                       h. %  i+ {. j  S. o+ [  '+ i+ .@ W  n. f  {. V  R  g  g  R  f  ^+ r  *  q+ R. Q  O+ O+ f+ 4@ r@ u@ 4@ !+ X@ X@ !# d  u@ ~# t@ d  x  4@ O+ $  X+ <@ <@ )+ s@ Y+ n+ <  2@ h+ j+ X  W+ q+ p+ m+ `+ 0$          ",
"         p= @@ X  }@ [  k+ X  p+ @@ Z+ U+ }@ N. p+ X  }@ m+ W+ i+ &  ^+ Q  e  N. t+ (+ o. _+ O. _. p. p+ c+ K. G)                                           *Q i  =Q -Q OF ;Q AE AE AE AE AE AE AE AE AE AE AE AE AE AE AE AE AE AE AE *F >Q OF ,Q 0F 'Q )Q +F !Q ~Q {Q ]Q ^Q /Q (Q _Q :Q KP <Q <Q <Q PP 8P 9P bO bO 0P [Q }Q |Q 1Q 2Q 3Q 4Q 5Q 6Q $K dL dL {M {M +O iP jP jP 7Q 8Q 9Q 0Q                                                                                                       aQ bQ cQ vK vK vK 3L dQ eQ fQ                                                       1@ W  ^+ ^  S. ^. '+ [@ #@ l+ #@ +@ 3@ L. q  -  S. :+ q. :. ^+ S  ;  S+ Q+ X  w  !+ O+ l+ V@ |@ ). e+ x  d  X@ ). !# P# t@ f+ O+ W@ J. P  P  )+ )+ V+ !+ s@ $  Z+ p+ <  3@ i. i+ Z+ o+ n+ S+ c+ n$          ",
"         +  Z+ l+ p+ p+ m+ .@ T+ k+ %  <@ c+ X  +@ n+ X  X  Y+ .@ <  S+ w  l+ l+ O. (+ 3@ ]+ ,+ k. o. /+ (+ Y  N#                                     gQ hQ i  iQ jQ OF OF AE AE AE AE AE AE AE AE AE AE AE AE AE AE AE AE AE AE AE yE }N cK kQ lQ mQ x& nQ oQ pQ qQ rQ sQ :Q tQ uQ uQ KP vQ <Q <Q OP 8P 9P bO bO wQ aP xQ }Q yQ zQ AQ BQ CQ DQ EQ dL dL {M +O +O iP jP FQ FQ GQ HQ IQ JQ                                                                                                       KQ LQ MQ vK vK vK NQ OQ PQ QQ                                                       V@ q  :  f  _+ {+ Q  P  <@ m+ %  g+ i+ Q  ^+ ]. t+ &  :  R. U  (  /. g+ X  X+ )+ [@ <@ k+ <@ x  P  u@ s@ 4@ W@ s@ #  O# X@ |@ s@ $  O+ P+ Y+ g+ X+ W+ 2@ J. !+ Y+ T. f  h+ S+ Q  s+ ~+ W+ @@ &% N#          ",
"         :% e+ 3@ S+ O. c+ k+ %  }@ }@ i. T+ @@ W+ p+ }@ i+ m+ !+ %  S+ 3@ m+ }@ '+ j+ r+ j. :. S. f  h  p  l&                                     RQ SQ i  TQ UQ VQ AE AE AE AE AE AE AE AE AE AE AE AE AE AE AE AE AE ND *F >Q OF WQ XQ YQ ZQ `Q  R .R +R @R #R $R %R &R uQ uQ uQ KP vQ <Q <Q OP PP 8P 9P bO 0P *R [Q xQ =R -R ;R >R ,R 'R )R !R dL dL {M nM +O jP jP FQ FQ ~R {R ]R ^R                                                                                                       /R (R MQ vK vK vK _R :R <R [R                                                       $  k. ]+ j. &  T. W  q+ T+ x  4@ V@ R+ k+ &  K. j+ ^+ /+ *  =  h  S. X  X  ,+ %  1@ )+ P  $  f+ !# <. )+ $  1@ <. P# O# W@ P# !# P  1@ !+ R+ X+ X+ 2@ O+ X+ [  U+ L. O. Z+ j+ j. k+ i+ R+  @ F%             ",
"            '. l+ i+ w  h+ m+ ~+ X  i+ i. )+ K. h+ o+ #@ d+ k+ Q+ i. `+ >+ Q  X  %  O. /+ T. d+ R. g  ;  R+                                        &6 }R |R 1R 2R AE AE AE AE AE AE AE AE AE AE AE AE AE AE AE AE AE AE yE *F MF 3R 4R 5R 6R 7R 8R 9R 0R {Q %R aR &R &R uQ uQ uQ KP vQ <Q <Q OP PP 8P 8P bO aP aP [Q xQ bR cR dR eR fR gR hR iR jR fL {M .P +O iP jP kR lR mR nR oR pR qR                                                                                                       rR sR MQ |K vK vK tR uR vR !Q                                                       !+ !. q. _+ s+ j+ /+ ^+ w  i. !+ V+ U+ T+ l+ T+ :+ n. o. (. Q. r  Q. >+ m. {. ,+ o+ m+ e  ). ). ~# 4@ Y+ 1@ <. X@ f+ s@ W@ s@ 1@ u@ s@ <@ W+ Q+ P+ u@ O+ [@ g+ R+ i+ k+ ~+ .@ k+ }@ o+ T+ %  z              ",
"            l& c+ i+ s+ %  X  o+ Z+ o+ R+ i. ~+ h+ +@ o+ @@ h+ s+ U+ [  P. P. d+ `+  @ K. S+ @@ j. s  g  h.                                           wR fM xR yR &F AE AE AE AE AE AE AE AE AE AE AE AE AE OF *F *H OF zR AR BR CR DR ER FR GR HR IR %R {Q &R &R sQ sQ uQ uQ KP vQ <Q <Q OP PP 8P 9P bO 0P [Q xQ xQ =R bR JR KR LR MR NR OR PR hN QR {M +O jP jP RR FQ mR mR SR TR UR VR                                                                                     WR XR YR ZR `R  S .S +S !O vK vK vK tR @S #S 0Q                                                       c  f  R. S+ k+ k+ K. Q  X  e  [  [@ W+ [  g+ L. f  r+ m. l. Q. ^. m. {. *  ^+ h+ T. T  n+ V+ Y+ ~# O+ 1@ !# P# &% s@ W@ W@ <@ X+ 1@ 1@ X+ ~+ $  }  O+ x  [@ U+ @@ h+ p+ X  M. [  }@ U+ j. 2@ S$             ",
"            :% P+ s+ i+ @@ T+ [  T+ #@ Z+ +@ l+ p+ o+  @ .@ o+ s+ X  g+ `+ m+ c+ 3@ s+ h+ Q  K. K. R. d+ f.                                           $S xG %S NM NM *F AE AE AE AE AE AE AE AE AE AE AE AE yE OF +K &S *S =S -S ;S >S @R ,S %R %R &R &R &R &R &R sQ uQ uQ uQ vQ <Q <Q <Q OP PP 8P 9P bO aP xQ xQ =R bR dR dR 'S )S !S ~S {S ]S ^S mM +O +O jP kR FQ lR mR mR /S (S _S :S    <S [S }S |S 1S 2S ,R w>                                                          3S 4S 5S (R 6S 7S 8S 9S 0S vK vK vK aS rP bS cS                                                       x# O. &  S+ i+ Q  R+ g+ <@ <@ #@ !+ <@ Z+ ~+ j. :. {+ k. r+ v  k. *  m  (. k+ Z+ n+ d+ R. Y+ }  e+ W@ }  w# r@ P# t@ 1@ }  i. W+ |@ J. Y+ Y+ }  s@ ). Q+ U+  @ O. e  g+ i+ %  P. +@ [  M. H%                ",
"               j, n+ W+ N. O. [@ c+ }@ X  o+ T+ O. n+ }@ R+ }@ k+ U+ X  `+ 2@ P% u@ p+ j+ '+ +@ p. r+ D%                                              dS eS fS gS hS iS *H AE AE AE AE AE AE AE OF *F yE OF 0H jS kS lS mS nS oS pS qS %R IR &R &R &R &R &R &R &R sQ uQ uQ KP vQ <Q <Q OP PP 8P 8P bO bO aP xQ xQ bP rS sS tS uS vS wS xS yS zS AS BS +O iP kR kR lR lR CS CS /S DS ES FS GS HS IS JS KS LS MS NS OS                                                          PS QS .L !O RS AN SS >P >P vK vK vK TS US VS RQ                                                       &% w  O. K. l+ T+ Y+ !+ V+ x  P  Y+ c+ o+ c+ s+ n. R. R. ,+ /. v  ~. l  s  !+ h+ h+ ;+ L. [@ #  s@ P  ). <. e+ <. !# |@ e+ !+ Y+ x  !+ U+ $  f+ Y+ ~+ 2@ X  p+ R+ Y+ o+ T+ X  k+ n+ n+ R+ $%                ",
"               }& N. o+ X  }@ e  Y+ W+ M. k+ e  R+ R+ c+ c+ X   @ [  U+ n+ h+ 1@ e+ X  3@ O. T+ (+ X+ 2                                               WS XS YS ZS `S  T <O OF AE AE AE AE AE *F *H bF KF .T +T @T #T $T %T &T ,S $R IR *T &R &R &R &R &R &R &R &R uQ uQ uQ KP <Q <Q <Q OP PP =T -T ;T >T ,T 'T )T !T ~T {T ]T ^T /T (T _T :T <T [T }T iP jP jP FQ lR mR CS /S |T 1T 2T 3T 4T 5T 6T 7T 8T 9T 0T aT bT                                                          cT dT AN eT fT >P >P >P >P vK vK vK NQ 2L gT                                                          `% .@ O. '+ o+ i. i. <@ )+ W+ <@ g+ g+ [  U+ [  Z+ h+ ^. _. /. ~. (. v  ~. O+ U+ n. O. i+ W@ f+ s@ <@ Q+ 1@ !# t@ u@ O+ |@ W@ ). !+ o+ 2@ V@ d+ /+ `+ [  e  ~+ o+ T+ +@ #@ ~+ @@ @@ d+ g+ S$                ",
"               .  e  &  e  o+ X  W+ Q+ %  ,+ .@ o+ Z+ g+ p+ o+ }@ @@ V+ Z+ .@ X  T+ d+ %  P. n+ #l M+                                                    hT iT jT kT lT mT dF AE AE AE AE NM }E nT jS oT pT qT rT sT tT uT %R {Q &R &R &R &R &R &R &R &R &R sQ sQ uQ uQ KP vQ <Q <Q vT wT xT 8P yT zT AT BT CT DT ET FT GT HT IT JT KT LT ED MT NT OT iP jP FQ lR mR CS /S /S PT QT QT RT ST TT TT UT VT WT XT YT ZT                                                          `T dT 0S eT fT >P >P >P >P vK vK vK sL LQ  U                                                          O# N. [  V+ T+ Z+ V+ x  W@ V@ i. R+ Z+ e  Y+ V@ W+ Q+ `+ _. g  /. *  >+ /+ N. P+ }@ ]+ j+ .@ J. f+ [@ f+ }  P+ s@ X@ O+ P  [@ x  P  Z+ V+ '+ >+ k. W  '+ Y+ ~+ l+ O. R+ ~+ U+ i+ d+ 3@ =$                   ",
"                  G% :+ '+ R+ d+ T+ V+ g+ i+ j+ '+ T+ 2@ o+ m+ e  p+ i+ h+ k+ Q  '+ N.  @ r+ C$                                                          .U +U @U #U $U %U AE AE AE *F zE eS jS &U *U =U -U ;U >U ,U $R {Q *T &R &R &R &R &R &R &R &R &R &R sQ uQ uQ KP vQ 'U 'U )U !U ~U {U ]U ^U /U (U _U :U <U [U }U |U 1U 2U 3U 4U 5U 6U 7U 8U iP jP kR FQ lR CS CS |T |T PT QT 9U 0U aU bU bU cU cU dU eU fU gU                                                          hU HM fT eT fT >P >P >P >P vK vK vK iU jU kU                                                          u# i+ #@ Y+ !+ V+ i. !+ V@ $  i. }@ T+ [  #@ c+ l+ d+ /+ R  Q. ]. R. W  %  W+ R+ &% P+ n+ m+ s@ Q+ V+ J. J. |@ !+ !+ V+ )+ g+ !+ V+ R+ }@ j+ l. (. :  q+ +@ U+ N. '+ <@ [  #@ R+ d+ K. B$                   ",
"                  #& m+ s+ +@ 3@ P. T+ 2@ U+ k+ n+ W+ O+ <@ #@ X  )+ #@ L. 3@ o. j+ +@ q. }@ `                                                                 lU mU nU *H OF AE *F *F oU pU qU rU sU tU uU vU IR {Q &R &R &R &R &R &R &R &R &R &R &R &R &R wU uQ wU xU yU zU AU BU CU DU EU FU GU HU IU JU KU LU MU NU OU PU QU RU SU TU UU VU WU XU kR FQ mR mR /S /S PT PT QT QT 0U bU bU YU cU cU ZU `U `U  V .V                                                          +V LQ AN eT fT >P >P >P >P >P vK vK >P @V #V                                                          w# .@ [  m+ )+ f+ ~+ Z+ ~+ c+ o+ U+ 2@ X  .@ }@ X  :+ :. :  `+ :  n. r+ s+ O. @@ }  $  U+ s@ P+ i. R+ ). P+ P+ $  )+ e  e  V+ 2@ +@ s+ K. :+ g  (. /. q. n+ n+ (+ h+ }@ V+ n+ i+ m+ X+ c%                   ",
"                  N# f+ N. T+ T+ K. p+ i. e  [  #@ }@ ~+ X+ i. W+ P+ J. Q  Q   @ s+ ,+ c+  &                                                                $V %V &V ,L DO AE AE AE *V =V -V ;V >V ,V ,S $R {Q &R &R &R &R &R &R &R &R &R &R &R &R {Q %R 'V )V !V ~V {V ]V ^V /V (V _V :V <V [V }V |V 1V 2V 3V 4V 5V 6V 7V 8V 9V 0V aV bV bV jN cV jP FQ lR mR CS /S |T PT PT QT 0U 0U bU bU cU cU dV `U `U eV CN fV                                                          gV LQ hV eT fT >P >P >P >P >P vK vK vK @V iV                                                          C$ l+ i. T+ e  [@ g+ [  e  W+ Z+ m+ R+ R+ N. l+ N. &  n. v  L. M. i+ '+ {+ ^. /+ ). }@ m+ Q+ ). W+ 2@ s@ e+ $  |@ V@ c+ !+ 2@ #@ #@ .@ /+ n. U  U  T  3@ '+ L. P. '+ @@ }@ d+ X  ~+ u#                      ",
"                     Y@ P. T+ [  }@ s+ o+ [  o+ X  }@ K. T+ 2@ !+ O+ g+ e  {+ :+ `+ g+ :@                                                                .[ jV kV KH bF AE AE *F lV mV nV oV ,V pV IR {Q &R &R &R &R &R &R &R &R &R &R &R &R aR aR qV rV sV tV uV vV wV xV yV zV AV BV CV DV EV FV GV HV IV JV KV LV MV NV NV eL 'L {M +O iP jP jP kR lR lR CS /S |T |T QT QT 0U 0U bU bU bU cU cU `U `U `U OV CN PV                                                          QV RV hV eT fT >P >P >P >P >P >P +L SV (R TV                                                          <% i. X  m+ +@ #@ Q+ ). V+ e  c+ X  j+ l+ o+ /+ n  f  ^+ :  ^+  @ P  m. :. S. 3@ [@ P. P. %  s@ Z+ J. 4@ X+ J. O+ i. g+ [@ T+ e  X  j. ,+ n. :. q  g  O. O. f  k+ X  Q  j+ l+ X+ c+ f%                      ",
"                     a$ +@ N. [  <@ k+ l+ i. T+ @@ k+ }@ i+ X  i. V@ '+ l+ T  <  h. 2                                                                       UV 1I VV AE AE AE AE #K WV XV YV ZV `V &R &R &R &R &R &R &R &R &R `V %R  W ,S .W +W @W #W $W %W &W *W =W -W ;W >W ,W 'W )W !W ~W {W ]W ^W /W (W _W sJ sJ tJ $K dL dL {M .P +O iP jP kR FQ lR mR /S |T PT QT QT 9U 0U :W bU cU cU ZU ZU `U <W <W [W }W |W 4o                                                       1W RV 2W eT fT >P >P >P >P >P >P tL vO rP 3W                                                          =$ O. m+ o+ R+ X+ Q+ Y+ )+ )+ l+ O. X  }@ e  m. m  /+ _. v  ^. L. W  R. S. t+ W+ '+ &  r+ O. f+ c+ O+ 4@ 2@ )+ <@ [@ X+ )+ #@ }@ Q  ,+ W  o. :  ;  j. o+ j+ :+ T+ Z+ s+ }@ Z+ <@ X+ a$                      ",
"                        v# %  X  c+ ~+ m+ W+ e  n+ l+ }@ T+ m+ Z+ $  X+ *  :  9#                                                                            4W 5W 6W zE AE AE AE 7W >L 8W 9W 0W IR &R &R &R &R &R &R &R IR &R 0W aW bW 'V cW dW eW fW gW hW iW jW kW %F lW mW nW oW pW QF =H qW qW rW sW /J sJ sJ !M $K dL dL hN {M +O iP jP jP kR lR mR CS /S |T QT QT 0U 0U :W bU bU cU cU ZU `U `U <W tW [W uW vW wW                                                       xW RV 2W eT fT >P >P >P >P >P >P SS yW zW AW                                                          ;+ h+ c+ V+ <@ V+ V@ Q+ W+ ~+ U+ e  g+ ~+ %  _+ L. /+ k. r  W  R. :  e  R  ^+ <  M. k. l. m+ g+ m+ c+ )+ [@ c+ c+ X+ V@ $  2@ o+ i+ r+ :. n. p  U  p+ h+ ,+ l+ U+ +@ w  +@ i. X  O#                         ",
"                        Z  W+ h+ R+ g+ l+ n+ U+ Z+ }@ i+ +@ #@ P+ ). $  X  {&                                                                               BW CW xE [E AE AE AE <E DW EW FW GW `V &R &R {Q IR *T 'V ,U rQ HW IW JW KW LW MW NW OW PW QW DW RW 7W SW 2D FL 2E FL PF |G UH BG VH WH II /J (J sJ !M $K $K dL TW {M {M +O jP jP FQ FQ mR mR CS /S PT QT QT 0U :W bU bU YU cU cU `U `U <W tW tW UW VW WW XW                                                       1W RV 2W eT fT fT >P >P >P >P >P iU YW ZW `W                                                          =$ p+ g+ V@ Y+ c+ !+ g+ e  )+ 4@ x  Q+ Y+ *  m  :. ]+ ^+ {. k. q. ^+ q  `+ #@ j. N. n. >+ e  }@ <  [  c+ %  )+ i. [@ 2@ V+ g+ c+ S+ ]+ *  p  ~. i+ #@ p. p. p+ l+ 3@ j+ m+ )+ h+ c                          ",
"                        t# s@ p+ l+ Z+ m+ h+ +@ [  h+ S+ '+ Q  Q  Z+ ~+ |                                                                                       X .X *H AE AE AE +X zG @X #X $X aR %X {Q pV >S 'V 8R &X *X =X -X ;X >X ,X iQ 'X (P )X !X ~X {X $M 1D 1D BE BE BE PF |G UH BG VH WH II /J (J sJ !M $K $K dL TW {M {M +O jP jP FQ FQ mR mR CS /S PT QT QT 0U :W bU bU YU cU cU `U `U <W tW tW UW ]X ^X /X                                                       (X RV 2W eT fT fT >P >P >P >P >P iU _X :X <X                                                          Y  i+ U+ Y+ X+  @ '+ ). Q+ O+ $  [@ X+ Z+ /. V  ^. :  :  n. Q. {. R. S. X+ |@ (+ p. &  P. &  p. d+ $  !+ s+ Z+ V+ i. ). <@ [  W+ N. L. R. ,+ Q  R+ k+ q+ %  .@ Q  T+ '+ }@ #@ X  a$                         ",
"                           *% [  }@ p+ Y+ +@  @ n+ U+ k+ %  @@ K. q+ t@ B%                                                                            [X }X |X 1X 2X vE *F AE AE zE zG 3X 4X 5X 6X 7X 8X 9X 0X aX bX cX dX eX fX gX hX iX jX yE ^P TQ NF |E kX MD MD 1E BE BE PF |G |G BG VH WH WH JI /J sJ !M $K $K MK dL {M {M +O iP kR kR FQ lR mR CS |T PT QT 9U 0U :W lX bU bU cU ZU `U `U <W tW tW tW mX nX oX pX                                                       qX 2L 2W eT fT fT >P >P >P >P >P sL 6S rX                                                             f+ :+ <@ [@ x  e  [  P  P  O+ $  x  X+ Q  :. U  (. n. R. M. 3@ S. /+ R+ e  p+ p. _. P. c+ S. S. n+ ~+ @@ m+ Q+ J. Q+ X+ n+ n+ V@ T+ L. 3@ @@ p+ Q  K. O. j+ %  '+ U+ <  U+ l+ C$                            ",
"                           r. $  o+  @ Y+ m+ l+ X  ~+ [  X  ~+ k+ g+ +                                                                 .[ sX tX uX vX wX i  xX yX zX zG zE AE AE (E AX BX CX DX EX uV FX GX HX IX JX KX LX MX KX NX >Q yE *F OF AE ND ND |E |E MD 1E 1E BE BE PF |G UH BG VH WH II /J KI sJ $K $K MK dL dL {M +O +O jP FQ FQ FQ lR CS /S |T PT QT 0U 0U bU bU bU cU cU `U `U <W <W tW tW OX mX PX QX RX                                                       SX US 2W eT fT fT >P >P >P >P >P SS TX UX                                                             4@ ,+ !+ O+ ). W@ <@ Y+ P  2@ V@ P+ 2@ >+ T  V  (. r+ +@ W+ T+ Y+ ,+ s+ Q  f  ^+ ^+ p+ [@ T. o. p+ {+ j. U+ W@ $  P  c+ O. 2@ J. X  Q  @@ '+ k+ P. O. _+ N. }@ T+ (+ p. 2@ R+ #&                            ",
"                              O  V@ i+ n+ g+ X  X  m+ e  m+ .@ X@ S$                                                       VX WX XX YX ZX `X  Y i  i  .Y +Y @Y #Y IN KF zE AE AE *F $Y VV %Y &Y FW *Y =Y #K DW -Y ;Y JK yE zE AE AE AE AE AE AE AE ND ND |E MD MD 1E BE FL >Y ,Y 'Y )Y !Y !Y ~Y II /J (J sJ $K $K dL dL {M {M +O iP jP FQ lR mR mR /S |T PT QT QT 0U :W bU bU cU cU ZU `U `U tW tW tW OX OX {Y ]Y ^Y AW                                                       /Y US (Y eT fT fT fT >P >P >P >P vK jU _Y                                                             }  ]+ 3@ Y+ f+ x  )+ !+ ). ). x  W@ W+ l. v  *  l. (. d+ W@ O+ }@ R. >+ Q. :  >+ j+ w  f  l. {+ o. p. +@ x  V@ V+ <@ +@ Z+ Q+ o+ .@ h+ X  p+ K. N. K. j+ X   @ +@ s+ [  '+ d                                ",
"                              d% ). )+ %  c+ Z+ +@ '+ ~+ e   @ U.                                                    :Y <Y [Y }Y |Y 1Y 2Y 3Y 4Y 5Y G)             :G &S *F AE AE AE *F 3I 6Y 7Y 8Y iS 9Y 0Y bF zE NM AE AE AE AE AE AE AE AE AE AE |E |E |E ~X 2D CE BE DE aY bY cY dY eY fY gY hY gN sJ !M $K MK $K dL {M +O +O iP kR iY lR mR CS /S |T QT QT 0U :W bU bU jY cU cU `U `U <W tW tW OX OX kY {Y lY mY nY                                                       oY LQ AN eT fT fT fT fT >P >P SS pY qY rY                                                             I. p+ {+ i+ i. P  ). P  J. ~# }  |@ P. q. >+ ,+ l. L. c+ V+ <@ _+ r+ f  :  o. &  d+ w  R. >+ *  W  }@ !+ W@ Q+ Q+ V+ c+ [@ c+ j+ q+ h+ X  i+ >+ T+ X  @@ i+ T. h+ [@ R+ '+ x#                               ",
"                                 G% 2@ T+ h+ U+ X  n+ '+ }@ k+ @&                                              sY tY uY LM lV vY wY xY yY zY AY BY                CY DY *F AE AE AE }N *F 3I EY *V dF FY AE AE AE AE AE AE AE AE AE AE AE AE AE NF $M 0M $M GY HY IY JY KY LY MY NY OY PY QY RY SY TY LV NV uJ UY dL hN {M +O iP jP kR lR lR mR CS |T VY QT 9U 0U bU bU YU cU cU cU `U <W <W tW tW OX OX kY {Y WY XY YY                                                       ZY `Y  Z eT fT fT fT fT fT >P SS .Z +Z @Z                                                                V@ o. _+ U+ P  P  s+ Q+ !# d  W+ p. ,+ ^. (+ W  `+ $  2@ i+ s+ r+ k. <  3@ `+ ~+ W+ N. P. >+ q+ +@ <@ |@ x  |@ g+ Y+ +@ d+ &  l+ [  l+ 3@ :+ l+ l+ %  i+ j+ m+ +@ M. s@ A                                ",
"                                 [% V+ g+ R+ '+ %  T+ +@ N. l+ @&                                              #Z $Z CL +X %Z OF &Z +X OF OF *Z =Z -Z             ;Z >Z <E AE AE AE AE AE OF AE zE AE AE AE AE AE AE AE AE AE AE AE AE OF zE [E !X ,Z 'Z KC )Z !Z ~Z {Z ]Z ^Z /Z (Z _Z :Z <Z [Z }Z |Z 1Z 2Z 3Z eL 4Z mM 5Z +O jP jP FQ mR mR /S /S |T PT QT 0U 0U bU bU cU cU cU `U 6Z 7Z tW 8Z OX kY kY kY 9Z 0Z aZ bZ                                                       cZ dZ eZ fZ fT fT fT fT fT gZ hZ iZ jZ kZ                                                             B% ). m. S. J. s@ .@ w  J. i. W+ N. k+ j. L. K. >+ Q  O+ l+ W  &  j. &  h+ K. n+ [@ }@ O. .@ X  #@ W+ $  ). )+ 2@ <@ p+ (+ >+ k+ R+ O. s+ d+ w  j+ p+ n+ d+ [  c+ j+ X  0$                                  ",
"                                    P# g+ X+ '+ R+ T+ h+ h+ %  u@ B%                                           lZ 3R aH }E OF AE AE AE AE AE ,L mZ nZ oZ          pZ qZ eS zE AE AE AE AE AE AE AE AE AE AE AE AE AE AE AE AE AE *F >Q NM GI bL cL VV rZ sZ tZ uZ vZ wZ xZ yZ zZ AZ BZ CZ DZ EZ    FZ GZ HZ IZ JZ KZ LZ MZ NZ jP kR FQ mR mR /S /S |T QT QT 0U :W bU bU cU cU dV dU OV OZ tW OX OX kY kY kY 9Z PZ QZ RZ                                                       LT SZ TZ UZ VZ VZ eT eT >P WZ fZ XZ YZ ZZ                                                                x# U  _. V+ '+ ,+ w  Z+ 2@ c+ n+ P. w  j+ T. L. g+ h+ /+ :+ o. K. @@ i+ V+ U+ Q  p+ m+ @@ P  [@ )+ Q+ [@ V+ P  Z+ w  <  .@ 2@ .@ R+ +@ j. K. R+ m+ s+ '+ c+ l+ 3@ e+ :@                                  ",
"                                    N  %  V+ T+ +@ U+ h+ T+ h+ e  2                                            }{ `Z mZ yE AE AE AE AE AE AE AE *F LF  `          tE .` %F yE AE AE AE AE AE AE AE AE AE AE AE AE AE AE OF (E cF OF ^J wE +` @` #` $` %` &` *` =` -` ;` >` ,` '` )` !` ~` {` ]` ^` /`    -$ (` _` :` <` [` }` |` kP 1` mR CS /S |T PT QT 0U 0U 2` 3` 3` 4` 5` 7Z 6` 7` 8` 9` OX OX kY kY 0` a` b` 6S c`                                                       d` e` f` g` h` i` j` hZ k` l` m` n` o` p`                                                                   [. r+ k. :. *  s  /+ }@ T+ Z+ h+ N. .@ <  S+ S+ .@ d+ (+ @@ :+ .@ h+ O. d+ }@ Q+ Q  R+ J. #@ <@ $  X  <@ [@ d+ O. O. n+ T+ T+ p+ N. _+ R+ #@ k+ h+ Y+ c+ [@ R+ 0$                                     ",
"                                       e+ N. U+ %  R+ ~+ h+ %  i. S$                                              q` yG &F *F AE AE AE AE AE AE >Q r` PW s`          t` HK yE AE AE AE AE AE AE AE AE AE AE AE AE *F NM *H uY u` v` OM w` x` y` 9N z` A` B` C` D` E` F` G` H` I` J` J` K` L` M` N` O` P` Q`       R` S` T` U` V` W` X` SR CS /S |T QT QT 0U 0U Y` UT Z` ``   .. .+ .@ .# .$ .% .& .& .* .* .= .- .dT ; .                                                         > ., .' .) .! .~ .{ .] .^ ./ .( ._ .: .< .[ .} .| .1 .4]                                                    [& ,+ ^  !. v  :  o. @@ !+ +@ q+ P. <  p. r+ 2@ X+ T+ %  L. `+ o+ }@ X+ x  c+ <  ~+ |@ V+ |@ V+ [@ #@  @ .@ m+ T+ R+ R+ g+ l+ q+ }@ Z+ X  %  [  Y+ !+ [  Y+ :%                                     ",
"                                       G) Y+ Y+ 2@ T+ +@ n+ (+ X+ :%                                              2 .vE ^J 3 .AE AE AE AE AE AE NF [E $F 4 .         5 .6 .7 .*F AE AE AE AE AE AE AE AE AE 8 .yE }E }G wE bL 9 .0 .^E a .b .c .d .e .f .g .g .h .i .j .k .l .m .n .o .o .p .q .r .s .t .u .v .w .         x .y .z .A .B .C .D .|T QT QT 0U lX E .F .G .6T dV eV H .I .J .K .L .}W {O {O {O dT (N M .N .                                                         O .P .Q .R .:K S .T .dZ U .V .W .X .Y .Z .` . .....+..@..#..$..%..&..*..=..-..                                 B$ m  v  `+ `+ o. 3@ o+ @@ M. `+ O. _+ k. n+ W@ <@ M. W  _+ <@ !# P  g+ #@ Z+ V+ Q+ X  R+ )+ $  '+ S+ l+ Y+ P  Y+ U+ i. d+ k+ U+ n+ @@ [  c+ U+ T+ k+ -u                                        ",
"                                          y  X  g+ [@ R+ R+ S+ S+ p=                                                 q` ;..zE AE AE AE AE AE AE AE >Q 6W >..,..      '..eS >L zE AE AE AE AE AE AE *F NM 3 .)X xE )..!..~..{..9) ]..^../..(.._..:..<..[..}..|..1..i .k .2..l .3..n .o .o .4..5..6..7..8..9..0..a..b..c..      d..e..f..z .g..h..PT QT QT 0U i..Y` j..k..l..m..n..o..p..q..r..VS s..PS t..u..v..w..x..y..                                                                              z..A..B..C..D..E..F..G..H..I..J..K..L..M..N..O..P..Q..R..S..T..                              %% W  r+ n+ p+ d+ h+ l+ {+ N. 2@ f  !. @@ i. %  R. m. i+ X+ e+ )+ Y+ U+ P  )+ g+ j+ Q  f+ !+ w  3@ e  ). 4@ <@ #@ .@ Q  @@ e  [  @@ U+ e  #@ d+ J. :%                                        ",
"                                          _% V@ Z+ p+ c+ <@ X  :+ P#                                                 vG }G ^J [E AE AE AE AE AE AE JK *H _E U..         V..W..zE AE AE AE AE *F NM >Q iQ X..gH Y..Z.. & UA `..:.. +..+.++.@+.#+.$+.%+.}..}..&+.*+.j .k .l .l .m .=+.-+.;+.4..5..6..>+.,+.'+.)+.!+.~+.{+.]+.^+.      /+.(+._+.:+.<+.[+.}+.0U bU TT |+.1+.2+.3+.4+.5+.6+.7+.                                                                                                            <X 8+.9+.0+.a+.b+.c+.d+.e+.f+.g+.g+.g+.h+.i+.j+.k+.l+.m+.n+.o+.p+.                              N+ :. j+ x  [@ W+ 3@ R  Q  N. U  >+ U+ e  @@ O. %  j+ P. )+ i. W+ |@ !+ Y+ c+ %  W+ e+ )+ Q  s+ Q+ |@ V@ <@ g+ '+ 3@ n+ V+ i. o+ }@ '+ #@ h+ @&                                           ",
"                                             j, [  e  i+ Y+ c+ s+ Y                                                     4N q+.zE *F AE AE AE AE AE AE >Q r+.:E s+.      t+.cL *F *F AE *F cF AE nT wE %F u+.v+.}{ w+.x+.y+.z+.A+.B+.C+.D+.E+.:..$+.%+.}..}..1..i .F+.k .l .3..m .G+.o .4..H+.I+.6..>+.,+.J+.K+.L+.M+.N+.O+.P+.Q+.R+.      S+.T+.U+.V+.W+.:W Y` X+.cU Y+.Z+.`+. @..@.+@.                                                                                                                  @@.#@.$@.%@.zH &@.*@.=@.-@.-@.-@.-@.-@.;@.>@.,@.'@.)@.!@.~@.,@.-..                              f% o+ o+ W+ k+ n. q. q. /. T. }@ g+ ~+ U+ p+ j. n+ }@ O+ i. $  J. ~+ P  %  &  t@ V@ Y+ +@ %  #@ <@ V+ V+ Z+ l+ h+ #@ [@ ~+ o+ K. #@ m+ Y                                               ",
"                                              & )+ X  p+ p+ V+ j+ #                                                     {@.}G nT cF AE AE AE AE AE AE AE [E ]@.^@.      /@.MF (@.zE NM aH >Z LF >L _@.:@.<@.[@.}@.|@.1@.2@.3@.4@.B+.B+.5@.E+.:..$+.%+.}..}..1..i .F+.k .l .6@.m .o .o .7@.H+.I+.8@.>+.9@.0@.a@.a@.b@.c@.d@.e@.f@.g@.h@.      i@.j@.k@.l@.m@.n@.o@.TT p@.q@.r@.s@.t@.u@.                                                                                                                  v@.w@.x@.y@.z@.A@.B@.C@.-@.-@.-@.-@.D@.;@.;@.;@.;@.;@.E@.F@.G@.H@.                                 $%  @ W  ,+ n. `+ S. t+ [@ o+ @@ m+ Y+ S+ R. q+ c+ ). )+ 4@ V+ )+ |@ o. *  h+ :+ T. i+ n+ W+ ~+ #@ U+ O. O. [  [  i. U+ N. #@ [@ !+ ,.                                              ",
"                                                f% (+ W+ i. e  l+ N%                                                       I@.J@.}E AE AE AE AE AE AE AE NM K@.LN L@.   2  M@.N@.O@.}O kQ cF P@.Q@.   R@.S@.T@.U@.oQ 4@.V@.4@.W@.X@.W@.Y@.E+.Z@.`@.g . #.}..|..i .k .k .l .6@.m .o .o .7@.H+.6...#.,+.+#.0@.a@.a@.@#.##.$#.%#.&#.*#.=#.-#.d..      ;#.>#.,#.'#.)#.6Z !#.~#.{#.]#.4S ^#.                                                                                                                  /#.(#._#.   :#.<#.[#.f+.-@.-@.-@.D@.;@.;@.;@.;@.;@.}#.}#.|#.1#.2#.                                    w@ J. ^+ R  ]+ j. R+ o+ _+ P. <  @@ o. :+ W+ x  Y+ V@ J. !+ i. d+ /. =  W  S. R. i+ l+ }@ Z+ g+ Z+ +@ #@ V+ i. x  j+ i+ X+ '+ N%                                                 ",
"                                                .  }  o+ g+ T+ p+ P+ `                                                     +F eS aF ,L AE AE AE AE AE AE AE [E 3#.4#.      5#.&S kQ zE 6#.   ]h 7#.8#.9#.0#.a#.b#.c#.9X d#.9X 9X U@.e#.f#.g#.:..h#.i#.j#.k#.l#.m#.eO eO n#.o#.p#.q#.r#.7@.H+.6..s#.,+.+#.t#.a@.u#.##.v#.w#.x#.y#.z#.A#.B#.C#.D#.      E#.F#.G#.H#.I#.J#.K#.L#.M#.N#.O#.                                                                                                                  .[ P#.Q#.   R#.S#.T#.U#.-@.-@.-@.D@.;@.;@.;@.;@.;@.}#.V#.W#.X#.Y#.                                       l& R. ~. {+ (+ @@ ]+ n. M. L. W  P. Z+ X+ V+ !+ |@ P  W+ #@ M. =  v  j+ R. &  Z+ e  '+ c+ l+ e  W+ ~+ Y+ Q+ '+ Q  U+ i+ o+ a$                                                 ",
"                                                   1  O+ 2@ Z+ n+ i+ [&                                                       Z#.@K bF zE AE AE AE AE AE AE NM 7 .yG `#.    $..$.IN S$    +$.@$.#$.@$.$$.%$.&$.*$.=$.-$.;$.>$.%$.,$.'$.)$.!$.~$.{$.]$.^$./$.($._$.:$.<$.[$.}$.|$.1$.2$.3$.4$.5$..#.,+.+#.t#.6$.b@.##.7$.w#.x#.8$.9$.0$.a$.b$.c$.d$.      e$.f$.g$.h$.i$.j..j$.k$.l$.m$.                                                                                                                     n$.o$.   p$.q$.r$.s$.-@.-@.D@.D@.;@.;@.;@.;@.}#.V#.V#.t$.u$.v$.!:                                        p= m. ,+ (+ {+ l. l. ^+ M. M. r+ M. R+ R+ 3@ o+ #@ i+ _+ g  :+ q+ R. /+ _+ @@ ~+ @@ %  p+ m+ e  i. P  !+ i+ U+ c+ q+ #l                                                    ",
"                                                      p= !+ g+ Z+ o+ b$                                                       .  w$.x$.KK OF AE AE AE AE AE AE ,L 9M iQ    y$.KM z$.   A$.B$.C$.D$.E$.F$.G$.H$.I$.J$.K$.            M+  * L$.M$.N$.O$.ZM P$.Q$.R$.S$.T$.U$.V$.W$.X$.Y$.Z$.`$. %..%.+%.@%.#%.6$.b@.##.7$.w#.x#.8$.$%.%%.&%.*%.=%.-%.;%.N#    >%.,%.'%.)%._T  @.!%.| .~%..                                                                                                                    {%.]%.   ^%./%.(%.-@.-@.s$.D@.;@.;@.;@.;@.;@.}#.V#.V#.W#._%.:%.<%.                                          B$ :+ (. f  S. q. k. `+ P. v  {+ [@ k+ w  +@ Q  s+ ^+ r+ (+ j. _+ w  :+ N. }@ o+ T+ h+ n+ o+ x  $  h+ '+ !+ i+ 1@                                                       ",
"                                                      `  v@ )+ )+ e  Z%                                                          [%.rJ zG >Q AE AE AE AE AE AE *F *H }%.|%.}I 1%.   2%.3%.4%.         5%.6%.7%.8%.9%.0%.a%.b%.c%.d%.e%.f%.g%.                        ~_ h%.i%.j%.k%.l%.m%.n%.o%.p%.q%.r%.s%.t%.b@.##.7$.w#.x#.8$.u%.v%.w%.x%.y%.z%.A%.B%.w)       C%.D%.E%.F%.G%.H%.                                                                                                                                 I%.J%.s$.-@.g+.K%.L%.!@.M%.;@.;@.;@.V#.V#.V#.N%._%.:%.O%.                                             B$ l. r  Q. /. q. N. `+ R. o+ i+ .@ k+ j+ S+ O. `+ o. /+ {+ `+ M. s+ c+ e  U+ j+ K. e  m+ 2@ j+ T+ c+ l+ Y+ <+                                                       ",
"                                                         <% )+ [@ Y+ X@ S$                                                          P%.Q%.yE *F AE AE AE AE AE ND *H R%.kQ S%.   |& T%.U%.   e, V%.nS W%.X%.Y%.IW A+.7%.U@.Z%.d#.Z%./..`%. &..&.+&.@&.#&.$&.%&.                           &&.*&.=&.-&.;&.>&.,&.M+.##.7$.w#.x#.8$.u%.v%.w%.x%.'&.)&.!&.~&.{&.]&.   .[ ^&./&.(&._&.:&.&6                                                                                                                               <&.[&.f+.g+.T#.}&.|&.;@.i+.M%.;@.;@.V#.V#.V#.1&.2&.3&.R+.                                                D% !. r  :. /+ Q  :. &  '+ &  Q  <  ,+ &  q+ L. l. m. f  `+ N. #@ )+ #@ R+ h+ ~+ +@ #@ m+ '+ 2@ o+ X  m$ M+                                                       ",
"                                                            mD [  Y+ V+ c%                                                          F$.<O xE cF AE AE AE AE AE }N [E [E 4&.<D M+       FK 5&.6&.a#.9X 7&.X@.8&.9&.4@.W@.X@.C+.4@.B+.)$.0&.a&.b&.c&.d&.e&.f&.g&.h&.i&.j&.                              k&.l&.m&.n&.o&.7$.w#.x#.p&.q&.%%.w%.x%.r&.s&.t&.u&.v&.w&.x&.      y&.z&.A&.B&.C&.                                                                                                                           D&.E&.F&.G&.H&.I&.J&.K&.L&.M&.M%.;@.}#.V#.V#.|#.t$.N&.O&.*,                                                    s@ V  ^+ :+ >+ V  >+ :+ (+ T. p. &  <  q+ r+ l. /. _+ d+ n+ U+ e  3@ n+ Y+ c+ +@ #@ o+ 2@ T+ [  x  }&                                                          ",
"                                                            M+ v@ l+ 4@ `                                                              P&.Q&.R&.zE AE AE AE NM KK ^J S&.T&.5N    -$ U&.V&.W&.X&.6&.W@.Y&.B+.B+.B+.B+.B+.B+.B+.B+.B+.D+.Z&.Z&.`@.`@.}..`&. *..*.+*.@*.#*.$*.%*.&*.                           **.=*.-*.;*.w#.x#.8$.9$.%%.w%.x%.r&.>*.,*.'*.)*.!*.~*..[       {*.]*.^*./*.(*.                                                                                                                        _*.:*.<*.[*.}*.|*.   1*.2*.>@.;@.;@.}#.V#.V#.|#.3*.4*.5*.M#.                                                   c% :  m  f  R  p  W  T. 3@ `+ L. i+ <  (+ <  f  S. :+ k+ }@ d+ N. .@ m+ i. Y+ o+ m+ c+ o+ +@ l+ )&                                                             ",
"                                                               #& Y+ ). :%                                                                6*.gH IN AE *F KK <O #M 7*.CR       8*.V@.9*.0*.9&.V@.B+.B+.B+.B+.B+.B+.B+.B+.B+.B+.B+.B+.5@.E+.E+.$+.$+.}..}..a*.b*.c*.d*.e*.f*.g*.h*.i*.j*.k*.                     l*.m*.n*.o*.p*.8$.$%.%%.w%.x%.r&.>*.,*.q*.r*.s*.t*.u*.      .[ v*.w*.x*.y*.                                                                                                                              z*.A*.B*.C*.   D*.E*.,@.;@.;@.}#.V#.V#.|#.F*.G*.H*.I*.                                                      P  ^  W  =  T  P. S+ L. S+  @ Q  W  s+ K. 3@ _+ j. }@ X  d+ s+ }@ .@ R+ [@ ~+ m+ +@ i. l+ f+ B%                                                             ",
"                                                                  T$ Y+ c                                                                 J*.K*.<D cF KK ^J L*.M*.`     N*.O*.P*.Q*.B+.X@.8&.B+.B+.B+.B+.B+.B+.B+.B+.B+.B+.B+.B+.B+.5@.E+.E+.$+.$+.}..}..|..i .i .k .R*.I` S*.T*.U*.V*.W*.X*.Y*.Z*.               `*. =..=.+=.8$.$%.%%.w%.x%.r&.>*.,*.,*.@=.#=.$=.%=.&=.         *=.                                                                                                                                       ==.-=.   ;=.>=.,=.'=.;@.}#.}#.V#.|#.|#.F*.)=.!=.~=.                                                         P+ !. u  R. P. p. S+ _+ k. W  d+ Q  f  U+ j+ p. m+ h+ '+ d+ #@ p+ p+ m+ l+  @ Q+ T+ O+ t#                                                                ",
"                                                                  .  <. s@                                                                   {=.]=.bF )..KF ^=.   B) /=.(=._=.6&.3@.B+.B+.B+.B+.B+.B+.B+.B+.B+.B+.B+.B+.B+.B+.B+.B+.5@.E+.E+.$+.$+.}..}..|..i .i .k .2..6@.:=.<=.[=.}=.|=.1=.2=.3=.4=.5=.6=.         7=.8=.9=.0=.u%.%%.w%.x%.r&.>*.a=.,*.@=.s*.b=.c=.d=.e=.                                                                                                                                             x*.:*.f=.   g=.h=.)@.;@.;@.}#.V#.V#.|#.|#.F*.i=.j=.k=.l=.*_                                                       /+ ,  /+ o. L. <  ^+ q. j. m=.W  >+ 3@ o. 3@ l+ p+ T+ '+ #@ T+ X  '+ .@ !+ ~+ h+ r.                                                                   ",
"                                                                     1  <%                                                                   2] (E ,1 n=.o=.   p=.q=.r=.s=.X@.9&.B+.B+.B+.B+.B+.B+.B+.B+.B+.B+.B+.B+.B+.B+.B+.B+.B+.5@.E+.E+.$+.$+.}..}..|..*+.i .k .k .6@.6@.m .-+.t=.u=.v=.w=.x=.y=.z=.A=.B=.         C=.D=.E=.F=.q&.G=.w%.H=.r&.a=.,*.@=.I=.J=.K=.L=.M=.N=.O=.                                                                                                                                       x*.         P=.Q=.R=.;@.;@.}#.V#.V#.|#.|#.F*.S=.T=.U=.V=.W=.                                                      F% s  !. Q. X=.Y=.Z=.`=. -..-.+-.@-.#-.$-.M. K. p+ h+ c+ Z+ +@ o+ ~+ c+ X+ :+ $%                                                                      ",
"                                                                                                                                                %-.&-.   *-.++.=-.--.X@.4@.B+.B+.B+.B+.B+.B+.B+.B+.B+.B+.B+.B+.B+.B+.B+.B+.B+.B+.B+.5@.E+.E+.$+.$+.}..}..|..*+.i .k .k .6@.6@.m .-+.o .7@.H+.;-.>-.,-.'-.)-.!-.            ~-.{-.]-.q&.G=.w%.H=.r&.a=.,*.^-.s*.J=./-.(-._-.:-.<-.[-.                                                                                                                                             x*.}-.|-.)@.;@.;@.}#.V#.V#.|#.|#.1-.2-.3-.4-.5-.6-.                                                         7-.8-.9-.0-.a-.b-.c-.d-.e-.f-.g-.7-.h-.i-.j-.k-.l-.e  m+ U+ Z+ R+ $  P. v@                                                                         ",
"                                                                                                                                          4]       %: m-.n-.U@.4@.C+.B+.B+.B+.B+.B+.B+.B+.B+.B+.B+.B+.B+.B+.B+.B+.B+.B+.B+.B+.B+.B+.5@.E+.E+.$+.$+.}..}..|..*+.i .k .k .l .6@.m .o .o .7@.H+.6..8@.>+.o-.p-.q-.r-.         s-.t-.u-.v-.v%.w%.x%.w-.x-.,*.q*.s*.J=.y-.z-.A-.B-.C-.D-.E-.                                                                                                                                          F-.G-.H-.;@.;@.;@.}#.V#.V#.|#.|#.1-.I-.J-.K-.L-.M-.N-.                                                         }I O-.P-.Q-.R-.S-.T-.U-.V-.W-.X-.Y-.Z-._G `-. ;..;.+;.l-.Q  g+ R+ e  :%                                                                         ",
"                                                                                                                                       4]    @;.#;..R LP 8%.3@.Y&.8&.4@.4@.4@.4@.4@.4@.Y&.Y&.Y&.Y&.B+.B+.B+.B+.B+.B+.B+.B+.B+.B+.B+.B+.E+.E+.$+.$+.}..}..}..*+.i .k .k .l .6@.m .o .o .7@.H+.6..8@.>+.9@.$;.%;.&;.      wW    *;.=;.-;.%%.w%.x%.w-.x-.,*.q*.s*.s*.y-.y-.;;.;;.B-.>;.,;.';.                                                                                                                                    );.!;.~;.{;.;@.;@.;@.}#.V#.|#.|#.|#.1-.I-.];.^;./;.(;._;.                                                   :;.<;.[;.};.|;.1;.2;.3;.4;.5;.6;.7;.8;.9;.0;.a;.b;.c;.d;.e;.f;. ;.g;.h;.i;.                                                                           ",
"                                                                                                                                          j;.k;.l;.m;.n;.4@.4@.4@.6&.Y%.o;.m;.p;.Y%.V&.q;.q;.++.9%.r;.4@.W@.4@.Y&.B+.B+.B+.B+.B+.B+.B+.E+.E+.$+.$+.}..}..}..1..i .F+.k .l .6@.m .o .o .4..H+.I+.6..>+.,+.s;.s%.t;.u;.   v;.w;.x;.y;.z;.A;.w%.x%.H=.>*.a=.q*.I=.s*.B;.y-.;;.C;.D;.E;.F;.G;.H;.                                                                                                                                 ^%.I;.D@.>@.;@.;@.;@.}#.V#.|#.|#.|#.1-.I-.J;.K;.L;.M;.N;.O;.                                       -..P;.Q;.R;.S;.T;.U;.V;.W;.X;.Y;.Z;.Z;.`;. >..>.+>.@>.#>.$>.%>.&>.*>.=>.->.;>.>>.                                                                              ",
"                                                                                                                              .[ N#    ,>..R z+.4@.0%.9&.oQ '>.)>.|@.X&.!>.~>.{>.7%.b#.Z%.d#.]>.^>.9X Z%.Q*.{>.oQ W@.Y&.B+.B+.B+.B+.B+.E+.E+.$+.$+.}..}..}..1..i .F+.k .l .6@.m ./>.-+.;+.4..5..6..s#.>+.J+.(>._>.:>.<>.[>.}>.   |>.1>.v-.G=.w%.H=.>*.x-.2>.3>.s*.B;.y-.4>.;;.5>.6>.7>.8>.9>.0>.         4]                                                                                                                a>.b>.c>.d>.;@.;@.;@.;@.V#.V#.|#.e>.f>.F*.g>.h>.i>.j>.k>.l>.m>.                              p^ R] n>.o>.p>.q>.r>.s>.U-.t>.u>.v>.w>.x>.y>.z>.`;.A>.+>.+>.B>.C>.D>.E>.F>.G>.H>.I>.J>.K>.L>.M>.N>.*,                                                                   ",
"                                                                                                                              4] 4] O>.d#./..P>.6&.A+._=.X&.Y%.Q>.R>.S>.T>.U>.V>.W>.X>.Y>.Z>.`>. ,..,.+,.@,.Y%.#,.$,.9W X@.B+.B+.B+.B+.E+.E+.:..$+.%+.}..}..1..*+.k .k .l .6@.m .n .o .o .4..5..6..s#.>+.%,.0@.&,.*,.=,.-,.;,.K$.>,.,,.',.),.w%.x%.>*.x-.2>.3>.s*.B;.y-.!,.;;.5>.5>.6>.~,.{,.],.^,.      /,.(,.r>                                                                                                          _,.:,.)@.D@.;@.;@.;@.;@.V#.|#.e>.<,.W#.F*.2-.[,.},.|,.1,.2,.3,.4,.                  ]h 5,.6,.7,.8,.9,.0,.a,.b,.c,.d,.e,.f,.g,.h,.i,.j,.k,.l,.m,.n,.@>.+>.B>.o,.p,.E>.q,.r,.r,.q,.s,.t,.u,.v,.w,.x,.y,.-,.K$.                                                         ",
"                                                                                                                                 9) z,.1@.A,.IW e#.B,.C,.D,.E,.      F,.G,.8, wW                         EP H,.X>.I,.0*.z,.3@.B+.B+.B+.5@.E+.:..$+.%+.}..}..&+.*+.j .k .2..l .m .n .o .o .4..H+.5...#.>+.+#.0@.J,.K+.K,.L,.M,.N,.   O,.P,.Q,.G=.w%.r&.>*.,*.@=.s*.R,.B;.y-.;;.;;.5>.S,.T,.U,.V,.W,.X,.   -..Y,.Z,.`,.                                                                                                    '..'.i+.+'.D@.;@.;@.;@.;@.'=.@'.#'.$'.%'.&'.*'.[,.='.-'.;'.>'.,'.''..[       1 .)'.!'.~'.{'.]'.^'./'.('._'.:'.<'.['.}'.|'.1'.2'.3'.4'.5'.6'.7'.8'.9'.0'.a'.%>.b'.c'.d'.q,.r,.e'.f'.g'.h'.i'.j'.k'.l'.m'.n'.o'.p'.q'.p^                                                 ",
"                                                                                                                              N# r'.s'.U@.s=.t'.u'.4& v'.D$.w'.   x'.y'.z'.A'.B'.C'.D'.E'.F'.G'.U>.EP                H'._=.U@.I'.Y&.B+.5@.E+.:..$+.%+.}..}..&+.1..i .k .k .l .3..n .-+.-+.7@.H+.5..8@.s#.9@.0@.t#.)+.J'.K'.L'.M'.   N'.O'.%%.P'.w%.r&.>*.,*.^-.I=.R,.B;.y-.4>.;;.5>.S,.Q'.R'.S'.T'.U'.V'.      W'.X'.1*.| .                                                                                          Y'.Z'.m+.`'. ).D@.;@.;@.;@.;@..).+).@).#).$).%).g>.3-.&).*).=).-).;).>).,).      ').)).!).~).{).]).^).^)./).()._).:).<).[).}).         ,. |).1).2).3).4).5).6).7).8).9).0).a).b).c).d).w,.e).f).f).g).h).i).j).k).l).m).n).o).p).                                          ",
"                                                                                                                                 .[ q).a#.7&..,.r).s).t).u).   &, v).w).x).y).z).A).B).9X C).D).z,.E).F).G).H).U%.      I).l;.J).X@.4@.5@.E+.:..$+.$+.Z@.}..}..1..i .k .k .l .6@.m .m .o .7@.H+.H+.6...#.,+.J+.0@.t#.K).L).M).N).O).P).Q).R).A;.S).r&.>*.,*.2>.@=.T).R,.z-.!,.;;.5>.S,.Q'.T,.U).V).W).X).Y).      Z).`). !..!.+!.                                                                                    @!.#!.d>.-@.-@.D@.;@.;@.;@.'@.$!.%!.&!.*!.=!.F*.-!.;!.>!.,!.'!.)!.!!.~!.{!.]!.   -..^!./!.(!._!.:!.<!.[!.}!.|!.1!.2!.3!.               4!.5!.6!.7!.8!.9!.0!.a!.%% b!.c!.d!.e!.f!.g!.h!.i!.j!.k!.l!.m!.n!.h).o!.h).p!.q!.m).r!.s!.t!.u!.                                    ",
"                                                                                                                              M+    v!.Z%.X@.7&.LP w!.x!.    , 7/ y!.y!.z!.p} A!.9*.$W n;.B!.$$.C!.D!.9X E!.X&.8&.F!.G!.   H!.9%.xU I!.3@.E+.E+.:..$+.$+.}..}..1..i .i .k .k .6@.m .m .J!.o .4..H+.I+.6..>+.+#.%,.K!.L!.M!.N!.O!.P!.   Q!.R!.A;.S!.H=.r&.a=.q*.@=.s*.J=.y-.y-.4>.T!.S,.U!.Q'.V!.U).W!.X!.Y!.Z!.      `!. ~..~.U#.+~.@~.                                                                           #~.$~.%~.=@.-@.-@.D@.;@.;@.>@.M&.&~.*~.=~.-~.W#.;~.-!.>~.,~.'~.)~.!~.~~.{~.]~.^~.   ')./~.(~._~.:~.<~.[~.}~.|~.1~.                              g+ o  q+ t+ &  2~.3~.4~.5~.5~.5!.aa    6~.7~.8~.9~.0~.m).a~.b~.c~.q!.n!.o!.d~.n!.e~.f~.m'.g~.h~.                              ",
"                                                                                                                              p^    i~.9X 0%.IW P*.j~.   k~.l~.m~.y!.n~.o~.p~.q~.4@.3@.4@.r~.W@.V@.X@.4@.Y&.oQ s~.t~.u~.-$.   f- v~.@$.X%.w~.Y@.$+.$+.$+.}..}..|..i .i .k .k .6@.x~.m .J!.o .4..H+.5..6..>+.+#.J+.0@.K+.L!.y~.z~.A~.B~.C~.P,.D~.E~.x%.r&.x-.,*.^-.s*.J=.y-.z-.4>.T!.S,.Q'.Q'.V!.V!.F~.G~.H~.}#.XW    I~.,=.J~.K~.L~.M~.N~.O~.                                                                  P~.Q~.R~.g+.-@.-@.-@.-@.;@.;@.d>.S~.T~.2#.U~.V~.|#.1-.W~.>~.^;.   X~.Y~.Z~.`~. {..{.N#    +{.@{.O%.XW #{.${.%{.]h                                  T$ N. S+ '+ #@ V+ +@ }@ S+ &% -$                4] UA u!.&{.*{.n!.={.G' c~.-{.h).;{.o!.>{.,{.'{.M>.   4] k#                   ",
"                                                                                                                                    ){.D!.!>.!{.I).   ~{.{{.]{.y!.^{./{.({._{.0%.0%.4@.4@.9&.9&.9&.Y&.Y&.4@.9&.W@.I'.:{.<{.[{.      }{./.._{.w~.#+.Z@.$+.%+.}..}..*+.i .k .k .l .6@.3..m .-+.7@.4..H+.5..s#.,+.|{.J+.t#.1{.2{.3{.4{.5{.   6{.7{.Q,.x%.r&.>*.,*.q*.s*.s*.B;.y-.!,.;;.5>.S,.Q'.V!.V!.U).8{.9{.0{.a{.b{.   c{.d{.e{.f{.g{.h{.i{.j{.M#.                                                         k{.l{.m{.n{.&@.-@.-@.-@.-@. ).o{.p{.q{.r{.s{.t{.u{.|#.F*.v{.w{.x{.   y{.z{.A{.B{.C{.D{.E{.      F{.G{.H{.   I{.J{.K{.L{.M{.N{.O{.-..                     ,. P{.m+ m+ c+ $  e% j, f.                                  Q{.R{.S{.T{.n!.U{.V{.p!.o!.W{.k).X{.Y{.H, g).Z{.`{. ]..].+].@].",
"                                                                                                                              M+    #]./..KO $].   %].{{.y!.&].*].=].-].^>.;].3@.W@.4@.4@.9&.9&.9&.Y&.Y&.Y&.8&.8&.>].,].9*.'].)].      !].~>.~].Z&.$W $+.%+.}..}..*+.i .k .k .l .l .3..m .-+.7@.4..H+.5..s#.,+.{].J+.t#.6$.@#.]].^]./].(]._].=#.:].<].r&.>*.,*.q*.s*.s*.B;.y-.!,.;;.5>.S,.Q'.V!.V!.U).%'.[].}].|].1]._*.   2].3].4].5].D*.>=.6].7].8].*,                                              R+.9].0].a].b].c].&@.-@.-@.s$.d].d>. !.e].z*.f].g].t$.#'.|#.F*.g>.h].i].   j].k].l].Z~.`~.m].n].o].   p].q].r].s].   t].u].v].w].x].y].z].A].B].C].D].r>          E].F].G].H].$% A                                               I].J].K].L].M].N].O].n!.P].Q].0~.!< R].S].T].U].V].u,.c).",
"                                                                                                                              M+    H& W].X].   Y].l~.Z].m~.`]. ^..^.)>.+^.3@.W@.W@.4@.4@.9&.9&.9&.Y&.Y&.Y&.8&.8&.'$.@^.#^.$^.a) %^.      U%.&^.*^.:..<..$+.%+.}..1..i .j .k .2..6@.x~.m ./>.o .7@.H+.5..8@.>+.=^.%,.0@.a@.-^.;^.>^.,^.'^.)^.!^.~^.{^.x%.>*.,*.q*.I=.s*.B;.y-.z-.4>.5>.S,.Q'.T,.V!.U).%'.]^.^^.W#./^.(^._^.   :^.<^.[^.}^.)@.|^.1^.2^.3^.4^.5^.                                    6^.7^.8^.9^.0^.a^.f+.f+.C@.d].b^.K%.c^.d^.e^.f^.g^.h^.i^.|#.|#.F*.S=.j^.k^.   l^.m^.n^.Z~.o^.p^.q^.r^.      s^.t^.u^.v^.   w^.x^.y^.z^.r>.A^.B^.C^.D^.E^.F^.G^.H^.I^.J^.K^.&&.                                    wW L^.M^.N^.p'.O^.P^.*{.Q^.R^.S^.T^.U^.V^.n!.;{.W^.X^.   Y^.v,.Z^.h'.`^. /.",
"                                                                                                                                    ./.+/.^E G; @/.Z].#/.$/.%/.&/.*/.=/.3@.X@.W@.W@.4@.4@.9&.9&.9&.Y&.Y&.Y&.8&.W@.-/.;/.>/.   ,/.V< p^       U%.'/.)/.!/.~/.}..}..&+.*+.i .k .2..6@.l .x~.m .o .7@.H+.H+.6..>+.,+.+#.J+.K+.6$.{/.]/.^/.//.(/._/.:/.</.x%.>*.,*.2>.I=.s*.B;.y-.z-.4>.5>.S,.Q'.T,.V!.U).%'.%'.]^.^^.[/.}/.|/.1/.   2/.3/.l+.4/.h+.o{.K%.L..5/.6/.7/.8/.R .                        9/.0/.a/.b/.c/.d/.e/.f/.g/.h/.[*.i/.j/. ).k/.l/.m/.>=.n/.o/.|#.|#.F*.S=.p/.q/.      r/.s/.Z~.t/.u/.v/.w/.4]    x/.y/./'.z/.A/.   B/.C/.D/.z^.E/.s>.F/.G/.H/.E^.I/.J/.K/.L/.M/.N/.O/.P/.Q/.R/.S/.T/.h~.U/.V/.W/.X/.Y/.Z/.V^.`/. (..(.={.+(.@(.#(.$(.%(.&(.*(.i).=(.g).i).-(.;(.>(.,(.`/.'(.f'.q,.",
"                                                                  )(.!(.                                                      !:    ~(.{(.   -: ](.^(./(.((._(.)>.@,.0%.X@.X@.W@.W@.4@.4@.9&.9&.9&.Y&.Y&.Y&.9&.:(.<(.[(.   }(.|(.1(.2(.            3(.4(.!/.5(.}..|..1..i .j .k .2..l .6@.m .-+.o .4..H+.I+.s#.>+.9@.J+.K+.a@.6(.7(.8(.9(.0(.a(.=#.A;.S).r&.x-.,*.@=.s*.b(.B;.y-.z-.C;.S,.S,.Q'.T,.U).c(.%'.%'.f>.3*.t$.d(.e(.f(.   g(.h(.i(.`'.&@.s$.g+.j(.k(.l(.m(.n(.o(.p(.q(.r(.s(.t(.f^.r@.u(.H&.v(.&@.w(.x(.y(.z(.A(.B(.C(.D(.E(.F(.G(.H(.I(.J(.}#.V#.|#.|#.F*.K(.L(.M(.      N(.Y~.O(.o^.P(.P(.Q(.R(.   S(.T(.U(.^).V(.W(.M#.   X(.Y(.Z(.`(.`(. _.._.v>.+_.@_.#_.$_.9;.%_.&_.*_.=_.-_.;_.>_.,_.c).'_.)_.v,.,(.!_.~_.{_.]_.g).h).h).^_./_.(_.P^.__.i).h).n!.i).:_.0~.<_.L^.[_.}_.~_.|_.|_.",
"                                                            G; &' ,/.1_.2_.0G wW                                                 J$.      J, 3_.4_.5_.6_.7_.#,.'$.8_.V@.X@.X@.W@.W@.4@.4@.9&.9&.9&.Y&.Y&.Y&.I'.9_.0_.a_.b_.c_.=: d_.e_.f_.            g_.4(.h_.~/.}..1..i .F+.k .i_.l .l .m .-+.o .4..H+.5..s#.>+.>+.+#.t#.a@.b@.j_.k_.l_.m_.n_.o_.p_.q_.r&.x-.,*.@=.s*.b(.B;.y-.z-.;;.S,.S,.Q'.T,.U).U).F~.%'.]^.V#.t$.3*.r_.d>.} .   s_.t_.u_.m/.-@.&@.v_.e+.w_.}&.x_.y_.z_.A_.B_.C_.D_.E_.F_.G_.H_.I_.J_.K_.L_.M_.N_.O_.P_.Q_.R_.S_.T_.U_.V_.W_.'=.}#.V#.|#.|#.[/.]^.X_.Y_.      Z_.`_. :.o^..:.u/.+:.@:.);.   #:.$:.%:.&:.9,.*:.=:.   -:.;:.>:.,:.':.V;.):.):.!:.Y;.Z;.`;.~:.`;.{:.a).]:.^:./:.h!.(:.F>._:.q,.h'.f).f).i'.i).i).i).n!.n!.V{.p!.::.<:.k).=(.h).i).i).;{.__.{_.|C [:.}:.|:.1:.",
"                                                         2:.3:.4:.5:.6:.7:.7/ -: 7D                                              8:.a_.9:.0:.H[ a:.b:.c:.d:.3@.e:.3@.V@.X@.X@.W@.W@.4@.4@.9&.9&.9&.Y&.Y&.n;.D!.Z%.f:.g:.h:.i:.>_ >_ ^(.{{.j:.   [+       k:.l:.m:.n:.|..*+.i .k .o:.o:.l .6@.m .-+.7@.4..5...#..#.,+.9@.t#.K+.b@.p:.q:.r:.]-.s:.t:.u:.v:.r&.x-.,*.^-.I=.J=.B;.y-.z-.;;.5>.S,.Q'.T,.V!.U).F~.%'.%'.|#.V#.w:.R=.x:.;@.y:.   9/.z:.A:.B:.&@.&@.C:.C:.D:.E:.a^.F:.a^.G:.F:.&@.H:.I:.J:.K:.L:.M:.N:.O:.P:.Q:.R:.S:.}*.T:.J..U:.D*.'@.;@.;@.}#.V#.V#.|#.|#.V:.W:.X:.      Y:.,'.Z:.o^.o^.P(.`:. <..<.      +<.@<.#<.$<.%<.&<.L{.      *<.=<.-<.;<.><.+_.w>.Y;.#_.,<.'<.'<.'<.+>.)<.!<.~<.{<.E>.E>.q,.q,.e).e).e).j'.j'.i).i).i).i).g).0~.m!.]<.^<.$(.V^.n!.i).i).;{./<.(<.4] tH _<.N^.",
"                                                      :<.-: <<.W< -_ >_ >_ [<.}<.>_ |C                                        N#    {( <<.4_.m~.|<.1<.2<.3<.P>.0%.0%.V@.X@.X@.W@.W@.4@.4@.9&.9&.9&.Y&.0%.8%.4<.>/.5<.7:.6<.[( 7<.7<.[( 7:.*< 8<.x+ 9<.      0<.a<.k#.g .1..i .j .k .k .b<.6@.m ./>.o .7@.H+.6..s#.>+.9@.0@.c<.6$.@#.d<.e<.f<.g<.h<.i<.j<.H=.>*.a=.q*.@=.s*.R,.y-.k<.;;.C;.S,.Q'.Q'.V!.U).U).%'.%'.|#.|#.V#.,@.m/.l<.m<.n<.   o<.p<.q<.f+.&@.C:.C:.C:.C:.r<.r<.r<.v_.r<.r<.F:.s<.x(.t<.u<.v<.w<.x_.x<.y<.z<.A<.r$.U#.!@.f+.;@.;@.;@.;@.;@.V#.V#.|#.B<.C<.D<.E<.   F<.=).G<.H<.t/.o^.P(.I<.J<.I<.K<.   L<.M<.N<.^).&:.O<.P<.Q<.R<.   R<.S<.T<.U<.V<.E^.W<.#_.X<.z>.Y<.'<.{:.+>.)<.!<.~<.{<.E>.E>.E>.q,.q,.e).e).j'.j'.j'.i).i).g).d~.Z<.`<. [.n).a~.V^.h).i)..[.+[.@[.#[.$[.%[.&[.",
"                                                   B) *[.=[.-[.=: 7<.7<.7<.-_ 6:.;[.>[.                                    ,[.   '[.)[.![.~[.{[.][.@^.6&.^[.0%.0%.0%.3@.X@.X@.W@.W@.4@.4@.9&.9&.Y&.X@.8&./[.i~.   ([._[.[( 7<.7<.7<.7<.=: :[.<[.   [[.}[.      |[.l:.%+.1[.F` i .k .k .2[.l .m .m .o .7@.H+.6...#.>+.,+.J+.t#.6$.b@.7$.e<.3[.u%.4[.5[.6[.7[.>*.a=.q*.@=.s*.R,.B;.y-.4>.5>.S,.Q'.Q'.V!.U).U).%'.%'.|#.|#.V#.o/.U#.o{.8[. ).9[.   0[.a[.m/.&@.C:.C:.C:.C:.r<.r<.r<.r<.b[.b[.b[.b[.r<.F:.F:.F:.F:.F:.a^.a^.a^.a^.-@.&@.-@.-@.D@.;@.;@.;@.;@.V#.V#.c[.d[.e[.f[.      g[.h[.H<.i[.t/.o^.P(.j[.k[.l[.m[.      n[.o[.p[.<!./)._'.w].q[.r[.      s[.t[.u[.v[.w[.x[.y[.z[.A[.~:.~:.A>.)<.)<.~<.~<.E>.E>.E>.E>.q,.e).e).e).j'..[.B[..[.0~.l'.U].C[.D[.E[.F[.:( j).d~.G[.{_.H[./<.I[.   J[.",
"                                                   n' K[.L[.M[.d_.N[.7<.7<.7<.O[.v)..)                                  .     B) ]_ ]_ ,/.P[.Q[.R[.S[.S@.n;.0%.0%.0%.3@.X@.X@.W@.W@.4@.9&.9&.9&.4@.n;.P*.T[.   U[.V[.[( 7<.7<.7<.7<.7<.=: d_.7/ W[.   X[.Y[.      Z[.`[. }..}.i .F+.k .k .l .3..m .o .o .+}.5..w=.s#.>+.J+.@}.6$.@#.7$.#}.$}.%}.&}.*}.=}.q_.'&.x-.2>.q*.s*.J=.B;.y-.4>.5>.S,.Q'.Q'.V!.U).U).F~.%'.|#.|#.V#.V#.;@.>@.n/.<^.-}.} .*, O..;}.>}.C:.C:.C:.C:.r<.r<.r<.b[.b[.b[.b[.b[.b[.b[.b[.r<.r<.r<.C:.C:.C:.C:.&@.&@.-@.-@.-@.;@.;@.;@.;@.V#.c[._%.X).,}.      '}.N;.)}.-).i[.t/.t/..:.P(.I<.!}.~}.{}.   ]}.^}./}.(}.$<._}.:}.<}.[}.<).}}.         r> |}.1}.2}.3}.K/.4}.5}.6}.7}.8}.~<.p,.o,.r,.r,.r,.r,.r,.9}.0}.w,.a}.b}.c}.~_.d}.e}.R{.8<.      f}.g}.h}.u,.|_.e}.p^ 8,  ].i}.",
"                                    D' j}.k}.l}.   m}.*' 7<.n}.d_.([.=: 7<.7<.o}.y!.i:.p} p}.q}.r}.@[                      EP s}.t}.u}.v}.w}.x}.&X y}.n;.n;.0%.0%.3@.3@.X@.X@.W@.W@.4@.9&.9&.9&.@,.z}.B!.(D A}.c_.B}.7<.7<.7<.7<.7<.7<.7<.>_ *: ]_ C}.D}.E}.F}.   f- G}.H}.I}.m#.F+.k .k .l .6@.m .-+.o .4..5..w=.s#.>+.J+.@}.a@.b@.v#.J}.K}.L}.M}.N}.O}.P}.w-.x-.2>.q*.s*.J=.B;.y-.4>.5>.S,.Q'.Q'.V!.U).U).F~.%'.|#.|#.V#.V#.;@.;@.>@.o{.l<.Q}.K<.R}.S}.T}.U}.y(.C:.C:.r<.r<.b[.b[.b[.b[.b[.b[.b[.b[.b[.r<.r<.r<.C:.C:.C:.C:.&@.&@.-@.-@.-@.;@.;@.;@.E@.V}.W}.X).X}.         Y}.Z}.O(.i[.i[.t/.t/..:.P(.`}. |..|.+|.         @|.#|.$|._}._'.%|.&|.*|.=|.-|.;|.            );.>|.,|.'|.)|.l,.!|.~|.{|.%>.]|.^|.^|.^|.>_./|.(|.V]._|.:|.<|.[|.M^.G;                   }|.||. ].L^.   1|.l!.2|.3|.",
"                                 4|.5|.6|.7:.}<.m' 7|.1( 8|.6/ k}.^(.s}.7<.7<.7<.B}.,/.p}.>' 9|.|(.y!.0|.               FK a|.B, 6:.b|.c|.d|.Q*.e|.'$.n;.n;.0%.0%.3@.3@.X@.W@.W@.4@.4@.9&.9&.e:.f|.g|.h|.i|.K[.j|.=: 7<.7<.7<.7<.7<.7<.7<.7<.[( k|.l|.   m|.n|.o|.   2] p|.q|.r|.j .j .k .2..6@.3..-+.o .4..5..w=.s#.>+.J+.0@.K+.6$.7$.w#.x#.s|.t|.u|.v|.w|.x|.x-.2>.q*.s*.J=.R,.y-.4>.5>.5>.Q'.Q'.V!.V!.U).F~.%'.|#.|#.V#.V#.;@.;@.;@.U#.y|.` .z|.   A|.B|.i{.C|.y(.C:.r<.r<.b[.b[.b[.b[.b[.b[.b[.b[.b[.b[.r<.r<.C:.C:.C:.C:.&@.&@.-@.-@.-@.;@.D@.D|.)@.E|.F|.G|.            H|.I|.O(.i[.i[.O(.t/..:.P(.`}.@:.J|.K|.O%.         (~.L|.M|.o>.N|.O|.P|.O|.Q|.R|.S|.R<.                  );.T|.U|.V|.W|.X|.Y|.Z|.`|. 1..1.+1.@1.#1.$1.&[.                                 *=.   %1.&1.}:.*1.=1.9}.",
"                                 -1.;1.[( >_ >1.^(.)(.,1.'1.)1.)1.]{.([.7<.7<.7<.=: 4_.!1.~1.{1.:[.]1.c_.^1.      N#    /1.:[.*< (1._1.:1.C).,].<1.[1.n;.n;.0%.0%.3@.V@.X@.W@.W@.4@.4@.Y&.I'.}1.>V |1.11.21.V< >_ 7<.7<.7<.7<.7<.7<.7<.7<.7<.=: ([.31.0G    41.51.61.   71.81.91.01.i .k .k .6@.3..-+.o .4..5..6...#.>+.+#.J+.K+.6$.##.w#.w#.a1.b1.c1.d1.6[.e1.>*.,*.q*.s*.J=.R,.y-.!,.C;.5>.Q'.Q'.V!.V!.U).F~.%'.|#.|#.V#.V#.;@.;@.;@.D@.U#.H&.f1.g1.   h1.i1.j1.k1.r<.r<.r<.b[.b[.b[.b[.b[.b[.b[.b[.b[.b[.r<.r<.r<.C:.C:.C:.C:.&@.-@.-@.-@.M%.o{.l1.}/.,@.m1.         n1.o1.p1.q1.r1.s1.i[.O(.t/.o^.P(.P(. |.t1.u1.v1.            ]%.t].w1.x1.y1.z1.&|.A1.|'.-<.B1.u[.C1.                              p^ wW wW wW p^                                              D1.u!.|:.i!.,(.3|.E1.q,.E>.",
"                                 F1.{{.G1.7<.O[.t}.H1.I1.J1.K1.8<.L1.1( >_ 7<.7<.7<.>_ >1.M1.N1.O1.P1.Q1.R1.S1.8,    =].T1.^(.`< U1.V1.b#.@,.P>.0%.9&.7&.oQ ++.++.++.9%.5@.8&.9&.4@.4@.V@.V@.W1.qT    ^( ]_ [( 7<.7<.7<.7<.7<.7<.7<.7<.7<.7<.7<.o}.*: y!.>(.   X1.Y1.Z1.   `1. 2..2.+2.k .k .6@.6@./>.o .4..5..I+.8@.s#.+#.J+.K+.6$.##.$#.w#.@2.#2.$2.%2.&2.*2.=2.,*.q*.s*.s*.R,.y-.z-.C;.5>.Q'.Q'.V!.V!.U).F~.%'.|#.|#.V#.V#.;@.;@.;@.;@.D@.h+.`'.-2.;2.   >2.0/.k1.F:.r<.b[.b[.b[.b[.b[.b[.b[.b[.b[.b[.b[.r<.r<.r<.C:.C:.C:.C:.&@.-@.-@.f+.d>.c>.,2.'2.').            )2.!2.~2.{2.k].s1.i[.O(.t/.o^.P(.P(.`}.@:.]2.^2.&!             .[ /2.(2._2.:2.%|.<'.<2.[2.}2.|2.12.22.32.                                       N# K$.2:.42.&[.52.62.62.UA %[.72.c|.82.92.02.a2.C[.)_.b2.c2.q,.q,.f'.e'.",
"                                 wW =: >1.>_ =: x).d2.e2.)[.R1.wW f2.7/ 7<.=: 7<.7<.7<.>_ )[.g2.B) 7<.Q1.h2.i2.j2.k2.]1.m~.l2.m2.n2.o2.6&.0%.p2.'$.q2.2%.r2.+,.s2.X].t2.u2.k;.4@.v2.W@.w2.t~.x2.   y2.)[.z2.7<.7<.7<.7<.7<.7<.7<.7<.7<.7<.7<.7<.7<.d, 3_.J,    5u A2.B2.C2.   D2.E2.F2.G2.i_.l .6@.m .-+.7@.H+.H+.6..s#.9@.J+.K+.6$.##.$#.w#.l_.H2.I2.J2.K2.L2.=2.,*.q*.I=.I=.R,.B;.z-.C;.5>.S,.Q'.V!.V!.U).F~.%'.|#.|#.V#.V#.;@.;@.;@.;@.D@.-@.f+.M2.N2.O2.M#.P2.Q2.F:.s<.R2.b[.b[.b[.b[.b[.b[.b[.b[.b[.b[.b[.r<.r<.C:.C:.C:.C:.&@.-@.n{.S2.a[.T2.U2.                  V2.W2.   X2.Y2.-).i[.O(.O(.o^.o^.j[. |.Z2.t1.`2. 3.                  .3.+3.@3.#3.$3.%3.&3.s>.':.*3.=3.-3.;3.>3.,3.'3.)3.!3.~3.{3.]3.^3./3.(3._3.:3..1.<3.[3.E>.E>.}3.}3.|3._:.F>.13.23.)_.)_.33.43.E1.r,.q,.E>.r,._:.53.",
"                                    63.B, 7<.=: ^( 6<.73.83.2) >[.4] 93.,/.03.7<.7<.7<.O[.O[.1(.*) a3.b3.>1.M1..[ c3.)[.d3.e3.f3.g3.X@.h3.i3.j3.k3.l3.m3.n3.v~.o3.%$.p3.q3.r3.*X n;.s3.t3.u3.M+ v3.:[.>_ 7<.7<.7<.7<.7<.7<.7<.7<.7<.7<.7<.7<.7<.7<.=: ([.0:. [    w3.x3.y3.      z3.A3.F+.eO l .6@.m .-+.7@.H+.5..6..s#.9@.J+.K+.B3.##.$#.w#.l_.C3.',.D3.E3.F3.G3.,*.q*.3>.I=.R,.B;.z-.;;.5>.S,.Q'.V!.U).U).F~.%'.|#.|#.V#.}#.;@.;@.;@.;@.D@.-@.-@.h+.=@.H3.I3.J3.K3.L3.w_.F:.b[.b[.b[.b[.b[.b[.b[.b[.b[.b[.b[.r<.r<.r<.C:.C:.C:.&@.m/.M3.N3.O3.P3.                  Q3.R3.S3.x@ T3.U3.O(.O(.i[.O(.t/.V3.W3.X3.Y3.Z3.`3. 4.4]                      .4.+4.@4.#4.P|.$4.%4.&4.t>.*4.=4.-4.;4.>4.,4.K/.'4.)4.!4.~4.~4.{4.%>.]4.]|.b'.^4.H>./4./4./4.I>./4.13.h!._:.9}.r,.q,.q,.q,.q,.E>.E1.h!.(4._4.",
"                                    !< Q1.y!.=: =: z'.!_ )(.{_ G;    W] x).Q1.7<.7<.7<.7<.O[.V< 83.:4.]_ ](.<4.p} 4:.[4.}4.j2.|4.s3.F).14.24.24.,$.^[.4@.9%.++.++.7&.B+.V@.34.--.I!.44.54.ED 64.4:.O[.=: 7<.7<.7<.7<.7<.7<.7<.7<.7<.7<.7<.7<.7<.7<.7<.[( ]{.6<.74.   84.94.04.   x+ a4.b4.G2.2[.6@.m .-+.7@.H+.5..6..s#.,+.%,.c<.6$.##.d<.w#.l_.&#.c4.d4.e4.f4.g4.h4.2>.I=.I=.R,.B;.z-.;;.5>.S,.Q'.V!.U).U).F~.%'.|#.|#.V#.}#.;@.;@.;@.;@.D@.-@.-@.&@.a^.i4.j4.>}.k4.#~.l4.E_.G:.r<.b[.b[.b[.b[.b[.b[.b[.b[.b[.b[.r<.r<.C:.C:.C:.M2.m4.[&.n4.                     o4.p4.q4.r4.s4.t4.I|.N;.u4.s/.,'.v4.w4.x4.y4.z4.A4.B4.C4.                           D4.E4.#4.F4.['.G4.`(.H4.I4.H4.):.J4.J4.K4.L4.#_.Y<.'<.{:.{:.A>.M4.N4.B>.p,.p,.O4.e'.O4.O4.e'.e'.e'.q,.E>.E>.E>.E>.E>.E>.e'.<3.c).P4.Q4.R4.",
"                                       S4.R1.=: =: 6:.f/ G;             T4.v).=: 7<.7<.7<.7<.O[.h2.=: B, U4.   O[.V4.W4.X4.Y4.Z4.`4.=/.X@.7&.9%.Y&.4@.V@. 5.3@.0%.V@.V@.p;..5.+5.@5.#5.!Q +[ A'.G[ >_ 7<.7<.7<.7<.7<.7<.7<.7<.7<.7<.7<.7<.7<.7<.7<.7<.7<.o}.$5.%5.   &5.*5.=5.-5.   9) E` ;5.>5.6@.m .-+.7@.H+.5..6..s#.,+.%,.c<.a@.##.d<.w#.,5.'5.c4.)5.!5.~5.{5.]5.2>.I=.I=.J=.B;.z-.;;.5>.S,.Q'.V!.U).U).F~.%'.|#.|#.V#.}#.;@.;@.;@.D@.D@.-@.-@.&@.&@.D:.^5.m(.T}./5.(5._5.:5.w_.<5.b[.b[.b[.b[.b[.b[.b[.b[.b[.r<.r<.C:.C:.[5.j(.}5.|5.                        15.25.35.45.55.5<.65.75.85.95.05.a5.b5.W=.c5.d5.e5.                                       f5.g5.h5.i5.j5.k5.':.I4.I4.V;.V;.F^.x>.l5.Z;.Z;.m5.'<.n5.A>.M4.N4.)<.)<.C>.~<.o5.o5.o5.E>.E>.q,.q,.q,.q,.q,.e'.r,.p5.q5.r5.V/.   s5.",
"                                       t5.u5.^(.=: o}.)[.&)             v5.]1.O[.7<.7<.7<.7<.7<.93.m~.y!.FK w5.V4.U[.x5.y5.z5.e|.<1.@,.=/.P>.A5.@,.n;.0%.3@.V@.V@.V@.9&.B5.C5.D5.E5.F5.G5.1( H5.6:.^(.>_ 7<.7<.7<.7<.7<.7<.7<.7<.7<.7<.7<.7<.7<.7<.7<.7<.>_ e' I5.J5.   K5.L5.M5.N5.   O5.P5.Q5.R5.m .-+.7@.H+.5..6..s#.,+.%,.c<.6$.##.d<.w#.,5.'5.S5.T5.U5.V5.W5.X5.Y5.I=.I=.J=.B;.z-.;;.5>.S,.Q'.V!.U).U).F~.%'.|#.|#.V#.}#.;@.;@.;@.D@.-@.-@.-@.&@.&@.C:.D:.n(.t<.Z5.`5. 6..6.+6.@6.b[.<5.b[.b[.b[.b[.b[.b[.b[.r<.r<.C:.C:.k1.Z'.w_.O~.                     #6.$6.%6.&6.45.*6.   =6.-6.-..                                                                     ;6.>6.,6.'6.)6.!6.~6.{6.{6.]6.^6./6.(6._6.:6.<6.[6.}6.|6.16.26.36.46.46.46.46.56.66.h!.h!.h!.h!.h!.13.>_.P4.76.86.I[.      96.",
"                                       N# O1.t}.06.W< 8|.7:.&,       k~.]_ Q1.7<.7<.7<.7<.7<.7<.>_ 4:.a6.   e' b6.c6.}Z p;.d6.`4.<1.P>.=/.@,.'$.'$.0%.3@.3@.V@.V@.V@.W@.&X e6.K].f6.g6.h6.i6.j6.k6.7<.m~.>_ 7<.7<.7<.7<.7<.7<.7<.7<.7<.7<.7<.7<.7<.7<.7<.7<.[( l6.m6.n6.   o6.p6.q6.      r6.s6.t6.u6.o .7@.H+.5..6..s#.,+.%,.c<.6$.##.d<.w#.,5.'5.9$.),.v6.w6.x6.y6.2>.I=.I=.J=.B;.z-.;;.5>.S,.Q'.V!.V!.U).F~.%'.|#.|#.V#.}#.;@.;@.;@.D@.-@.-@.-@.&@.C:.C:.C:.r<.z6.A6.B6.C6.D6.E6.F6.T}.K:.b[.r<.b[.b[.b[.b[.b[.r<.r<.C:.C:.k1.Z'.S2.G6.                  H6.I6.J6.K6.L6.M6.35.N6.                                                                                    4] O6.P6.Q6.R6.S6.T6.U6.v>.V6.W6.X6.3}._6.4;.Y6.Z6.l,.`6.5}.{4.%>. 7.%>..7.b'.^4.b'.+7.@7.G>./:.#7.L>.$7.               ",
"                                          d& R1.H' 7<.B}.m~.v).l}.   {1.%7.>_ =: 7<.7<.7<.7<.[( ]1.!1.|C {( A'.&7.*7.=7.sU sU <1.<1.P>.=/.@,.'$.'$.0%.3@.V@.V@.V@.X@.0%.-7.=/.;7.>7.,7.>_ '7.M[.)7.!7.([.^( =: 7<.7<.7<.7<.7<.7<.7<.7<.7<.7<.7<.7<.7<.7<.7<.7<.~7.{7.]7.   ^7./7.(7._7.      :7.<7.[7.}7.7@.H+.5..6..s#.,+.%,.c<.a@.##.d<.w#.,5.'5.9$.%%.|7.17.27.37.47.3>.I=.R,.B;.z-.;;.5>.S,.Q'.V!.V!.U).F~.%'.|#.|#.V#.}#.;@.;@.;@.D@.-@.-@.-@.&@.C:.C:.r<.r<.r<.<5.G:.57.67.6/.77.87.97.07.a7.b[.r<.b[.b[.b[.r<.r<.C:.C:.k1.Z'.f+.c5.                  b7.c7.d7.e7.f7.g7.h7.i7.                                                                                                p^ );.p^ *=.<%.j7.32.k7.k7.Q` l7.R4.6~.m7.n7.o7.p7.q7.%1.S/.r7.s7.t7.t7.o7.u7.v7.I[.p^                      ",
"                                             w7.k|.>_ 7<.o}.]{.R1.l}.k2.]: V[.-: >_ 7<.7<.=: d_.7/ x7.&! h6.y7.z7.A7.B7.C7.`4.<1.<1.P>.=/.@,.'$.'$.0%.3@.V@.V@.V@.X@.3@.~>.D7.E7.F7.1_.8|.4_.,7.5|.G7.H7.b3.([.7<.7<.7<.7<.7<.7<.7<.7<.7<.7<.7<.7<.7<.7<.7<.7<.-[.>: I7.'<    J7.K7.L7.M7.      N7.O7.P7.Q7.p .5..6..s#.,+.%,.c<.a@.##.d<.w#.,5.'5.9$.%%.G=.R7.S7.T7.U7.3>.I=.R,.B;.z-.;;.5>.6>.Q'.V!.V!.U).F~.%'.|#.|#.V#.}#.;@.;@.;@.D@.-@.-@.-@.&@.C:.C:.r<.r<.r<.r<.b[.F:.V7.57.W7.X7.Y7.Z7.`7.K:.w_.b[.b[.b[.r<.r<.C:.C:.a^. 8..8.                  +8.@8.#8.$8.%8.&8.*8.=8.-8.                                                                                                                                                                                                            ",
"                                             ;8.x).!1.=: 7<.[( >8.1(.,8.   `] ]{.d_.7<.7<.z2.B, 2_.   k2.&) '8.)8.!8.D$.~8.{8.]8.]8.=/.@,.'$.n;.n;.3@.3@.V@.V@.X@.W@.W@.7&.^8./8.(8.e' 7<.7<.>_ -: ]_ _8.:8.]_ B}.7<.7<.7<.7<.7<.7<.7<.7<.7<.7<.7<.7<.7<.7<.-: -: ~7.<8.[8.      }8.|8.18.      w'.AZ 28.38.+}.5..6..s#.9@.J+.c<.6$.##.$#.w#.l_.&#.9$.48.w%.P}.58.68.78.88.I=.R,.B;.z-.C;.5>.Q'.Q'.V!.U).U).%'.%'.|#.V#.V#.}#.;@.;@.;@.D@.-@.-@.-@.&@.C:.C:.r<.r<.b[.b[.b[.b[.b[.<5.V7.T}.98.08.a8.b8.c8._5.b[.b[.r<.r<.C:.a^.r$.B_.d8.               e8.f8.g8.h8.i8.j8.k8.l8.m8.n8.N#                                                                                                                                                                                                          ",
"                                       tI o8.p8.q8.r8.>_ 7<.7<.-_ m~.{{.63.1] s8.m6.O[.>_ *< m~.UA    8) t8.![.8|.b) u8.v8.4@.S@.=/.@,.@,.'$.n;.n;.3@.V@.V@.X@.X@.4@.4@.W@.B5.G).w8.>8.7<.7<.7<.>_ 6<.M1.0|.x8.d_.7<.7<.7<.7<.7<.7<.7<.7<.7<.7<.7<.7<.7<.7<.-: -: -[.y8.)_ z8.   A8.B8.C8.D8.      ~: E8.F8.G8.5..6..s#.9@.J+.K+.6$.##.$#.w#.l_.&#.9$.48.w%.H8.I8.J8.K8.@=.I=.R,.B;.z-.C;.5>.L8.Q'.V!.U).U).%'.%'.|#.V#.}#.;@.;@.;@.D@.D@.-@.-@.-@.&@.C:.C:.r<.r<.b[.b[.b[.b[.b[.b[.r<.r<.V7.M8.N8.08.O8.V7.b[.b[.r<.r<.C:.k1.P8.4/.D4.               Q8.R8.S8.S8.T8.U8.V8.V8.W8.X8.Y8.                                                                                                                                                                                                         ",
"                                    Z8.`8. 9..9.   ,/.^(.7<.7<.7<.>_ ([.7:.i:.6/ 7<.7<.7<.)8.d/    f2.:[.([.o}.d_.-< +9.@9.#9.S@.@,.@,.[1.n;.n;.0%.V@.V@.X@.X@.X@.4@.4@.V@.J).$9.ZI %9.7<.7<.7<.7<.7<.]_ {( d2.]1.=: 7<.7<.7<.7<.7<.7<.7<.7<.7<.7<.7<.7<.7<.-: -: &9.>7.*9.=9.      -9.;9.>9.,9.      '9.)9.xS !9.6..s#.+#.J+.K+.6$.##.$#.w#.l_.8$.9$.%%.w%.H=.I8.~9.'*.{9.I=.R,.y-.z-.;;.S,.Q'.Q'.V!.U).U).%'.%'.|#.V#.}#.;@.;@.;@.D@.D@.-@.-@.-@.&@.C:.C:.r<.r<.b[.b[.b[.b[.b[.b[.b[.b[.b[.<5.V7.]9.b[.b[.b[.r<.r<.C:.y(.^9.` ./9.               (9._9.:9.S8.<9.i8.[9.}9.|9.19.29.39.                                                                                                                                                                                                         ",
"                                 &! 49.59.   69.79.89.,/.O[.7<.7<.7<.=: d_.^(.([.7<.7<.H' ,/.99.   3:.v).[( 7<.7<.!1.09.a9.}1.V@.]8.@,.b9.n;.0%.3@.V@.V@.X@.W@.W@.4@.4@.c9.d9.i3.e9.i' G1.7<.7<.7<.=: m~.v5.f9.!1.i:.=: 7<.7<.7<.7<.7<.7<.7<.7<.7<.7<.7<.7<.-: -: &9.>7.g9.h9.8,    i9.j9.k9.l9.         m9.n9.o9.p9.>+.+#.J+.K+.6$.##.$#.w#.l_.8$.q&.v%.w%.q9.r9.s9.t9.u9.v9.R,.z-.!,.5>.5>.Q'.Q'.V!.U).U).%'.%'.|#.V#.}#.;@.;@.;@.D@.D@.-@.-@.-@.&@.C:.C:.r<.r<.b[.b[.b[.b[.b[.b[.b[.b[.b[.b[.b[.b[.b[.b[.b[.r<.r<.C:.k1.w9.x_.x9.            y9.z9.A9.B9.I6.C9.<9.D9.E9.F9.G9.H9.I9.                                                                                                                                                                                                         ",
"                              J9.K9.L9.M9.N9.O9.P9.Q9.R9.7<.7<.7<.7<.7<.7<.7<.7<.7<.7<.([.,/.S9.G; m~.6:.O[.7<.7<.h2.T9.U9.V9.W9.]8.@,.n;.n;.0%.V@.V@.X@.X@.W@.W@.4@.9&.W@.X9.Y9.Z9.`9.*< 7<.7<.7<.7<.([.]{. 0..0.y!.=: 7<.7<.7<.7<.7<.7<.7<.7<.7<.7<.7<.-: -: -: &9.&9.+0.@0.-,       #0.$0.%0.&0.         *0.=0.-0.;0.+#.J+.K+.6$.##.>0.w#.l_.8$.q&.v%.w%.H=.,0.z%.'0.)0.!0.~0.z-.4>.5>.S,.Q'.Q'.V!.U).U).%'.]^.|#.V#.}#.;@.;@.;@.D@.D@.-@.-@.-@.&@.C:.C:.r<.r<.b[.b[.b[.b[.b[.b[.b[.b[.b[.b[.b[.b[.b[.b[.r<.r<.C:.C:.U}.{0.]0.               *_ ^0./0.<9.K6.(0._0.:0.<0.[0.}0.|0.10.*_                                                                                                                                                                                                       ",
"                              /C 20.   30.40.50.   60.m6.i:.O[.7<.7<.7<.7<.7<.7<.7<.7<.7<.)8.=].p^ -: *: =: 7<.7<.=: F[ 70.80.90.00.'$.0%.0%.3@.V@.4@.X@.W@.W@.4@.9&.9&.W@.9W a0.O5.b0.b3.>_ 7<.7<.7<.=: f' &' j2.6<.G[ 7<.7<.7<.7<.7<.7<.7<.7<.7<.7<.-: -: -: &9.&9.c0.d0.e0.f0.G;    g0.h0.i0.j0.k0.         l0.m0.;0.'+.0@.a@.6$.v#.w#.x#.&#.$%.q&.v%.w%.r&.n0.o0.p0.q0.r0.s0.z-.!,.5>.S,.Q'.T,.V!.t0.F~.%'.]^.|#.V#.}#.;@.;@.;@.D@.D@.-@.-@.-@.&@.C:.C:.r<.r<.r<.r<.b[.b[.b[.b[.b[.b[.b[.b[.b[.b[.b[.r<.r<.r<.C:.a^.z|.u0.G(.                     v0.w0.x0.h8.y0.I6.z0.A0.B0.C0.D0.E0.                        .[                                                                                                                                                                            ",
"                           F0.G0.H0.I0.AK J0.K0.L0.M0.b) y!.=: 7<.7<.7<.7<.7<.7<.7<.7<.=: ,/.N0.   O0.[4.>_ 7<.7<.=: V< P0.Q0.R0.3@.'$.0%.0%.V@.V@.4@.6&.4@.S0.9&.9&.9&.4@.)$.T0.D,.U0.,/.>_ 7<.7<.7<.7<.([.V0.{( W0.X0.=: 7<.7<.7<.7<.7<.7<.7<.7<.7<.-: -: -: &9.&9.c0.Y0.Z0.`0. a.      .a.+a.@a.#a.$a.      %a.&a.*a.=a.-a.a@.@#.7$.w#.x#.&#.$%.q&.v%.x%.'&.a=.;a.>a.,a.'a.)a.!a.4>.5>.S,.Q'.Q'.V!.U).F~.%'.]^.|#.V#.}#.;@.;@.;@.;@.D@.-@.-@.-@.&@.C:.C:.C:.r<.r<.r<.b[.b[.b[.b[.b[.b[.b[.b[.b[.b[.b[.r<.r<.r<.y(.k1.~a.{a.^!.                     ]a.&8.^a./a.(a._a.:a.<a.[a.}a.|a.1a.                     2a.-).3a.O;.O~.                                                                                                                                                                  ",
"                        4a.5a.6a.   7a.8a.   9a.0a.aa.ba.t}.=: 7<.7<.7<.7<.7<.7<.7<.7<.>_ ]1.ca.   I1.da.=: 7<.7<.7<.([.ea.fa.FP ga.;].3@.3@.V@.Y&.ha.ia.s=.9&.W@.9&.9&.Y&.ja.ka.la.ma.na.d_.7<.7<.7<.7<.W< m6.oa.G7.>1.=: 7<.7<.7<.7<.7<.7<.7<.7<.-: -: -: &9.&9.c0.c0.Y0.pa.qa.ra.      sa.ta.ua.va.wa.         xa.ya.za.Aa.6$.b@.7$.w#.l_.&#.p&.%%.v%.x%.'&.a=.U7.Ba.Ca.Da.Ea.Fa.4>.5>.S,.Q'.T,.V!.U).F~.%'.]^.|#.V#.}#.;@.;@.;@.D@.D@.-@.-@.-@.&@.C:.C:.C:.r<.r<.r<.r<.b[.b[.b[.b[.b[.b[.b[.b[.r<.r<.r<.C:.C:.k1.Ga.Ha.Ia.                           Ja.Ka.(a.La.Ma.Na.N6.Oa.Pa.Qa.Ra.                  Sa.75.75.z{.Ta.)!.Ua.Va.Wa.XW                                                                                                                                                       ",
"                     Xa.Iy Ya.Za.`a. b..b.+b.@b.#b.$b.%b.*' O[.7<.7<.7<.7<.7<.7<.7<.7<.>_ *: B}.|C &b.b3.([.O[.7<.7<.d_.l2.*b.=b.Z4.-b.3@.3@.V@.X@.6&.ia.0%.;b.V@.W@.Y&.Y&.V@.6%.>b.K' `9.;[.=: 7<.7<.7<.([.,b.2_.'b.([.Q1.=: 7<.7<.7<.7<.7<.7<.7<.-: -: -: &9.&9.c0.c0.Y0.)b.!b.~b.{b.      ]b.^b./b.(b._b.         :b.<b.[b.}b.|b.7$.w#.l_.'5.$%.48.v%.x%.'&.x-.1b.2b.3b.4b.5b.6b._-.T!.S,.Q'.T,.V!.U).F~.%'.]^.|#.V#.}#.;@.;@.;@.D@.D@.-@.-@.-@.&@.&@.C:.C:.C:.r<.r<.r<.r<.b[.b[.b[.b[.b[.r<.r<.r<.r<.r<.y(.7b.b].a/.8b.                                 9b.0b.ab._a.K6.   bb.cb.db.eb.fb.            4] gb.z{.m^.i[.hb.Ta.ib.3,.jb.V3.m>.kb.lb.mb.O~.4]                                                                                                                                     ",
"                     nb.ob.   pb.qb.   O] rb.sb.      j2.[4.([.7<.7<.7<.7<.7<.7<.7<.7<.=: 6:.-< >(.tb.m6.!1.=: 7<.7<.7<.6<.[:.ub.vb.4@.0%.3@.8_.wb.D).xb.yb.zb.d9.W@.D+.Y&.4@.oQ Ab.Bb.Cb.b3.7<.7<.7<.7<.d_.e' 83.Db.v5.m~.>_ 7<.7<.7<.7<.7<.7<.7<.-: -: -: &9.&9.c0.Y0.Y0.Eb.Fb.Gb.Hb.      Ib.Jb.Kb.Lb.Mb.Nb.         Ob.Pb.Qb.Rb.7$.Sb.l_.Tb.$%.%%.v%.x%.>*.a=.Ub.Vb.Wb.Xb.Yb.Zb.`b. c.S,.Q'.T,.V!.U).F~.%'.]^.|#.V#.}#.;@.;@.;@.;@.D@.-@.-@.-@.&@.&@.C:.C:.C:.r<.r<.r<.r<.r<.r<.b[.r<.r<.r<.r<.r<.r<.C:.C|.C|..c.E_.+c.                                 @c.:9.^a.S8.#c.$c.%c.&c.*c.=c.-c.            ;c.>c.,c.H<.-).O(.-).-).i[.;).'c.)c.!c.~c.{c..{.]c.^c./c.(c.M#.                                                                                                                        ",
"                     _c.:c.<c.[c.}c.L9.|c.}c.1c.2c.3c.4c.u5.!1.O[.7<.7<.7<.7<.7<.7<.7<.O[.i:.X0.5c.,' e' w).=: 7<.7<.=: y!.b)  ^.6c.34.'$.0%.p;.@,.7c.P&.8c.9c.0c.z5.3@.Y&.8&.ac.bc.cc.dc.~[.7<.7<.7<.7<.7<.h2.ec.S1.fc.y!.7<.7<.7<.7<.7<.7<.7<.-: -: -: &9.&9.c0.Y0.Y0.Eb.Eb.gc.hc.ic.H,       jc.kc.lc.mc.nc.oc.         c..pc.qc.rc.l_.l_.8$.u%.v%.G=.H=.>*.a=.sc.tc.uc.vc.   wc.xc. c.S,.Q'.T,.V!.U).F~.%'.]^.|#.V#.}#.}#.;@.;@.;@.D@.-@.-@.-@.&@.&@.C:.C:.C:.C:.C:.r<.r<.r<.r<.r<.r<.r<.r<.r<.r<.y(.e+.yc.zc.Ac.Bc.                                       Cc.@8.Dc.Ec.Fc.Gc.Hc.Ic.Jc.Kc.            Lc.Mc.Nc.Oc.Pc.-).H<.O(.-).H<.H<.Z~.o^.Qc.Rc.Sc.Tc.Uc.Vc.Wc.Xc.Yc.Zc.`c. d.p^                                                                                                          ",
"                  .d.+d.@d.#d.$d.%d.&d.*d.   =d.-d.;d.   Q1.6:.=: 7<.7<.7<.7<.7<.7<.7<.7<.([.]_ >d.   83.*: =: 7<.7<.7<.4_.,d.'d.)d.z5.[1.>].{>.!d.i, ~d.#M {d.]d.D+.9%.Y&.8&.r~.^d./d.r}.(d._d.7<.7<.7<.7<.d_.!1.y7.5| :d.([.7<.7<.7<.7<.7<.-: -: -: -: &9.&9.c0.Y0.Y0.Eb.Eb.<d.<d.[d.ZI       }d.|d.1d.2d.3d.4d.5d.         6d.7d.n*.8d.9d.p&.q&.v%.{^.H=.>*.a=.q*.0d.ad.bd.<%.-..cd.dd.ed.Q'.T,.U).U).F~.%'.]^.|#.V#.V#.}#.;@.;@.;@.D@.D@.-@.-@.-@.&@.C:.C:.C:.C:.C:.C:.r<.r<.r<.r<.r<.r<.r<.C:.y(.U}.fd.gd.hd.id.                                             jd.kd._a.ld.md.nd.od.pd.qd.      rd.sd.td.   ud.vd.wd.xd.yd.zd.hb.!~.Ad.i[.Bd.Cd.`~.Dd.Dd.Ed.Fd.Gd.Hd.Id.Jd.]2.Kd.Ld.Md.O~.                                                                                                   ",
"                  Nd.Od.Pd.   Qd.Rd.   Sd.Td.Ud.   Vd.Wd.Xd.[4.=: 7<.7<.7<.7<.7<.7<.7<.7<.7<.z^ t)    Yd.>1.O[.7<.7<.7<.7<.-< Zd.`d. e.3@.B!..e.+e.@e.#e.$e.%e.;X &e.$$.*e.8&.8&.V&.=e.-e.!8.]_ >_ 7<.7<.7<.7<.!1.v5.;e.>e.y!.W< 7<.7<.7<.7<.-: -: &9.&9.&9.c0.c0.Y0.Eb.Eb.,e.<d.'e.)e.P^.o].      !e.~e.{e.]e.^e./e.(e.         _e.:e.<e.[e.8$.9$.v%.<].r&.x-.,*.sc.tc.}e.|e.1 .   1e.2e.3e.4e.T,.U).U).F~.%'.]^.|#.V#.V#.}#.;@.;@.;@.;@.D@.-@.-@.-@.-@.&@.C:.C:.C:.C:.C:.C:.C:.C:.C:.C:.C:.C:.y(.y|.5e.0/.#~.                                                   6e.7e.8e.9e.0e.ae.be.ce.de.0e.ee.fe.ge.he.ie.je.   td.ke.le.me.ne.oe.Y2.`_.pe.qe.re.;).o^.se.se.u/.te.k[. |.`}.ue.ve.(!.we.xe.                                                                                                ",
"            *_ ye.ze.Ae.Pd.Be.Ce.De.Ee.Fe.Ge.K0.He.Ie.Je.Ke.r8.O[.7<.7<.7<.7<.7<.7<.7<.=: d_.K[.}(.   Le.Me.7<.7<.7<.7<.7<.Ne.%5.h3.Oe.X@.Y&.Pe.Qe.Re.CL (@.Se.Te.Ue.Ve.8&.8&.8&.s=.We.Xe.Ye.>1.-_ 7<.7<.7<.=: x8.H' Ze.&) u}.W< 7<.7<.7<.-: -: -: &9.&9.&9.c0.c0.Y0.Eb.Eb.,e.<d.`e. f. (.U/.      .f.+f.@f.#f.$f.%f.&f.*f.         =f.-f.;f.>f.,f.v%.w%.r&.x-.,*.'*.'f.)f.!f.         ~f.{f.]f.^f.U).U).F~.%'.]^.|#.V#.V#.}#.;@.;@.;@.;@.D@.-@.-@.-@.-@.&@.C:.C:.C:.C:.C:.C:.C:.C:.C:.C:.C:.C:.0^./f.(f._f.                                                         :f.<f.[f.}f.|f.1f.2f.3f.4f.5f.6f.7f.8f.9f.0f.af.bf.      *, N-.cf.df.ef.ff.gf.hb.w4.hf.if.jf.{c.kf.lf.`}. |.I<.mf.nf.of.(!.pf.]%.                                                                                          ",
"            qf.rf.sf.   tf.uf.vf.   wf.xf.   yf.h6  b.   &[.Z].6:.>_ 7<.7<.7<.7<.=: 7<.]1.]_ zf.Af.   63.7:.d_.7<.7<.7<.=: i' Bf.Cf.&X 4@.4@.D+.&e.Df.Ef.Ff.!Z ha.4@.Gf.8&.8&.8&.B+.7%.Hf.If.^( 7<.7<.7<.7<.7<.O[.Z].Jf.&, ^(.4_.=: 7<.-: -: -: -: &9.&9.c0.c0.Y0.Eb.Eb.,e.,e.<d.Kf.Lf.l).Mf.         Nf.Of.Pf.Qf.Rf.Sf.Tf.Uf.         Vf.Wf.O'.Xf.),.S).r&.x-.,*.u&.Yf.Zf.               `f. g..g.+g.U).F~.%'.]^.|#.V#.V#.}#.;@.;@.;@.;@.D@.-@.-@.-@.-@.-@.&@.&@.C:.C:.C:.C:.C:.C:.C:.C:.k1.M~.@g.#g.$g.                                                               %g.&g.*g.=g.-g.;g.>g.,g.   'g.)g.!g.~g.{g.]g.^g./g.(g._g.               :g.<g.[g.}g.|g.1g.;).2g.3g.4g.5g.6g.7g.8g.9g.Hd.0g.ag.bg.                                                                                       ",
"            cg.dg.eg.fg.gg./C hg.   ig.jg.kg.lg.mg.ng.mg.og.pg.31.o}.7<.7<.7<.7<.qg.]1.rg.sg.tg.ug.   vg.7:.h2.7<.7<.7<.>_ ]_ wg.xg.Z%.V@.3<.8&.yg.zg.Ag.Bg.S@.4@.Cg.Dg.8&.B+.X@.++.8R Eg.Fg.i' 7<.7<.7<.7<.7<.W< 6<.,1.f, n' ]_ =: 7<.-: -: -: -: &9.&9.c0.c0.Y0.Eb.Eb.,e.<d.<d.Kf.o!.Gg.Hg.42.      Ig.Jg.Kg.Lg.Mg.Rf.Ng.Og.Pg.         Qg.Rg.Sg.Tg.Ug.e1.X5.Vg.Wg.Xg.Yg.                  Zg.`g. h..h..h.%'.%'.|#.|#.V#.V#.;@.;@.;@.;@.;@.-@.-@.-@.-@.-@.&@.&@.&@.&@.C:.C:.&@.&@.M2.j1.+h.@h.#h.A|.                                                                  $h.%h.&h.   *h.=h.-h.;h.3: >h.,h.'h.~g.)h.!h.~h.{h.]h.^h./h.(h.4]                      ^!._h.:h.<h.[h.}h.|h.1h.2h.2h.^2.3h.4h.5h.                                                                                       ",
"         6h.7h.   8h.9h.=d.   0h.ah.   bh.Fy ch.   dh.n3 eh.   da.P1.[( 7<.7<.7<.1( fh.   gh.hh.ih..  jh.)< 4_.7<.7<.7<.=: m~.kh.H'.lh.D).4@.I'.9&.mh.nh.oh. 5.ph.*e.8&.W@.I'.Y%.qh.rh.sh.th.V< =: 7<.7<.7<.7<.7<.qg.[4.o~.uh.](.s}.7<.-: -: -: &9.&9.c0.c0.Y0.Y0.Eb.Eb.,e.<d.<d.Kf.=(.Z^.u,.vh.         wh.xh.Lg.Mg.yh.zh.Ah.Bh.Ch.         Q{.Dh.Eh.Fh.Gh.Hh.Ih.Jh.Kh.r>                   Lh.Mh.Nh.Oh.%'.F~.%'.|#.|#.V#.V#.;@.;@.;@.;@.;@.D@.-@.-@.-@.-@.-@.-@.&@.&@.&@.c].v_.m/.Ph.` .B@.Qh.Rh.                                                                        Sh.Th.Uh.Vh.Wh.Xh.Yh.Zh.   `h. i.!g..i..i.)h.!g.+i.@i.^g.#i.$i.%i.N-.                                    ^!.&i.*i.XW ]!.);.=i.-i.+!.*,                                                                               ",
"         *_ ;i.>i.,i.'i.)i.!i.~i.{i.]i.^i./i.(i._i.:i.}z <i.[i.}i.|i.Q1.[( 7<.-< 1i.x7.2i.3i.4i.5i.6i..[ ![.*< 7<.7<.7<.7<.d_.]{.7i.8i.}Z 9i.J).Z4.-/.8%.s=.8&.8&.0i.s=.X%.ai.1@.bi.;8.ci.Z].=: 7<.7<.7<.7<.7<.7<.>_ di.ei.fi.([.>8.-[.-: -: &9.&9.c0.c0.c0.Y0.Eb.Eb.,e.<d.<d.Kf.n!.gi.hi.ii.#[.N#       ji.ki.li.mi.ni.oi.pi.qi.ri.si.            ti.ui.vi.wi.xi.yi.zi.                     );.Ai.Bi.Ci.Di.Ei.%'.|#.|#.V#.V#.}#.;@.;@.;@.;@.;@.D@.-@.-@.-@.-@.-@.-@.-@.-@.m/.Fi.Gi.q$.Hi.Ii.                                                                              *_ Ji.Ki.*, Li.Mi.Ni.Oi.   Pi.Qi.Ri.Si.Si.Ri..i.Ti.!g.Ui.Vi.Wi.^g.Xi.Yi.Zi.`i.^!.            :g.j]. j..j.+j.@j.#j.$j.%j.&j.*j.=j.-j.;j.>j.Md.,j.*=.                                                                  ",
"         N# 'j.)j.!j.   ~j.{j.]j.   ^j./j.   (j._j.:j.   <j.^i.   [j.}j.*[.[( !1.|j.1j.2j.3j.,>.4j.5j.   [<.6:.7<.7<.7<.7<.O[.^(.h' 6j.7j.DR 8j.9j.^d.0j.J).b#.Z%._=.c#.V&.aj.bj.cj.dj.,/.o}.7<.7<.7<.7<.7<.7<.7<.=: !1.y!.L^.ej.fj.gj.-: -: &9.&9.c0.c0.c0.Y0.Eb.Eb.,e.<d.<d.Kf.n!.V^.hj.ij.jj.kj.         lj.mj.mi.nj.oj.pj.qj.rj.sj.tj.                                                      I~.uj.vj.wj.xj.1-.|#.|#.V#.V#.}#.;@.;@.;@.;@.;@.;@.-@.-@.-@.-@.-@.-@.-@.7].yj.zj.Aj.Bj.                                                                                       Cj.Dj.o4.Ej.Fj.Gj.Hj.   Ij.Jj.Qi.,h.Kj.Si.!g..i..i..i.Lj.Lj.Mj.Nj.Y2.'!.,c.Oj.Pj.Qj.ef.Rj.H<.Sj.Tj.Uj.Vj.Wj.Xj.Yj.2h.ue.Zj.`j.Hd. k..k.+k.@k.#k.$k.+!.                                                            ",
"         %k.&k.*k.=k.-k.;k.*k.>k.`8.,k.$E 'k.)k.(1 !k.~k.{k.]k.^k.aa /k.|(.Q1.w).(k._k.:k.<k.[k.}k.|k..[ 1k.*: =: 7<.7<.7<.7<.>_ ^(.m6.2k.3k.4k.5k.6k.7k.8k.9k.$9.0k.ak.F$.]!.bk.ck.y!.[( 7<.7<.7<.7<.7<.7<.7<.7<.7<.=: B, A, 73.b3.-< -[.-: &9.&9.c0.+0.Eb.dk.Eb.,e.,e.<d.<d.Kf.n!.V^.+[.<|.53.ek.         fk.gk.hk.ik.oj.pj.jk.kk.lk.mk.nk.                                                      ok.pk.qk.qk.g>.]^.|#.V#.V#.}#.rk.;@.;@.;@.;@.;@.D@.D@.-@.-@.-@.h+.g+.B@.M..sk.tk.                                                                                             *6.uk.vk.wk.xk.yk.zk.   Ak.Bk.Ck.Dk.Ek.7f.Fk.Si.)h..i.Mj.Gk.~g.Lj.^h.Hk.0f.q1.Ik.yd.wd.oe.Jk.Kk.Ad.Lk. :.o^.se.u/. |. |.Z2.t1.Mk.nf.Nk.Ok.Pk.Qk.Rk.Sk.Tk.                                                      "};
